; G-Code generated by Simplify3D(R) Version 3.1.1
; May 9, 2017 at 7:04:32 PM
; Settings Summary
;   processName,FF / Fast / Right
;   applyToModels,wacom_guard_v2
;   profileName,FlashForge Creator Pro (modified)
;   profileVersion,2015-05-01 08:00:00
;   baseProfile,
;   printMaterial,PLA
;   printQuality,Fast
;   printExtruders,Right Extruder Only
;   extruderName,Right Extruder,Left Extruder
;   extruderToolheadNumber,0,1
;   extruderDiameter,0.4,0.4
;   extruderAutoWidth,0,0
;   extruderWidth,0.4,0.4
;   extrusionMultiplier,0.9,0.9
;   extruderUseRetract,1,1
;   extruderRetractionDistance,1,1
;   extruderExtraRestartDistance,0,0
;   extruderRetractionZLift,0,0
;   extruderRetractionSpeed,1200,1200
;   extruderUseCoasting,0,0
;   extruderCoastingDistance,0.2,0.2
;   extruderUseWipe,0,0
;   extruderWipeDistance,5,5
;   primaryExtruder,0
;   layerHeight,0.3
;   topSolidLayers,3
;   bottomSolidLayers,3
;   perimeterOutlines,2
;   printPerimetersInsideOut,1
;   startPointOption,2
;   startPointOriginX,0
;   startPointOriginY,0
;   startPointOriginZ,300
;   sequentialIslands,0
;   spiralVaseMode,0
;   firstLayerHeightPercentage,90
;   firstLayerWidthPercentage,100
;   firstLayerUnderspeed,0.5
;   useRaft,0
;   raftExtruder,0
;   raftLayers,3
;   raftOffset,3
;   raftSeparationDistance,0.14
;   raftInfill,85
;   disableRaftBaseLayers,0
;   useSkirt,1
;   skirtExtruder,0
;   skirtLayers,1
;   skirtOutlines,2
;   skirtOffset,4
;   usePrimePillar,0
;   primePillarExtruder,999
;   primePillarWidth,12
;   primePillarLocation,7
;   primePillarSpeedMultiplier,1
;   useOozeShield,0
;   oozeShieldExtruder,999
;   oozeShieldOffset,2
;   oozeShieldOutlines,1
;   oozeShieldSidewallShape,1
;   oozeShieldSidewallAngle,30
;   oozeShieldSpeedMultiplier,1
;   infillExtruder,0
;   internalInfillPattern,Rectilinear
;   externalInfillPattern,Rectilinear
;   infillPercentage,10
;   outlineOverlapPercentage,20
;   infillExtrusionWidthPercentage,100
;   minInfillLength,5
;   infillLayerInterval,1
;   infillAngles,45,-45
;   overlapInfillAngles,0
;   generateSupport,1
;   supportExtruder,0
;   supportInfillPercentage,25
;   supportExtraInflation,0
;   denseSupportLayers,0
;   denseSupportInfillPercentage,70
;   supportLayerInterval,1
;   supportHorizontalPartOffset,0.3
;   supportUpperSeparationLayers,1
;   supportLowerSeparationLayers,1
;   supportType,0
;   supportGridSpacing,4
;   maxOverhangAngle,45
;   supportAngles,0
;   temperatureName,Right Extruder,Left Extruder,Heated Build Platform
;   temperatureNumber,0,1,0
;   temperatureSetpointCount,1,1,1
;   temperatureSetpointLayers,1,1,1
;   temperatureSetpointTemperatures,205,0,55
;   temperatureStabilizeAtStartup,0,0,0
;   temperatureHeatedBed,0,0,1
;   temperatureRelayBetweenLayers,0,0,0
;   temperatureRelayBetweenLoops,0,0,0
;   fanLayers,1,2
;   fanSpeeds,0,100
;   blipFanToFullPower,0
;   adjustSpeedForCooling,1
;   minSpeedLayerTime,15
;   minCoolingSpeedSlowdown,20
;   increaseFanForCooling,0
;   minFanLayerTime,45
;   maxCoolingFanSpeed,100
;   increaseFanForBridging,1
;   bridgingFanSpeed,100
;   use5D,1
;   relativeEdistances,1
;   allowEaxisZeroing,0
;   independentExtruderAxes,1
;   includeM10123,0
;   stickySupport,1
;   applyToolheadOffsets,0
;   gcodeXoffset,0
;   gcodeYoffset,0
;   gcodeZoffset,0
;   overrideMachineDefinition,1
;   machineTypeOverride,0
;   strokeXoverride,225
;   strokeYoverride,145
;   strokeZoverride,150
;   originOffsetXoverride,112.5
;   originOffsetYoverride,72.5
;   originOffsetZoverride,0
;   homeXdirOverride,1
;   homeYdirOverride,1
;   homeZdirOverride,-1
;   flipXoverride,1
;   flipYoverride,-1
;   flipZoverride,1
;   toolheadOffsets,0,0|34,0|0,0|0,0|0,0|0,0
;   overrideFirmwareConfiguration,1
;   firmwareTypeOverride,MakerBot/Sailfish Firmware
;   GPXconfigOverride,r1d
;   baudRateOverride,115200
;   overridePrinterModels,1
;   printerModelsOverride,FlashForge_CreatorPro.stl
;   startingGcode,; **** Replicator 1 dual start.gcode ****,M73 P0 ; enable build progress,G162 X Y F3000 ; home XY maximum,G161 Z F1200 ; home Z minimum,G92 Z-5 ; set Z to -5,G1 Z0 ; move Z to 0,G161 Z F100 ; home Z slowly,M132 X Y Z A B ; recall home offsets,M135 T0 ; load right extruder offsets,G1 X150 Y-70 Z30 F9000 ; move to wait position right hand side of the table,G130 X20 Y20 Z20 A20 B20 ; lower stepper Vrefs while heating,M126 S[fan_speed_pwm],M140 S[bed0_temperature] T0,M134 T0 ; stabilize bed temperature,M104 S[extruder0_temperature] T0,M133 T0 ; stabilize right extruder temperature,G130 X127 Y127 Z40 A127 B127 ; default stepper Vrefs,G92 A0 B0 ; zero extruders,G1 Z0.4 ; position nozzle,G1 X110 Y-70 E25 F300 ; purge nozzle,G1 X120 Y-70 Z0.15 F1200 ; slow wipe,G1 X110 Y-70 Z0.5 F1200 ; lift,G92 A0 B0 ; zero extruders,M73 P1 ;@body (notify GPX body has started),; **** end of start.gcode ****
;   layerChangeGcode,
;   retractionGcode,
;   toolChangeGcode,
;   endingGcode,; **** Replicator 1 dual end.gcode ****,M73 P100 ; end build progress,G1 Z150 F1000 ; send Z axis to bottom of machine,M140 S0 T0 ; cool down HBP,M104 S0 T0 ; cool down right extruder,M104 S0 T1 ; cool down left extruder,M127 ; stop blower fan,G162 X Y F3000 ; home XY maximum,M18 ; disable stepper,M72 P1 ; play Ta-Da song,; **** end of end.gcode ****
;   exportFileFormat,x3g
;   celebration,0
;   celebrationSong,Random Song
;   postProcessing,
;   defaultSpeed,3600
;   outlineUnderspeed,0.5
;   solidInfillUnderspeed,0.8
;   supportUnderspeed,0.8
;   rapidXYspeed,4200
;   rapidZspeed,1200
;   minBridgingArea,50
;   bridgingExtraInflation,0
;   bridgingExtrusionMultiplier,1
;   bridgingSpeedMultiplier,0.8
;   filamentDiameter,1.75
;   filamentPricePerKg,46
;   filamentDensity,1.25
;   useMinPrintHeight,0
;   minPrintHeight,0
;   useMaxPrintHeight,0
;   maxPrintHeight,0
;   useDiaphragm,0
;   diaphragmLayerInterval,20
;   robustSlicing,1
;   mergeAllIntoSolid,0
;   onlyRetractWhenCrossingOutline,1
;   retractBetweenLayers,1
;   useRetractionMinTravel,0
;   retractionMinTravel,3
;   retractWhileWiping,0
;   onlyWipeOutlines,1
;   avoidCrossingOutline,0
;   maxMovementDetourFactor,3
;   toolChangeRetractionDistance,12
;   toolChangeExtraRestartDistance,-0.5
;   toolChangeRetractionSpeed,600
;   allowThinWallGapFill,1
;   thinWallAllowedOverlapPercentage,10
;   horizontalSizeCompensation,0
G90
M83
; **** Replicator 1 dual start.gcode ****
M73 P0 ; enable build progress
G162 X Y F3000 ; home XY maximum
G161 Z F1200 ; home Z minimum
G92 Z-5 ; set Z to -5
G1 Z0 ; move Z to 0
G161 Z F100 ; home Z slowly
M132 X Y Z A B ; recall home offsets
M135 T0 ; load right extruder offsets
G1 X150 Y-70 Z30 F9000 ; move to wait position right hand side of the table
G130 X20 Y20 Z20 A20 B20 ; lower stepper Vrefs while heating
M127
M140 S55 T0
M134 T0 ; stabilize bed temperature
M104 S205 T0
M133 T0 ; stabilize right extruder temperature
G130 X127 Y127 Z40 A127 B127 ; default stepper Vrefs
G92 A0 B0 ; zero extruders
G1 Z0.4 ; position nozzle
G1 X110 Y-70 E25 F300 ; purge nozzle
G1 X120 Y-70 Z0.15 F1200 ; slow wipe
G1 X110 Y-70 Z0.5 F1200 ; lift
G92 A0 B0 ; zero extruders
M73 P1 ;@body (notify GPX body has started)
; **** end of start.gcode ****
G1 E-1.0000 F1200
G1 Z0.270 F1200
; layer 1, Z = 0.27
M135 T0
; tool H0.300 W0.400
; skirt
G1 X10.093 Y-6.316 F4200
G1 E1.0000 F360
G1 X13.069 Y-6.316 E0.1336 F1800
G1 X13.289 Y-6.225 E0.0107
G1 X15.801 Y-3.713 E0.1595
G1 X15.892 Y-3.493 E0.0107
G1 X15.892 Y3.493 E0.3136
G1 X15.801 Y3.713 E0.0107
G1 X13.289 Y6.225 E0.1595
G1 X13.069 Y6.316 E0.0107
G1 X10.093 Y6.316 E0.1336
G1 X10.088 Y7.066 E0.0337
G1 X10.088 Y7.070 E0.0002
G1 X10.087 Y7.133 E0.0028
G1 X10.087 Y7.137 E0.0002
G1 X9.985 Y10.009 E0.1290
G1 X9.985 Y14.919 E0.2205
G1 X9.980 Y14.973 E0.0025
G1 X9.838 Y15.745 E0.0352
G1 X9.823 Y15.798 E0.0025
G1 X9.549 Y16.517 E0.0345
G1 X9.541 Y16.537 E0.0010
G1 X9.413 Y16.813 E0.0137
G1 X9.403 Y16.832 E0.0010
G1 X9.085 Y17.406 E0.0295
G1 X9.062 Y17.442 E0.0019
G1 X8.694 Y17.928 E0.0274
G1 X8.666 Y17.960 E0.0019
G1 X8.177 Y18.446 E0.0310
G1 X8.153 Y18.468 E0.0014
G1 X7.794 Y18.755 E0.0206
G1 X7.768 Y18.774 E0.0014
G1 X7.162 Y19.161 E0.0323
G1 X7.135 Y19.176 E0.0014
G1 X6.726 Y19.380 E0.0205
G1 X6.697 Y19.393 E0.0014
G1 X5.904 Y19.688 E0.0380
G1 X5.850 Y19.703 E0.0025
G1 X5.059 Y19.839 E0.0360
G1 X5.003 Y19.843 E0.0025
G1 X-8.043 Y19.639 E0.5858
G1 X-8.095 Y19.634 E0.0024
G1 X-8.842 Y19.488 E0.0342
G1 X-8.893 Y19.474 E0.0024
G1 X-9.613 Y19.196 E0.0347
G1 X-9.635 Y19.186 E0.0011
G1 X-9.946 Y19.036 E0.0155
G1 X-9.967 Y19.025 E0.0011
G1 X-10.559 Y18.679 E0.0308
G1 X-10.591 Y18.657 E0.0017
G1 X-11.027 Y18.321 E0.0247
G1 X-11.056 Y18.296 E0.0017
G1 X-11.624 Y17.729 E0.0361
G1 X-11.657 Y17.689 E0.0023
G1 X-12.084 Y17.084 E0.0333
G1 X-12.110 Y17.039 E0.0023
G1 X-12.663 Y15.872 E0.0580
G1 X-12.685 Y15.809 E0.0030
G1 X-12.894 Y14.878 E0.0429
G1 X-12.901 Y14.812 E0.0030
G1 X-12.901 Y-14.733 E1.3266
G1 X-12.896 Y-14.789 E0.0025
G1 X-12.749 Y-15.573 E0.0358
G1 X-12.734 Y-15.626 E0.0025
G1 X-12.454 Y-16.348 E0.0348
G1 X-12.446 Y-16.367 E0.0010
G1 X-12.314 Y-16.647 E0.0139
G1 X-12.304 Y-16.666 E0.0010
G1 X-11.974 Y-17.251 E0.0302
G1 X-11.951 Y-17.285 E0.0018
G1 X-11.596 Y-17.752 E0.0264
G1 X-11.569 Y-17.783 E0.0018
G1 X-10.997 Y-18.355 E0.0363
G1 X-10.959 Y-18.387 E0.0022
G1 X-10.375 Y-18.802 E0.0322
G1 X-10.332 Y-18.828 E0.0022
G1 X-9.176 Y-19.389 E0.0577
G1 X-9.115 Y-19.411 E0.0029
G1 X-8.198 Y-19.630 E0.0423
G1 X-8.133 Y-19.638 E0.0029
G1 X5.003 Y-19.843 E0.5899
G1 X5.059 Y-19.839 E0.0025
G1 X5.850 Y-19.703 E0.0360
G1 X5.904 Y-19.688 E0.0025
G1 X6.697 Y-19.393 E0.0380
G1 X6.726 Y-19.380 E0.0014
G1 X7.135 Y-19.176 E0.0205
G1 X7.162 Y-19.161 E0.0014
G1 X7.768 Y-18.774 E0.0323
G1 X7.794 Y-18.755 E0.0014
G1 X8.153 Y-18.468 E0.0206
G1 X8.177 Y-18.446 E0.0014
G1 X8.724 Y-17.903 E0.0346
G1 X8.759 Y-17.862 E0.0024
G1 X9.200 Y-17.229 E0.0346
G1 X9.227 Y-17.183 E0.0024
G1 X9.759 Y-16.025 E0.0572
G1 X9.779 Y-15.964 E0.0029
G1 X9.978 Y-15.056 E0.0417
G1 X9.985 Y-14.991 E0.0029
G1 X9.985 Y-10.009 E0.2237
G1 X10.087 Y-7.137 E0.1290
G1 X10.087 Y-7.133 E0.0002
G1 X10.088 Y-7.070 E0.0028
G1 X10.088 Y-7.066 E0.0002
G1 X10.093 Y-6.316 E0.0337
G1 X9.696 Y-5.916 F4200
G1 X12.989 Y-5.916 E0.1479 F1800
G1 X13.063 Y-5.886 E0.0036
G1 X15.462 Y-3.487 E0.1524
G1 X15.492 Y-3.413 E0.0036
G1 X15.492 Y3.413 E0.3065
G1 X15.462 Y3.487 E0.0036
G1 X13.063 Y5.886 E0.1524
G1 X12.989 Y5.916 E0.0036
G1 X9.696 Y5.916 E0.1479
G1 X9.688 Y7.062 E0.0514
G1 X9.687 Y7.123 E0.0027
G1 X9.585 Y10.002 E0.1293
G1 X9.585 Y14.901 E0.2200
G1 X9.583 Y14.919 E0.0008
G1 X9.448 Y15.655 E0.0336
G1 X9.443 Y15.672 E0.0008
G1 X9.178 Y16.368 E0.0334
G1 X9.175 Y16.374 E0.0003
G1 X9.053 Y16.638 E0.0130
G1 X9.050 Y16.644 E0.0003
G1 X8.742 Y17.200 E0.0285
G1 X8.734 Y17.212 E0.0006
G1 X8.384 Y17.675 E0.0261
G1 X8.374 Y17.686 E0.0006
G1 X7.902 Y18.155 E0.0299
G1 X7.894 Y18.162 E0.0005
G1 X7.552 Y18.436 E0.0197
G1 X7.544 Y18.442 E0.0005
G1 X6.956 Y18.818 E0.0313
G1 X6.947 Y18.823 E0.0005
G1 X6.557 Y19.017 E0.0195
G1 X6.548 Y19.022 E0.0005
G1 X5.781 Y19.307 E0.0367
G1 X5.764 Y19.312 E0.0008
G1 X5.009 Y19.442 E0.0344
G1 X4.991 Y19.443 E0.0008
G1 X-8.019 Y19.239 E0.5842
G1 X-8.036 Y19.238 E0.0008
G1 X-8.748 Y19.099 E0.0326
G1 X-8.765 Y19.094 E0.0008
G1 X-9.461 Y18.825 E0.0335
G1 X-9.469 Y18.822 E0.0004
G1 X-9.765 Y18.679 E0.0148
G1 X-9.772 Y18.676 E0.0004
G1 X-10.346 Y18.340 E0.0299
G1 X-10.357 Y18.333 E0.0006
G1 X-10.772 Y18.012 E0.0236
G1 X-10.782 Y18.004 E0.0006
G1 X-11.329 Y17.458 E0.0347
G1 X-11.340 Y17.445 E0.0008
G1 X-11.748 Y16.867 E0.0317
G1 X-11.756 Y16.852 E0.0008
G1 X-12.292 Y15.721 E0.0562
G1 X-12.299 Y15.700 E0.0010
G1 X-12.499 Y14.812 E0.0409
G1 X-12.501 Y14.790 E0.0010
G1 X-12.501 Y-14.715 E1.3248
G1 X-12.500 Y-14.733 E0.0008
G1 X-12.360 Y-15.481 E0.0341
G1 X-12.355 Y-15.499 E0.0008
G1 X-12.084 Y-16.196 E0.0336
G1 X-12.081 Y-16.203 E0.0003
G1 X-11.955 Y-16.469 E0.0132
G1 X-11.952 Y-16.476 E0.0003
G1 X-11.632 Y-17.042 E0.0292
G1 X-11.625 Y-17.054 E0.0006
G1 X-11.286 Y-17.499 E0.0251
G1 X-11.277 Y-17.510 E0.0006
G1 X-10.726 Y-18.060 E0.0350
G1 X-10.713 Y-18.071 E0.0007
G1 X-10.157 Y-18.467 E0.0307
G1 X-10.142 Y-18.475 E0.0007
G1 X-9.021 Y-19.020 E0.0560
G1 X-9.001 Y-19.027 E0.0010
G1 X-8.127 Y-19.235 E0.0403
G1 X-8.105 Y-19.238 E0.0010
G1 X4.991 Y-19.443 E0.5881
G1 X5.009 Y-19.442 E0.0008
G1 X5.764 Y-19.312 E0.0344
G1 X5.781 Y-19.307 E0.0008
G1 X6.548 Y-19.022 E0.0367
G1 X6.557 Y-19.017 E0.0005
G1 X6.947 Y-18.823 E0.0195
G1 X6.956 Y-18.818 E0.0005
G1 X7.544 Y-18.442 E0.0313
G1 X7.552 Y-18.436 E0.0005
G1 X7.894 Y-18.162 E0.0197
G1 X7.902 Y-18.155 E0.0005
G1 X8.429 Y-17.632 E0.0334
G1 X8.441 Y-17.618 E0.0008
G1 X8.862 Y-17.015 E0.0330
G1 X8.871 Y-16.999 E0.0008
G1 X9.386 Y-15.878 E0.0554
G1 X9.393 Y-15.857 E0.0010
G1 X9.583 Y-14.991 E0.0398
G1 X9.585 Y-14.970 E0.0010
G1 X9.585 Y-10.002 E0.2231
G1 X9.687 Y-7.124 E0.1293
G1 X9.688 Y-7.063 E0.0027
G1 X9.696 Y-5.916 E0.0514
G1 E-1.0000 F1200
; inner perimeter
G1 X4.889 Y-6.993 F4200
G1 E1.0000 F1200
G1 X4.918 Y-2.316 E0.2100 F1350
G1 X4.879 Y-2.316 E0.0018
G1 X4.879 Y2.316 E0.2080
G1 X4.918 Y2.316 E0.0018
G1 X4.889 Y6.993 E0.2100
G1 X4.785 Y9.917 E0.1314
G1 X4.785 Y14.416 E0.2020
G1 X4.759 Y14.483 E0.0032
G1 X4.723 Y14.548 E0.0033
G1 X4.587 Y14.636 E0.0073
G1 X2.763 Y14.598 E0.0819
G1 X2.763 Y-14.598 E1.3110
G1 X4.587 Y-14.636 E0.0819
G1 X4.723 Y-14.548 E0.0073
G1 X4.759 Y-14.483 E0.0033
G1 X4.785 Y-14.416 E0.0032
G1 X4.785 Y-9.917 E0.2020
G1 X4.889 Y-6.993 E0.1314
; outer perimeter
G1 X5.289 Y-7.002 F4200
G1 X5.321 Y-1.916 E0.2283 F900
G1 X5.279 Y-1.916 E0.0019
G1 X5.279 Y1.916 E0.1721
G1 X5.321 Y1.916 E0.0019
G1 X5.289 Y7.002 E0.2283
G1 X5.185 Y9.924 E0.1313
G1 X5.185 Y14.490 E0.2050
G1 X5.123 Y14.652 E0.0078
G1 X5.047 Y14.790 E0.0071
G1 X4.972 Y14.864 E0.0048
G1 X4.788 Y14.982 E0.0098
G1 X4.640 Y15.037 E0.0071
G1 X0.809 Y14.958 E0.1720
G1 X-7.552 Y14.846 E0.3755
G1 X-7.708 Y14.786 E0.0075
G1 X-7.877 Y14.687 E0.0088
G1 X-7.951 Y14.613 E0.0047
G1 X-8.040 Y14.455 E0.0082
G1 X-8.101 Y14.297 E0.0076
G1 X-8.101 Y-14.297 E1.2839
G1 X-8.040 Y-14.455 E0.0076
G1 X-7.951 Y-14.613 E0.0082
G1 X-7.877 Y-14.687 E0.0047
G1 X-7.708 Y-14.786 E0.0088
G1 X-7.552 Y-14.846 E0.0075
G1 X0.809 Y-14.958 E0.3755
G1 X4.640 Y-15.037 E0.1720
G1 X4.788 Y-14.982 E0.0071
G1 X4.972 Y-14.864 E0.0098
G1 X5.047 Y-14.790 E0.0048
G1 X5.123 Y-14.652 E0.0071
G1 X5.185 Y-14.490 E0.0078
G1 X5.185 Y-9.924 E0.2050
G1 X5.289 Y-7.002 E0.1313
; inner perimeter
; outer perimeter
G1 X2.363 Y-14.017 F4200
G1 X-7.047 Y-14.017 E0.4225 F900
G1 X-7.047 Y14.017 E1.2588
G1 X2.363 Y14.017 E0.4225
G1 X2.363 Y-14.017 E1.2588
; gap fill
G1 X2.306 Y-14.665 F4200
G1 X2.443 Y-14.527 E0.0087 F1440
G1 X2.443 Y-14.341 E0.0084
G1 X2.064 Y-14.341 E0.0170
G1 X1.751 Y-14.653 E0.0198
G1 X1.197 Y-14.642 E0.0249
G1 X1.498 Y-14.341 E0.0191
G1 X0.932 Y-14.341 E0.0254
G1 X0.642 Y-14.632 E0.0185
G1 X0.083 Y-14.624 E0.0251
G1 X0.367 Y-14.341 E0.0180
G1 X-0.199 Y-14.341 E0.0254
G1 X-0.475 Y-14.617 E0.0175
G1 X-1.033 Y-14.609 E0.0251
G1 X-0.765 Y-14.341 E0.0170
G1 X-1.330 Y-14.341 E0.0254
G1 X-1.591 Y-14.602 E0.0166
G1 X-2.149 Y-14.594 E0.0251
G1 X-1.896 Y-14.341 E0.0161
G1 X-2.462 Y-14.341 E0.0254
G1 X-2.708 Y-14.587 E0.0156
G1 X-3.266 Y-14.580 E0.0251
G1 X-3.027 Y-14.341 E0.0151
G1 X-3.593 Y-14.341 E0.0254
G1 X-3.824 Y-14.572 E0.0147
G1 X-4.382 Y-14.565 E0.0251
G1 X-4.159 Y-14.341 E0.0142
G1 X-4.724 Y-14.341 E0.0254
G1 X-4.940 Y-14.557 E0.0137
G1 X-5.499 Y-14.550 E0.0251
G1 X-5.290 Y-14.341 E0.0132
G1 X-5.856 Y-14.341 E0.0254
G1 X-6.057 Y-14.542 E0.0128
G1 X-6.615 Y-14.535 E0.0251
G1 X-6.422 Y-14.341 E0.0123
G1 X-6.987 Y-14.341 E0.0254
G1 X-7.173 Y-14.527 E0.0118
G1 X-7.489 Y-14.523 E0.0142
G1 X-7.567 Y-14.493 E0.0037
G1 X-7.654 Y-14.442 E0.0045
G1 X-7.371 Y-14.160 E0.0179
G1 X-7.371 Y-13.594 E0.0254
G1 X-7.777 Y-14.000 E0.0258
G1 X-7.777 Y-13.434 E0.0254
G1 X-7.371 Y-13.028 E0.0258
G1 X-7.371 Y-12.463 E0.0254
G1 X-7.777 Y-12.869 E0.0258
G1 X-7.777 Y-12.303 E0.0254
G1 X-7.371 Y-11.897 E0.0258
G1 X-7.371 Y-11.331 E0.0254
G1 X-7.777 Y-11.737 E0.0258
