; G-Code generated by Simplify3D(R) Version 4.0.0
; Aug 17, 2017 at 9:08:55 PM
; Settings Summary
;   processName,petg
;   applyToModels,bumper,bumper(2)
;   profileName,FlashForge Creator Pro (modified)
;   profileVersion,2015-05-01 08:00:00
;   baseProfile,
;   printMaterial,ABS
;   printQuality,Fast
;   printExtruders,Right Extruder Only
;   extruderName,Right Extruder,Left Extruder
;   extruderToolheadNumber,0,1
;   extruderDiameter,0.4,0.4
;   extruderAutoWidth,0,0
;   extruderWidth,0.4,0.4
;   extrusionMultiplier,1,1
;   extruderUseRetract,1,1
;   extruderRetractionDistance,1,1
;   extruderExtraRestartDistance,0,0
;   extruderRetractionZLift,0,0
;   extruderRetractionSpeed,1200,1200
;   extruderUseCoasting,0,0
;   extruderCoastingDistance,0.2,0.2
;   extruderUseWipe,0,0
;   extruderWipeDistance,5,5
;   primaryExtruder,0
;   layerHeight,0.3
;   topSolidLayers,3
;   bottomSolidLayers,3
;   perimeterOutlines,2
;   printPerimetersInsideOut,1
;   startPointOption,2
;   startPointOriginX,0
;   startPointOriginY,0
;   sequentialIslands,0
;   spiralVaseMode,0
;   firstLayerHeightPercentage,90
;   firstLayerWidthPercentage,100
;   firstLayerUnderspeed,0.5
;   useRaft,0
;   raftExtruder,0
;   raftTopLayers,3
;   raftBaseLayers,2
;   raftOffset,3
;   raftSeparationDistance,0.14
;   raftTopInfill,100
;   aboveRaftSpeedMultiplier,0.3
;   useSkirt,1
;   skirtExtruder,0
;   skirtLayers,1
;   skirtOutlines,2
;   skirtOffset,4
;   usePrimePillar,0
;   primePillarExtruder,999
;   primePillarWidth,12
;   primePillarLocation,7
;   primePillarSpeedMultiplier,1
;   useOozeShield,0
;   oozeShieldExtruder,999
;   oozeShieldOffset,2
;   oozeShieldOutlines,1
;   oozeShieldSidewallShape,1
;   oozeShieldSidewallAngle,30
;   oozeShieldSpeedMultiplier,1
;   infillExtruder,0
;   internalInfillPattern,Rectilinear
;   externalInfillPattern,Rectilinear
;   infillPercentage,100
;   outlineOverlapPercentage,20
;   infillExtrusionWidthPercentage,100
;   minInfillLength,5
;   infillLayerInterval,1
;   internalInfillAngles,45,-45
;   overlapInternalInfillAngles,0
;   externalInfillAngles,45,-45
;   generateSupport,0
;   supportExtruder,0
;   supportInfillPercentage,25
;   supportExtraInflation,0
;   supportBaseLayers,0
;   denseSupportExtruder,0
;   denseSupportLayers,0
;   denseSupportInfillPercentage,70
;   supportLayerInterval,1
;   supportHorizontalPartOffset,0.3
;   supportUpperSeparationLayers,1
;   supportLowerSeparationLayers,1
;   supportType,0
;   supportGridSpacing,4
;   maxOverhangAngle,45
;   supportAngles,0
;   temperatureName,Right Extruder,Left Extruder,Heated Build Platform
;   temperatureNumber,0,1,0
;   temperatureSetpointCount,1,1,1
;   temperatureSetpointLayers,1,1,1
;   temperatureSetpointTemperatures,230,0,90
;   temperatureStabilizeAtStartup,0,0,0
;   temperatureHeatedBed,0,0,1
;   temperatureRelayBetweenLayers,0,0,0
;   temperatureRelayBetweenLoops,0,0,0
;   fanLayers,1
;   fanSpeeds,0
;   blipFanToFullPower,0
;   adjustSpeedForCooling,1
;   minSpeedLayerTime,15
;   minCoolingSpeedSlowdown,20
;   increaseFanForCooling,0
;   minFanLayerTime,45
;   maxCoolingFanSpeed,100
;   increaseFanForBridging,1
;   bridgingFanSpeed,100
;   use5D,1
;   relativeEdistances,1
;   allowEaxisZeroing,0
;   independentExtruderAxes,1
;   includeM10123,0
;   stickySupport,1
;   applyToolheadOffsets,0
;   gcodeXoffset,0
;   gcodeYoffset,0
;   gcodeZoffset,0
;   overrideMachineDefinition,1
;   machineTypeOverride,0
;   strokeXoverride,225
;   strokeYoverride,145
;   strokeZoverride,150
;   originOffsetXoverride,112.5
;   originOffsetYoverride,72.5
;   originOffsetZoverride,0
;   homeXdirOverride,1
;   homeYdirOverride,1
;   homeZdirOverride,-1
;   flipXoverride,1
;   flipYoverride,-1
;   flipZoverride,1
;   toolheadOffsets,0,0|34,0|0,0|0,0|0,0|0,0
;   overrideFirmwareConfiguration,1
;   firmwareTypeOverride,MakerBot/Sailfish Firmware
;   GPXconfigOverride,r1d
;   baudRateOverride,115200
;   overridePrinterModels,1
;   printerModelsOverride,FlashForge_CreatorPro.stl
;   startingGcode,; **** Replicator 1 dual start.gcode ****,M73 P0 ; enable build progress,G162 X Y F3000 ; home XY maximum,G161 Z F1200 ; home Z minimum,G92 Z-5 ; set Z to -5,G1 Z0 ; move Z to 0,G161 Z F100 ; home Z slowly,M132 X Y Z A B ; recall home offsets,M135 T0 ; load right extruder offsets,G1 X150 Y-70 Z30 F9000 ; move to wait position right hand side of the table,G130 X20 Y20 Z20 A20 B20 ; lower stepper Vrefs while heating,M126 S[fan_speed_pwm],M140 S[bed0_temperature] T0,M134 T0 ; stabilize bed temperature,M104 S[extruder0_temperature] T0,M133 T0 ; stabilize right extruder temperature,G130 X127 Y127 Z40 A127 B127 ; default stepper Vrefs,G92 A0 B0 ; zero extruders,G1 Z0.4 ; position nozzle,G1 X110 Y-70 E25 F300 ; purge nozzle,G1 X120 Y-70 Z0.15 F1200 ; slow wipe,G1 X110 Y-70 Z0.5 F1200 ; lift,G92 A0 B0 ; zero extruders,M73 P1 ;@body (notify GPX body has started),; **** end of start.gcode ****
;   layerChangeGcode,
;   retractionGcode,
;   toolChangeGcode,
;   endingGcode,; **** Replicator 1 dual end.gcode ****,M73 P100 ; end build progress,G1 Z150 F1000 ; send Z axis to bottom of machine,M140 S0 T0 ; cool down HBP,M104 S0 T0 ; cool down right extruder,M104 S0 T1 ; cool down left extruder,M127 ; stop blower fan,G162 X Y F3000 ; home XY maximum,M18 ; disable stepper,M72 P1 ; play Ta-Da song,; **** end of end.gcode ****
;   exportFileFormat,x3g
;   celebration,0
;   celebrationSong,Random Song
;   postProcessing,
;   defaultSpeed,3600
;   outlineUnderspeed,0.5
;   solidInfillUnderspeed,0.8
;   supportUnderspeed,0.8
;   rapidXYspeed,4200
;   rapidZspeed,1200
;   minBridgingArea,50
;   bridgingExtraInflation,0
;   bridgingExtrusionMultiplier,1
;   bridgingSpeedMultiplier,0.8
;   useFixedBridgingAngle,0
;   fixedBridgingAngle,0
;   applyBridgingToPerimeters,0
;   filamentDiameters,1.75|1.75|1.75|1.75|1.75|1.75
;   filamentPricesPerKg,46|46|46|46|46|46
;   filamentDensities,1.25|1.25|1.25|1.25|1.25|1.25
;   useMinPrintHeight,0
;   minPrintHeight,0
;   useMaxPrintHeight,0
;   maxPrintHeight,0
;   useDiaphragm,0
;   diaphragmLayerInterval,20
;   robustSlicing,1
;   mergeAllIntoSolid,0
;   onlyRetractWhenCrossingOutline,1
;   retractBetweenLayers,1
;   useRetractionMinTravel,0
;   retractionMinTravel,3
;   retractWhileWiping,0
;   onlyWipeOutlines,1
;   avoidCrossingOutline,0
;   maxMovementDetourFactor,3
;   toolChangeRetractionDistance,12
;   toolChangeExtraRestartDistance,-0.5
;   toolChangeRetractionSpeed,600
;   externalThinWallType,0
;   internalThinWallType,2
;   thinWallAllowedOverlapPercentage,10
;   singleExtrusionMinLength,1
;   singleExtrusionMinPrintingWidthPercentage,50
;   singleExtrusionMaxPrintingWidthPercentage,200
;   singleExtrusionEndpointExtension,0.2
;   horizontalSizeCompensation,0
G90
M83
; **** Replicator 1 dual start.gcode ****
M73 P0 ; enable build progress
G162 X Y F3000 ; home XY maximum
G161 Z F1200 ; home Z minimum
G92 Z-5 ; set Z to -5
G1 Z0 ; move Z to 0
G161 Z F100 ; home Z slowly
M132 X Y Z A B ; recall home offsets
M135 T0 ; load right extruder offsets
G1 X150 Y-70 Z30 F9000 ; move to wait position right hand side of the table
G130 X20 Y20 Z20 A20 B20 ; lower stepper Vrefs while heating
M127
M140 S90 T0
M134 T0 ; stabilize bed temperature
M104 S230 T0
M133 T0 ; stabilize right extruder temperature
G130 X127 Y127 Z40 A127 B127 ; default stepper Vrefs
G92 A0 B0 ; zero extruders
G1 Z0.4 ; position nozzle
G1 X110 Y-70 E25 F300 ; purge nozzle
G1 X120 Y-70 Z0.15 F1200 ; slow wipe
G1 X110 Y-70 Z0.5 F1200 ; lift
G92 A0 B0 ; zero extruders
M73 P1 ;@body (notify GPX body has started)
; **** end of start.gcode ****
G1 E-1.0000 F1200
G1 Z0.270 F1200
; process petg
; layer 1, Z = 0.270
M135 T0
; tool H0.300 W0.400
; skirt
G1 X-13.718 Y1.226 F4200
G1 E1.0000 F360
G1 X-13.736 Y1.225 E0.0009 F1800
G1 X-13.990 Y1.210 E0.0127
G1 X-14.007 Y1.209 E0.0009
G1 X-14.695 Y1.127 E0.0346
G1 X-14.718 Y1.123 E0.0012
G1 X-15.052 Y1.057 E0.0170
G1 X-15.075 Y1.051 E0.0012
G1 X-15.717 Y0.869 E0.0333
G1 X-15.744 Y0.860 E0.0014
G1 X-16.115 Y0.717 E0.0198
G1 X-16.140 Y0.706 E0.0014
G1 X-16.949 Y0.304 E0.0451
G1 X-16.975 Y0.289 E0.0015
G1 X-17.340 Y0.060 E0.0215
G1 X-17.364 Y0.043 E0.0015
G1 X-18.018 Y-0.466 E0.0413
G1 X-18.036 Y-0.481 E0.0012
G1 X-18.287 Y-0.711 E0.0170
G1 X-18.304 Y-0.728 E0.0012
G1 X-18.744 Y-1.198 E0.0321
G1 X-18.757 Y-1.213 E0.0010
G1 X-18.940 Y-1.438 E0.0145
G1 X-18.952 Y-1.454 E0.0010
G1 X-19.312 Y-1.961 E0.0310
G1 X-19.322 Y-1.977 E0.0009
G1 X-19.460 Y-2.200 E0.0131
G1 X-19.469 Y-2.215 E0.0009
G1 X-19.769 Y-2.772 E0.0315
G1 X-19.778 Y-2.789 E0.0010
G1 X-19.892 Y-3.037 E0.0136
G1 X-19.899 Y-3.055 E0.0010
G1 X-20.135 Y-3.666 E0.0327
G1 X-20.140 Y-3.682 E0.0008
G1 X-20.214 Y-3.912 E0.0121
G1 X-20.219 Y-3.929 E0.0008
G1 X-20.390 Y-4.585 E0.0338
G1 X-20.394 Y-4.600 E0.0008
G1 X-20.440 Y-4.827 E0.0116
G1 X-20.443 Y-4.843 E0.0008
G1 X-20.556 Y-5.604 E0.0384
G1 X-20.558 Y-5.621 E0.0008
G1 X-20.580 Y-5.863 E0.0121
G1 X-20.581 Y-5.880 E0.0008
G1 X-20.634 Y-7.428 E0.0773
G1 X-20.634 Y-7.433 E0.0003
G1 X-20.635 Y-7.508 E0.0038
G1 X-20.635 Y-7.513 E0.0003
G1 X-20.633 Y-11.397 E0.1938
G1 X-20.541 Y-11.618 E0.0119
G1 X-18.030 Y-14.127 E0.1771
G1 X-17.809 Y-14.219 E0.0119
G1 X75.727 Y-14.219 E4.6665
G1 X75.948 Y-14.127 E0.0119
G1 X78.460 Y-11.615 E0.1772
G1 X78.551 Y-11.395 E0.0119
G1 X78.551 Y-7.599 E0.1894
G1 X78.551 Y-7.596 E0.0001
G1 X78.551 Y-7.555 E0.0020
G1 X78.551 Y-7.553 E0.0001
G1 X78.528 Y-6.373 E0.0588
G1 X78.528 Y-6.359 E0.0007
G1 X78.515 Y-6.159 E0.0100
G1 X78.513 Y-6.146 E0.0007
G1 X78.381 Y-4.966 E0.0592
G1 X78.378 Y-4.945 E0.0011
G1 X78.322 Y-4.642 E0.0154
G1 X78.317 Y-4.621 E0.0011
G1 X78.136 Y-3.928 E0.0357
G1 X78.132 Y-3.912 E0.0008
G1 X78.058 Y-3.682 E0.0121
G1 X78.052 Y-3.666 E0.0008
G1 X77.817 Y-3.055 E0.0327
G1 X77.809 Y-3.037 E0.0010
G1 X77.695 Y-2.789 E0.0136
G1 X77.686 Y-2.772 E0.0010
G1 X77.387 Y-2.215 E0.0315
G1 X77.377 Y-2.200 E0.0009
G1 X77.239 Y-1.976 E0.0131
G1 X77.229 Y-1.961 E0.0009
G1 X76.869 Y-1.454 E0.0310
G1 X76.857 Y-1.438 E0.0010
G1 X76.674 Y-1.213 E0.0144
G1 X76.661 Y-1.198 E0.0010
G1 X76.221 Y-0.728 E0.0321
G1 X76.204 Y-0.711 E0.0012
G1 X75.953 Y-0.481 E0.0170
G1 X75.935 Y-0.466 E0.0012
G1 X75.282 Y0.043 E0.0413
G1 X75.257 Y0.060 E0.0015
G1 X74.892 Y0.289 E0.0215
G1 X74.866 Y0.304 E0.0015
G1 X74.057 Y0.706 E0.0451
G1 X74.032 Y0.717 E0.0014
G1 X73.661 Y0.860 E0.0198
G1 X73.635 Y0.869 E0.0014
G1 X72.992 Y1.051 E0.0333
G1 X72.969 Y1.057 E0.0012
G1 X72.636 Y1.123 E0.0170
G1 X72.612 Y1.127 E0.0012
G1 X71.924 Y1.209 E0.0346
G1 X71.907 Y1.210 E0.0009
G1 X71.653 Y1.225 E0.0127
G1 X71.635 Y1.226 E0.0009
G1 X-13.718 Y1.226 E4.2583
G1 X-18.484 Y10.110 F4200
G1 X75.052 Y10.110 E4.6665 F1800
G1 X75.273 Y10.201 E0.0119
G1 X77.784 Y12.713 E0.1772
G1 X77.876 Y12.934 E0.0119
G1 X77.876 Y16.730 E0.1894
G1 X77.876 Y16.733 E0.0001
G1 X77.875 Y16.773 E0.0020
G1 X77.875 Y16.776 E0.0001
G1 X77.853 Y17.955 E0.0588
G1 X77.853 Y17.969 E0.0007
G1 X77.840 Y18.169 E0.0100
G1 X77.838 Y18.183 E0.0007
G1 X77.706 Y19.363 E0.0592
G1 X77.703 Y19.384 E0.0011
G1 X77.646 Y19.686 E0.0154
G1 X77.642 Y19.707 E0.0011
G1 X77.461 Y20.400 E0.0357
G1 X77.456 Y20.416 E0.0008
G1 X77.382 Y20.646 E0.0121
G1 X77.377 Y20.662 E0.0008
G1 X77.141 Y21.274 E0.0327
G1 X77.134 Y21.292 E0.0009
G1 X77.020 Y21.540 E0.0136
G1 X77.011 Y21.557 E0.0010
G1 X76.711 Y22.113 E0.0315
G1 X76.702 Y22.129 E0.0009
G1 X76.564 Y22.352 E0.0131
G1 X76.554 Y22.367 E0.0009
G1 X76.194 Y22.875 E0.0310
G1 X76.182 Y22.891 E0.0010
G1 X75.999 Y23.115 E0.0144
G1 X75.986 Y23.130 E0.0010
G1 X75.546 Y23.601 E0.0321
G1 X75.529 Y23.618 E0.0012
G1 X75.278 Y23.848 E0.0170
G1 X75.260 Y23.863 E0.0012
G1 X74.606 Y24.371 E0.0413
G1 X74.582 Y24.388 E0.0015
G1 X74.217 Y24.618 E0.0215
G1 X74.191 Y24.632 E0.0015
G1 X73.382 Y25.034 E0.0451
G1 X73.357 Y25.045 E0.0014
G1 X72.986 Y25.189 E0.0198
G1 X72.959 Y25.197 E0.0014
G1 X72.317 Y25.380 E0.0333
G1 X72.294 Y25.385 E0.0012
G1 X71.960 Y25.452 E0.0170
G1 X71.937 Y25.456 E0.0012
G1 X71.249 Y25.537 E0.0346
G1 X71.232 Y25.539 E0.0009
G1 X70.978 Y25.554 E0.0127
G1 X70.960 Y25.554 E0.0009
G1 X-14.393 Y25.554 E4.2583
G1 X-14.411 Y25.554 E0.0009
G1 X-14.665 Y25.539 E0.0127
G1 X-14.682 Y25.537 E0.0009
G1 X-15.370 Y25.456 E0.0346
G1 X-15.394 Y25.452 E0.0012
G1 X-15.727 Y25.385 E0.0170
G1 X-15.750 Y25.380 E0.0012
G1 X-16.393 Y25.197 E0.0333
G1 X-16.419 Y25.189 E0.0014
G1 X-16.790 Y25.045 E0.0198
G1 X-16.815 Y25.034 E0.0014
G1 X-17.624 Y24.632 E0.0451
G1 X-17.650 Y24.618 E0.0015
G1 X-18.015 Y24.388 E0.0215
G1 X-18.040 Y24.371 E0.0015
G1 X-18.693 Y23.863 E0.0413
G1 X-18.711 Y23.848 E0.0012
G1 X-18.962 Y23.618 E0.0170
G1 X-18.979 Y23.601 E0.0012
G1 X-19.419 Y23.130 E0.0321
G1 X-19.432 Y23.115 E0.0010
G1 X-19.615 Y22.891 E0.0144
G1 X-19.627 Y22.875 E0.0010
G1 X-19.987 Y22.367 E0.0310
G1 X-19.997 Y22.352 E0.0009
G1 X-20.135 Y22.129 E0.0131
G1 X-20.145 Y22.113 E0.0009
G1 X-20.444 Y21.557 E0.0315
G1 X-20.453 Y21.540 E0.0010
G1 X-20.567 Y21.292 E0.0136
G1 X-20.575 Y21.274 E0.0010
G1 X-20.810 Y20.662 E0.0327
G1 X-20.816 Y20.646 E0.0008
G1 X-20.890 Y20.416 E0.0121
G1 X-20.894 Y20.400 E0.0008
G1 X-21.065 Y19.744 E0.0338
G1 X-21.069 Y19.728 E0.0008
G1 X-21.115 Y19.501 E0.0116
G1 X-21.118 Y19.485 E0.0008
G1 X-21.231 Y18.724 E0.0384
G1 X-21.233 Y18.707 E0.0008
G1 X-21.255 Y18.465 E0.0121
G1 X-21.256 Y18.448 E0.0008
G1 X-21.309 Y16.901 E0.0773
G1 X-21.309 Y16.896 E0.0003
G1 X-21.311 Y16.820 E0.0038
G1 X-21.311 Y16.815 E0.0003
G1 X-21.308 Y12.931 E0.1938
G1 X-21.216 Y12.711 E0.0119
G1 X-18.705 Y10.201 E0.1771
G1 X-18.484 Y10.110 E0.0119
G1 X-18.405 Y10.510 F4200
G1 X74.972 Y10.510 E4.6586 F1800
G1 X75.046 Y10.540 E0.0040
G1 X77.445 Y12.940 E0.1693
G1 X77.476 Y13.013 E0.0040
G1 X77.476 Y16.730 E0.1854
G1 X77.475 Y16.769 E0.0019
G1 X77.453 Y17.943 E0.0586
G1 X77.453 Y17.948 E0.0002
G1 X77.441 Y18.138 E0.0095
G1 X77.440 Y18.143 E0.0002
G1 X77.309 Y19.311 E0.0586
G1 X77.308 Y19.318 E0.0004
G1 X77.254 Y19.606 E0.0146
G1 X77.253 Y19.613 E0.0004
G1 X77.075 Y20.294 E0.0351
G1 X77.074 Y20.299 E0.0003
G1 X77.003 Y20.519 E0.0115
G1 X77.001 Y20.524 E0.0003
G1 X76.770 Y21.125 E0.0321
G1 X76.768 Y21.130 E0.0003
G1 X76.659 Y21.367 E0.0130
G1 X76.656 Y21.373 E0.0003
G1 X76.362 Y21.918 E0.0309
G1 X76.359 Y21.923 E0.0003
G1 X76.227 Y22.136 E0.0125
G1 X76.224 Y22.141 E0.0003
G1 X75.872 Y22.638 E0.0304
G1 X75.868 Y22.643 E0.0003
G1 X75.693 Y22.857 E0.0138
G1 X75.689 Y22.862 E0.0003
G1 X75.259 Y23.322 E0.0314
G1 X75.254 Y23.328 E0.0004
G1 X75.014 Y23.547 E0.0162
G1 X75.008 Y23.552 E0.0004
G1 X74.369 Y24.049 E0.0404
G1 X74.360 Y24.055 E0.0005
G1 X74.013 Y24.274 E0.0205
G1 X74.004 Y24.279 E0.0005
G1 X73.212 Y24.672 E0.0441
G1 X73.204 Y24.676 E0.0005
G1 X72.850 Y24.812 E0.0189
G1 X72.841 Y24.815 E0.0005
G1 X72.215 Y24.993 E0.0325
G1 X72.208 Y24.994 E0.0004
G1 X71.890 Y25.058 E0.0162
G1 X71.882 Y25.059 E0.0004
G1 X71.208 Y25.139 E0.0339
G1 X71.202 Y25.140 E0.0003
G1 X70.960 Y25.154 E0.0121
G1 X70.954 Y25.154 E0.0003
G1 X-14.387 Y25.154 E4.2577
G1 X-14.393 Y25.154 E0.0003
G1 X-14.635 Y25.140 E0.0121
G1 X-14.641 Y25.139 E0.0003
G1 X-15.315 Y25.059 E0.0339
G1 X-15.323 Y25.058 E0.0004
G1 X-15.641 Y24.994 E0.0162
G1 X-15.648 Y24.993 E0.0004
G1 X-16.275 Y24.815 E0.0325
G1 X-16.283 Y24.812 E0.0005
G1 X-16.637 Y24.676 E0.0189
G1 X-16.645 Y24.672 E0.0005
G1 X-17.437 Y24.279 E0.0441
G1 X-17.446 Y24.274 E0.0005
G1 X-17.794 Y24.055 E0.0205
G1 X-17.802 Y24.049 E0.0005
G1 X-18.441 Y23.552 E0.0404
G1 X-18.447 Y23.547 E0.0004
G1 X-18.687 Y23.328 E0.0162
G1 X-18.692 Y23.322 E0.0004
G1 X-19.122 Y22.862 E0.0314
G1 X-19.126 Y22.857 E0.0003
G1 X-19.301 Y22.643 E0.0138
G1 X-19.305 Y22.638 E0.0003
G1 X-19.657 Y22.141 E0.0304
G1 X-19.660 Y22.136 E0.0003
G1 X-19.792 Y21.923 E0.0125
G1 X-19.795 Y21.918 E0.0003
G1 X-20.089 Y21.373 E0.0309
G1 X-20.092 Y21.367 E0.0003
G1 X-20.201 Y21.130 E0.0130
G1 X-20.204 Y21.124 E0.0003
G1 X-20.435 Y20.524 E0.0321
G1 X-20.437 Y20.518 E0.0003
G1 X-20.507 Y20.299 E0.0115
G1 X-20.509 Y20.294 E0.0003
G1 X-20.677 Y19.648 E0.0333
G1 X-20.678 Y19.643 E0.0003
G1 X-20.722 Y19.427 E0.0110
G1 X-20.723 Y19.421 E0.0003
