; G-Code generated by Simplify3D(R) Version 4.0.0
; Aug 4, 2017 at 10:32:31 AM
; Settings Summary
;   processName,petg
;   applyToModels,hanger
;   profileName,FlashForge Creator Pro (modified)
;   profileVersion,2015-05-01 08:00:00
;   baseProfile,
;   printMaterial,ABS
;   printQuality,Fast
;   printExtruders,Right Extruder Only
;   extruderName,Right Extruder,Left Extruder
;   extruderToolheadNumber,0,1
;   extruderDiameter,0.4,0.4
;   extruderAutoWidth,0,0
;   extruderWidth,0.4,0.4
;   extrusionMultiplier,1,1
;   extruderUseRetract,1,1
;   extruderRetractionDistance,1,1
;   extruderExtraRestartDistance,0,0
;   extruderRetractionZLift,0,0
;   extruderRetractionSpeed,1200,1200
;   extruderUseCoasting,0,0
;   extruderCoastingDistance,0.2,0.2
;   extruderUseWipe,0,0
;   extruderWipeDistance,5,5
;   primaryExtruder,0
;   layerHeight,0.3
;   topSolidLayers,3
;   bottomSolidLayers,3
;   perimeterOutlines,2
;   printPerimetersInsideOut,1
;   startPointOption,2
;   startPointOriginX,0
;   startPointOriginY,0
;   sequentialIslands,0
;   spiralVaseMode,0
;   firstLayerHeightPercentage,90
;   firstLayerWidthPercentage,100
;   firstLayerUnderspeed,0.5
;   useRaft,0
;   raftExtruder,0
;   raftTopLayers,3
;   raftBaseLayers,2
;   raftOffset,3
;   raftSeparationDistance,0.14
;   raftTopInfill,100
;   aboveRaftSpeedMultiplier,0.3
;   useSkirt,1
;   skirtExtruder,0
;   skirtLayers,1
;   skirtOutlines,2
;   skirtOffset,4
;   usePrimePillar,0
;   primePillarExtruder,999
;   primePillarWidth,12
;   primePillarLocation,7
;   primePillarSpeedMultiplier,1
;   useOozeShield,0
;   oozeShieldExtruder,999
;   oozeShieldOffset,2
;   oozeShieldOutlines,1
;   oozeShieldSidewallShape,1
;   oozeShieldSidewallAngle,30
;   oozeShieldSpeedMultiplier,1
;   infillExtruder,0
;   internalInfillPattern,Rectilinear
;   externalInfillPattern,Rectilinear
;   infillPercentage,100
;   outlineOverlapPercentage,20
;   infillExtrusionWidthPercentage,100
;   minInfillLength,5
;   infillLayerInterval,1
;   internalInfillAngles,45,-45
;   overlapInternalInfillAngles,0
;   externalInfillAngles,45,-45
;   generateSupport,0
;   supportExtruder,0
;   supportInfillPercentage,25
;   supportExtraInflation,0
;   supportBaseLayers,0
;   denseSupportExtruder,0
;   denseSupportLayers,0
;   denseSupportInfillPercentage,70
;   supportLayerInterval,1
;   supportHorizontalPartOffset,0.3
;   supportUpperSeparationLayers,1
;   supportLowerSeparationLayers,1
;   supportType,0
;   supportGridSpacing,4
;   maxOverhangAngle,45
;   supportAngles,0
;   temperatureName,Right Extruder,Left Extruder,Heated Build Platform
;   temperatureNumber,0,1,0
;   temperatureSetpointCount,1,1,1
;   temperatureSetpointLayers,1,1,1
;   temperatureSetpointTemperatures,230,0,90
;   temperatureStabilizeAtStartup,0,0,0
;   temperatureHeatedBed,0,0,1
;   temperatureRelayBetweenLayers,0,0,0
;   temperatureRelayBetweenLoops,0,0,0
;   fanLayers,1
;   fanSpeeds,0
;   blipFanToFullPower,0
;   adjustSpeedForCooling,1
;   minSpeedLayerTime,15
;   minCoolingSpeedSlowdown,20
;   increaseFanForCooling,0
;   minFanLayerTime,45
;   maxCoolingFanSpeed,100
;   increaseFanForBridging,1
;   bridgingFanSpeed,100
;   use5D,1
;   relativeEdistances,1
;   allowEaxisZeroing,0
;   independentExtruderAxes,1
;   includeM10123,0
;   stickySupport,1
;   applyToolheadOffsets,0
;   gcodeXoffset,0
;   gcodeYoffset,0
;   gcodeZoffset,0
;   overrideMachineDefinition,1
;   machineTypeOverride,0
;   strokeXoverride,225
;   strokeYoverride,145
;   strokeZoverride,150
;   originOffsetXoverride,112.5
;   originOffsetYoverride,72.5
;   originOffsetZoverride,0
;   homeXdirOverride,1
;   homeYdirOverride,1
;   homeZdirOverride,-1
;   flipXoverride,1
;   flipYoverride,-1
;   flipZoverride,1
;   toolheadOffsets,0,0|34,0|0,0|0,0|0,0|0,0
;   overrideFirmwareConfiguration,1
;   firmwareTypeOverride,MakerBot/Sailfish Firmware
;   GPXconfigOverride,r1d
;   baudRateOverride,115200
;   overridePrinterModels,1
;   printerModelsOverride,FlashForge_CreatorPro.stl
;   startingGcode,; **** Replicator 1 dual start.gcode ****,M73 P0 ; enable build progress,G162 X Y F3000 ; home XY maximum,G161 Z F1200 ; home Z minimum,G92 Z-5 ; set Z to -5,G1 Z0 ; move Z to 0,G161 Z F100 ; home Z slowly,M132 X Y Z A B ; recall home offsets,M135 T0 ; load right extruder offsets,G1 X150 Y-70 Z30 F9000 ; move to wait position right hand side of the table,G130 X20 Y20 Z20 A20 B20 ; lower stepper Vrefs while heating,M126 S[fan_speed_pwm],M140 S[bed0_temperature] T0,M134 T0 ; stabilize bed temperature,M104 S[extruder0_temperature] T0,M133 T0 ; stabilize right extruder temperature,G130 X127 Y127 Z40 A127 B127 ; default stepper Vrefs,G92 A0 B0 ; zero extruders,G1 Z0.4 ; position nozzle,G1 X110 Y-70 E25 F300 ; purge nozzle,G1 X120 Y-70 Z0.15 F1200 ; slow wipe,G1 X110 Y-70 Z0.5 F1200 ; lift,G92 A0 B0 ; zero extruders,M73 P1 ;@body (notify GPX body has started),; **** end of start.gcode ****
;   layerChangeGcode,
;   retractionGcode,
;   toolChangeGcode,
;   endingGcode,; **** Replicator 1 dual end.gcode ****,M73 P100 ; end build progress,G1 Z150 F1000 ; send Z axis to bottom of machine,M140 S0 T0 ; cool down HBP,M104 S0 T0 ; cool down right extruder,M104 S0 T1 ; cool down left extruder,M127 ; stop blower fan,G162 X Y F3000 ; home XY maximum,M18 ; disable stepper,M72 P1 ; play Ta-Da song,; **** end of end.gcode ****
;   exportFileFormat,x3g
;   celebration,0
;   celebrationSong,Random Song
;   postProcessing,
;   defaultSpeed,3600
;   outlineUnderspeed,0.5
;   solidInfillUnderspeed,0.8
;   supportUnderspeed,0.8
;   rapidXYspeed,4200
;   rapidZspeed,1200
;   minBridgingArea,50
;   bridgingExtraInflation,0
;   bridgingExtrusionMultiplier,1
;   bridgingSpeedMultiplier,0.8
;   useFixedBridgingAngle,0
;   fixedBridgingAngle,0
;   applyBridgingToPerimeters,0
;   filamentDiameters,1.75|1.75|1.75|1.75|1.75|1.75
;   filamentPricesPerKg,46|46|46|46|46|46
;   filamentDensities,1.25|1.25|1.25|1.25|1.25|1.25
;   useMinPrintHeight,0
;   minPrintHeight,0
;   useMaxPrintHeight,0
;   maxPrintHeight,0
;   useDiaphragm,0
;   diaphragmLayerInterval,20
;   robustSlicing,1
;   mergeAllIntoSolid,0
;   onlyRetractWhenCrossingOutline,1
;   retractBetweenLayers,1
;   useRetractionMinTravel,0
;   retractionMinTravel,3
;   retractWhileWiping,0
;   onlyWipeOutlines,1
;   avoidCrossingOutline,0
;   maxMovementDetourFactor,3
;   toolChangeRetractionDistance,12
;   toolChangeExtraRestartDistance,-0.5
;   toolChangeRetractionSpeed,600
;   externalThinWallType,0
;   internalThinWallType,2
;   thinWallAllowedOverlapPercentage,10
;   singleExtrusionMinLength,1
;   singleExtrusionMinPrintingWidthPercentage,50
;   singleExtrusionMaxPrintingWidthPercentage,200
;   singleExtrusionEndpointExtension,0.2
;   horizontalSizeCompensation,0
G90
M83
; **** Replicator 1 dual start.gcode ****
M73 P0 ; enable build progress
G162 X Y F3000 ; home XY maximum
G161 Z F1200 ; home Z minimum
G92 Z-5 ; set Z to -5
G1 Z0 ; move Z to 0
G161 Z F100 ; home Z slowly
M132 X Y Z A B ; recall home offsets
M135 T0 ; load right extruder offsets
G1 X150 Y-70 Z30 F9000 ; move to wait position right hand side of the table
G130 X20 Y20 Z20 A20 B20 ; lower stepper Vrefs while heating
M127
M140 S90 T0
M134 T0 ; stabilize bed temperature
M104 S230 T0
M133 T0 ; stabilize right extruder temperature
G130 X127 Y127 Z40 A127 B127 ; default stepper Vrefs
G92 A0 B0 ; zero extruders
G1 Z0.4 ; position nozzle
G1 X110 Y-70 E25 F300 ; purge nozzle
G1 X120 Y-70 Z0.15 F1200 ; slow wipe
G1 X110 Y-70 Z0.5 F1200 ; lift
G92 A0 B0 ; zero extruders
M73 P1 ;@body (notify GPX body has started)
; **** end of start.gcode ****
G1 E-1.0000 F1200
G1 Z0.270 F1200
; process petg
; layer 1, Z = 0.270
M135 T0
; tool H0.300 W0.400
; skirt
G1 X11.773 Y-4.597 F4200
G1 E1.0000 F360
G1 X11.993 Y-4.505 E0.0119 F1800
G1 X14.505 Y-1.993 E0.1772
G1 X14.597 Y-1.773 E0.0119
G1 X14.597 Y20.837 E1.1280
G1 X14.500 Y21.064 E0.0123
G1 X11.832 Y23.600 E0.1836
G1 X11.600 Y23.685 E0.0123
G1 X6.386 Y23.419 E0.2605
G1 X6.193 Y23.449 E0.0097
G1 X6.177 Y23.451 E0.0008
G1 X5.952 Y23.474 E0.0113
G1 X5.936 Y23.475 E0.0008
G1 X5.237 Y23.510 E0.0350
G1 X5.229 Y23.510 E0.0004
G1 X5.122 Y23.513 E0.0053
G1 X5.115 Y23.513 E0.0004
G1 X-5.107 Y23.513 E0.5100
G1 X-5.114 Y23.513 E0.0004
G1 X-5.218 Y23.510 E0.0052
G1 X-5.225 Y23.510 E0.0004
G1 X-5.919 Y23.476 E0.0347
G1 X-5.934 Y23.475 E0.0008
G1 X-6.152 Y23.454 E0.0109
G1 X-6.167 Y23.452 E0.0008
G1 X-6.376 Y23.420 E0.0105
G1 X-11.603 Y23.684 E0.2611
G1 X-11.834 Y23.598 E0.0123
G1 X-14.500 Y21.063 E0.1836
G1 X-14.597 Y20.837 E0.0123
G1 X-14.597 Y-1.773 E1.1280
G1 X-14.505 Y-1.993 E0.0119
G1 X-11.993 Y-4.505 E0.1772
G1 X-11.773 Y-4.597 E0.0119
G1 X11.773 Y-4.597 E1.1747
G1 X11.693 Y-4.197 F4200
G1 X11.767 Y-4.166 E0.0040 F1800
G1 X14.166 Y-1.767 E0.1693
G1 X14.197 Y-1.693 E0.0040
G1 X14.197 Y20.755 E1.1200
G1 X14.165 Y20.831 E0.0041
G1 X11.616 Y23.253 E0.1754
G1 X11.539 Y23.282 E0.0041
G1 X6.365 Y23.017 E0.2584
G1 X6.136 Y23.053 E0.0115
G1 X6.131 Y23.053 E0.0003
G1 X5.916 Y23.075 E0.0108
G1 X5.911 Y23.076 E0.0003
G1 X5.219 Y23.110 E0.0346
G1 X5.217 Y23.110 E0.0001
G1 X5.115 Y23.113 E0.0051
G1 X5.112 Y23.113 E0.0001
G1 X-5.104 Y23.113 E0.5097
G1 X-5.107 Y23.113 E0.0001
G1 X-5.206 Y23.110 E0.0049
G1 X-5.208 Y23.110 E0.0001
G1 X-5.895 Y23.077 E0.0343
G1 X-5.900 Y23.077 E0.0003
G1 X-6.107 Y23.056 E0.0104
G1 X-6.112 Y23.055 E0.0003
G1 X-6.356 Y23.019 E0.0123
G1 X-11.541 Y23.280 E0.2590
G1 X-11.618 Y23.252 E0.0041
G1 X-14.165 Y20.830 E0.1754
G1 X-14.197 Y20.754 E0.0041
G1 X-14.197 Y-1.693 E1.1199
G1 X-14.166 Y-1.767 E0.0040
G1 X-11.767 Y-4.166 E0.1693
G1 X-11.693 Y-4.197 E0.0040
G1 X11.693 Y-4.197 E1.1668
G1 E-1.0000 F1200
; inner perimeter
G1 X9.397 Y0.603 F4200
G1 E1.0000 F1200
G1 X9.397 Y18.366 E0.8862 F1350
G1 X6.115 Y18.198 E0.1640
G1 X5.534 Y18.289 E0.0293
G1 X5.047 Y18.313 E0.0243
G1 X1.335 Y18.313 E0.1852
G1 X1.278 Y18.021 E0.0148
G1 X1.935 Y17.759 E0.0353
G1 X2.082 Y17.667 E0.0087
G1 X2.307 Y17.570 E0.0122
G1 X2.697 Y17.256 E0.0250
G1 X3.120 Y16.853 E0.0291
G1 X3.744 Y16.015 E0.0522
G1 X4.146 Y14.805 E0.0636
G1 X4.230 Y13.762 E0.0522
G1 X4.056 Y12.837 E0.0470
G1 X3.844 Y12.230 E0.0321
G1 X3.556 Y11.751 E0.0278
G1 X3.473 Y11.573 E0.0098
G1 X3.281 Y11.333 E0.0153
G1 X2.401 Y10.521 E0.0597
G1 X2.190 Y10.373 E0.0129
G1 X1.421 Y9.994 E0.0427
G1 X1.081 Y9.884 E0.0178
G1 X0.910 Y9.891 E0.0086
G1 X0.461 Y9.844 E0.0225
G1 X0.016 Y9.778 E0.0225
G1 X-0.571 Y9.834 E0.0294
G1 X-0.926 Y9.890 E0.0179
G1 X-1.081 Y9.884 E0.0078
G1 X-1.421 Y9.994 E0.0178
G1 X-2.190 Y10.373 E0.0427
G1 X-2.401 Y10.521 E0.0129
G1 X-3.281 Y11.333 E0.0597
G1 X-3.473 Y11.573 E0.0153
G1 X-3.556 Y11.751 E0.0098
G1 X-3.843 Y12.228 E0.0278
G1 X-4.018 Y12.722 E0.0261
G1 X-4.057 Y12.845 E0.0065
G1 X-4.230 Y13.762 E0.0465
G1 X-4.146 Y14.805 E0.0522
G1 X-3.744 Y16.015 E0.0636
G1 X-3.120 Y16.853 E0.0522
G1 X-2.697 Y17.256 E0.0291
G1 X-2.311 Y17.566 E0.0247
G1 X-1.288 Y18.029 E0.0560
G1 X-1.349 Y18.313 E0.0145
G1 X-5.040 Y18.313 E0.1842
G1 X-5.528 Y18.289 E0.0244
G1 X-6.115 Y18.200 E0.0296
G1 X-9.397 Y18.366 E0.1639
G1 X-9.397 Y0.603 E0.8862
G1 X9.397 Y0.603 E0.9376
; outer perimeter
G1 X9.797 Y0.203 F4200
G1 X9.797 Y18.787 E0.9271 F900
G1 X6.136 Y18.600 E0.1829
G1 X5.574 Y18.687 E0.0283
G1 X5.057 Y18.713 E0.0259
G1 X-5.050 Y18.713 E0.5042
G1 X-5.568 Y18.688 E0.0259
G1 X-6.135 Y18.602 E0.0286
G1 X-9.797 Y18.787 E0.1829
G1 X-9.797 Y0.203 E0.9271
G1 X9.797 Y0.203 E0.9775
G1 X2.149 Y10.833 F4200
G1 X1.985 Y10.718 E0.0100 F900
G1 X1.271 Y10.365 E0.0397
G1 X1.026 Y10.286 E0.0128
G1 X0.897 Y10.292 E0.0064
G1 X0.411 Y10.241 E0.0244
G1 X0.005 Y10.181 E0.0205
G1 X-0.521 Y10.231 E0.0264
G1 X-0.902 Y10.291 E0.0193
G1 X-1.026 Y10.286 E0.0062
G1 X-1.271 Y10.365 E0.0128
G1 X-1.985 Y10.718 E0.0397
G1 X-2.149 Y10.833 E0.0100
G1 X-2.988 Y11.607 E0.0569
G1 X-3.131 Y11.785 E0.0114
G1 X-3.202 Y11.939 E0.0085
G1 X-3.479 Y12.400 E0.0268
G1 X-3.639 Y12.849 E0.0238
G1 X-3.669 Y12.943 E0.0049
G1 X-3.827 Y13.783 E0.0427
G1 X-3.751 Y14.725 E0.0471
G1 X-3.385 Y15.828 E0.0580
G1 X-2.819 Y16.587 E0.0472
G1 X-2.433 Y16.955 E0.0266
G1 X-2.100 Y17.223 E0.0213
G1 X-1.184 Y17.637 E0.0502
G1 X-1.005 Y17.698 E0.0094
G1 X0.000 Y17.834 E0.0506
G1 X1.010 Y17.698 E0.0508
G1 X1.753 Y17.401 E0.0399
G1 X1.896 Y17.311 E0.0084
G1 X2.099 Y17.224 E0.0110
G1 X2.433 Y16.955 E0.0214
G1 X2.819 Y16.587 E0.0266
G1 X3.385 Y15.828 E0.0472
G1 X3.751 Y14.725 E0.0580
G1 X3.827 Y13.783 E0.0471
G1 X3.668 Y12.940 E0.0428
G1 X3.480 Y12.400 E0.0285
G1 X3.202 Y11.939 E0.0268
G1 X3.131 Y11.785 E0.0085
G1 X2.988 Y11.607 E0.0114
G1 X2.149 Y10.833 E0.0569
G1 E-1.0000 F1200
; gap fill
G1 X0.653 Y18.073 F4200
G1 E1.0000 F1200
G1 X0.969 Y18.389 E0.0223 F1440
G1 X0.404 Y18.389 E0.0282
G1 X0.155 Y18.140 E0.0176
G1 X0.000 Y18.161 E0.0078
G1 X-0.451 Y18.100 E0.0227
G1 X-0.162 Y18.389 E0.0204
G1 X-0.728 Y18.389 E0.0282
G1 X-0.980 Y18.137 E0.0178
; solid layer
G1 X2.270 Y17.993 F4200
G1 X2.229 Y17.952 E0.0029 F1440
G1 X2.231 Y17.951 E0.0001
G1 X2.473 Y17.847 E0.0132
G1 X2.593 Y17.750 E0.0077
G1 X2.836 Y17.993 E0.0171
G1 X3.402 Y17.993 E0.0282
G1 X2.907 Y17.498 E0.0349
G1 X2.908 Y17.497 E0.0001
G1 X3.197 Y17.222 E0.0199
G1 X3.967 Y17.993 E0.0544
G1 X4.533 Y17.993 E0.0282
G1 X3.465 Y16.925 E0.0753
G1 X3.707 Y16.601 E0.0202
G1 X5.096 Y17.990 E0.0980
G1 X5.501 Y17.970 E0.0202
G1 X5.623 Y17.951 E0.0061
G1 X3.948 Y16.277 E0.1181
G1 X4.032 Y16.165 E0.0070
G1 X4.124 Y15.887 E0.0146
G1 X6.115 Y17.878 E0.1405
G1 X6.711 Y17.908 E0.0298
G1 X4.265 Y15.462 E0.1726
G1 X4.406 Y15.037 E0.0223
G1 X7.307 Y17.939 E0.2047
G1 X7.903 Y17.969 E0.0298
G1 X4.487 Y14.553 E0.2410
G1 X4.529 Y14.029 E0.0262
G1 X8.499 Y17.999 E0.2801
G1 X9.077 Y18.029 E0.0289
G1 X9.077 Y18.012 E0.0009
G1 X4.492 Y13.426 E0.3235
G1 X4.366 Y12.754 E0.0341
G1 X4.355 Y12.724 E0.0016
G1 X9.077 Y17.446 E0.3332
G1 X9.077 Y16.880 E0.0282
G1 X3.901 Y11.704 E0.3652
G1 X8.960 Y0.923 F4200
G1 X9.077 Y1.040 E0.0083 F1440
G1 X9.077 Y1.606 E0.0282
G1 X8.394 Y0.923 E0.0482
G1 X7.828 Y0.923 E0.0282
G1 X9.077 Y2.172 E0.0881
G1 X9.077 Y2.738 E0.0282
G1 X7.263 Y0.923 E0.1280
G1 X6.697 Y0.923 E0.0282
G1 X9.077 Y3.303 E0.1679
G1 X9.077 Y3.869 E0.0282
G1 X6.131 Y0.923 E0.2078
G1 X5.566 Y0.923 E0.0282
G1 X9.077 Y4.435 E0.2477
G1 X9.077 Y5.000 E0.0282
G1 X5.000 Y0.923 E0.2877
G1 X4.434 Y0.923 E0.0282
G1 X9.077 Y5.566 E0.3276
G1 X9.077 Y6.132 E0.0282
G1 X3.868 Y0.923 E0.3675
G1 X3.303 Y0.923 E0.0282
G1 X9.077 Y6.697 E0.4074
G1 X9.077 Y7.263 E0.0282
G1 X2.737 Y0.923 E0.4473
G1 X2.171 Y0.923 E0.0282
G1 X9.077 Y7.829 E0.4872
G1 X9.077 Y8.395 E0.0282
G1 X1.606 Y0.923 E0.5271
G1 X1.040 Y0.923 E0.0282
G1 X9.077 Y8.960 E0.5670
G1 X9.077 Y9.526 E0.0282
G1 X0.474 Y0.923 E0.6070
G1 X-0.091 Y0.923 E0.0282
G1 X9.077 Y10.092 E0.6469
G1 X9.077 Y10.657 E0.0282
G1 X-0.657 Y0.923 E0.6868
G1 X-1.223 Y0.923 E0.0282
G1 X9.077 Y11.223 E0.7267
G1 X9.077 Y11.789 E0.0282
G1 X-1.788 Y0.923 E0.7666
G1 X-2.354 Y0.923 E0.0282
G1 X9.077 Y12.354 E0.8065
G1 X9.077 Y12.920 E0.0282
G1 X-2.920 Y0.923 E0.8464
G1 X-3.485 Y0.923 E0.0282
G1 X9.077 Y13.486 E0.8864
G1 X9.077 Y14.052 E0.0282
G1 X-4.051 Y0.923 E0.9263
G1 X-4.617 Y0.923 E0.0282
G1 X9.077 Y14.617 E0.9662
G1 X9.077 Y15.183 E0.0282
G1 X-5.183 Y0.923 E1.0061
G1 X-5.748 Y0.923 E0.0282
G1 X9.077 Y15.749 E1.0460
G1 X9.077 Y16.314 E0.0282
G1 X-6.314 Y0.923 E1.0859
G1 X-6.880 Y0.923 E0.0282
G1 X2.236 Y10.039 E0.6431
G1 X1.542 Y9.696 E0.0386
G1 X1.225 Y9.594 E0.0166
G1 X-7.445 Y0.923 E0.6118
G1 X-8.011 Y0.923 E0.0282
G1 X0.603 Y9.537 E0.6078
G1 X0.501 Y9.527 E0.0051
G1 X0.024 Y9.456 E0.0241
G1 X-0.038 Y9.462 E0.0031
G1 X-8.577 Y0.923 E0.6024
G1 X-9.077 Y0.923 E0.0249
G1 X-9.077 Y0.989 E0.0033
G1 X-0.554 Y9.511 E0.6013
G1 X-0.611 Y9.517 E0.0028
G1 X-0.944 Y9.569 E0.0168
G1 X-1.067 Y9.564 E0.0061
G1 X-9.077 Y1.555 E0.5651
G1 X-9.077 Y2.120 E0.0282
G1 X-1.511 Y9.686 E0.5338
G1 X-1.542 Y9.696 E0.0016
G1 X-1.893 Y9.870 E0.0195
G1 X-9.077 Y2.686 E0.5068
G1 X-9.077 Y3.252 E0.0282
G1 X-2.272 Y10.057 E0.4801
G1 X-2.354 Y10.097 E0.0045
G1 X-2.602 Y10.272 E0.0152
G1 X-2.613 Y10.281 E0.0007
G1 X-9.077 Y3.817 E0.4561
G1 X-9.077 Y4.383 E0.0282
