; G-Code generated by Simplify3D(R) Version 3.1.1
; Jul 16, 2017 at 11:29:46 PM
; Settings Summary
;   processName,Process1
;   applyToModels,hinge
;   profileName,FlashForge Creator Pro (modified)
;   profileVersion,2015-05-01 08:00:00
;   baseProfile,
;   printMaterial,ABS
;   printQuality,Fast
;   printExtruders,Left Extruder Only
;   extruderName,Right Extruder,Left Extruder
;   extruderToolheadNumber,0,1
;   extruderDiameter,0.4,0.4
;   extruderAutoWidth,0,0
;   extruderWidth,0.4,0.4
;   extrusionMultiplier,1,1
;   extruderUseRetract,1,1
;   extruderRetractionDistance,1,1
;   extruderExtraRestartDistance,0,0
;   extruderRetractionZLift,0,0
;   extruderRetractionSpeed,1200,1200
;   extruderUseCoasting,0,0
;   extruderCoastingDistance,0.2,0.2
;   extruderUseWipe,0,0
;   extruderWipeDistance,5,5
;   primaryExtruder,1
;   layerHeight,0.3
;   topSolidLayers,3
;   bottomSolidLayers,3
;   perimeterOutlines,2
;   printPerimetersInsideOut,1
;   startPointOption,2
;   startPointOriginX,0
;   startPointOriginY,0
;   startPointOriginZ,0
;   sequentialIslands,0
;   spiralVaseMode,0
;   firstLayerHeightPercentage,90
;   firstLayerWidthPercentage,100
;   firstLayerUnderspeed,0.5
;   useRaft,0
;   raftExtruder,1
;   raftLayers,3
;   raftOffset,3
;   raftSeparationDistance,0.14
;   raftInfill,85
;   disableRaftBaseLayers,0
;   useSkirt,1
;   skirtExtruder,1
;   skirtLayers,1
;   skirtOutlines,2
;   skirtOffset,4
;   usePrimePillar,0
;   primePillarExtruder,999
;   primePillarWidth,12
;   primePillarLocation,7
;   primePillarSpeedMultiplier,1
;   useOozeShield,0
;   oozeShieldExtruder,999
;   oozeShieldOffset,2
;   oozeShieldOutlines,1
;   oozeShieldSidewallShape,1
;   oozeShieldSidewallAngle,30
;   oozeShieldSpeedMultiplier,1
;   infillExtruder,1
;   internalInfillPattern,Rectilinear
;   externalInfillPattern,Rectilinear
;   infillPercentage,20
;   outlineOverlapPercentage,20
;   infillExtrusionWidthPercentage,100
;   minInfillLength,5
;   infillLayerInterval,1
;   infillAngles,45,-45
;   overlapInfillAngles,0
;   generateSupport,0
;   supportExtruder,1
;   supportInfillPercentage,25
;   supportExtraInflation,0
;   denseSupportLayers,0
;   denseSupportInfillPercentage,70
;   supportLayerInterval,1
;   supportHorizontalPartOffset,0.3
;   supportUpperSeparationLayers,1
;   supportLowerSeparationLayers,1
;   supportType,0
;   supportGridSpacing,4
;   maxOverhangAngle,45
;   supportAngles,0
;   temperatureName,Right Extruder,Left Extruder,Heated Build Platform
;   temperatureNumber,0,1,0
;   temperatureSetpointCount,1,1,1
;   temperatureSetpointLayers,1,1,1
;   temperatureSetpointTemperatures,0,230,90
;   temperatureStabilizeAtStartup,0,0,0
;   temperatureHeatedBed,0,0,1
;   temperatureRelayBetweenLayers,0,0,0
;   temperatureRelayBetweenLoops,0,0,0
;   fanLayers,1
;   fanSpeeds,0
;   blipFanToFullPower,0
;   adjustSpeedForCooling,1
;   minSpeedLayerTime,15
;   minCoolingSpeedSlowdown,20
;   increaseFanForCooling,0
;   minFanLayerTime,45
;   maxCoolingFanSpeed,100
;   increaseFanForBridging,1
;   bridgingFanSpeed,100
;   use5D,1
;   relativeEdistances,1
;   allowEaxisZeroing,0
;   independentExtruderAxes,1
;   includeM10123,0
;   stickySupport,1
;   applyToolheadOffsets,0
;   gcodeXoffset,0
;   gcodeYoffset,0
;   gcodeZoffset,0
;   overrideMachineDefinition,1
;   machineTypeOverride,0
;   strokeXoverride,225
;   strokeYoverride,145
;   strokeZoverride,150
;   originOffsetXoverride,112.5
;   originOffsetYoverride,72.5
;   originOffsetZoverride,0
;   homeXdirOverride,1
;   homeYdirOverride,1
;   homeZdirOverride,-1
;   flipXoverride,1
;   flipYoverride,-1
;   flipZoverride,1
;   toolheadOffsets,0,0|34,0|0,0|0,0|0,0|0,0
;   overrideFirmwareConfiguration,1
;   firmwareTypeOverride,MakerBot/Sailfish Firmware
;   GPXconfigOverride,r1d
;   baudRateOverride,115200
;   overridePrinterModels,1
;   printerModelsOverride,FlashForge_CreatorPro.stl
;   startingGcode,; **** Replicator 1 dual start.gcode ****,M73 P0 ; enable build progress,G162 X Y F3000 ; home XY maximum,G161 Z F1200 ; home Z minimum,G92 Z-5 ; set Z to -5,G1 Z0 ; move Z to 0,G161 Z F100 ; home Z slowly,M132 X Y Z A B ; recall home offsets,M135 T0 ; load right extruder offsets,G1 X150 Y-70 Z30 F9000 ; move to wait position right hand side of the table,G130 X20 Y20 Z20 A20 B20 ; lower stepper Vrefs while heating,M126 S[fan_speed_pwm],M140 S[bed0_temperature] T0,M134 T0 ; stabilize bed temperature,M104 S[extruder1_temperature] T1,M133 T1 ; stabilize left extruder temperature,G130 X127 Y127 Z40 A127 B127 ; default stepper Vrefs,G92 A0 B0 ; zero extruders,G1 Z0.4 ; position nozzle,M135 T1 ; left tool,G1 X110 Y-70 E30 F300 ; move nozzle,G1 X120 Y-70 Z0.15 F1200 ; slow wipe,G1 X110 Y-70 Z0.5 F1200 ; lift,G92 A0 B0 ; zero extruders,M73 P1 ;@body (notify GPX body has started),; **** end of start.gcode ****
;   layerChangeGcode,
;   retractionGcode,
;   toolChangeGcode,
;   endingGcode,; **** Replicator 1 dual end.gcode ****,M73 P100 ; end build progress,G1 Z150 F1000 ; send Z axis to bottom of machine,M140 S0 T0 ; cool down HBP,M104 S0 T0 ; cool down right extruder,M104 S0 T1 ; cool down left extruder,M127 ; stop blower fan,G162 X Y F3000 ; home XY maximum,M18 ; disable stepper,M72 P1 ; play Ta-Da song,; **** end of end.gcode ****
;   exportFileFormat,x3g
;   celebration,0
;   celebrationSong,Random Song
;   postProcessing,
;   defaultSpeed,3600
;   outlineUnderspeed,0.5
;   solidInfillUnderspeed,0.8
;   supportUnderspeed,0.8
;   rapidXYspeed,4200
;   rapidZspeed,1200
;   minBridgingArea,50
;   bridgingExtraInflation,0
;   bridgingExtrusionMultiplier,1
;   bridgingSpeedMultiplier,0.8
;   filamentDiameter,1.75
;   filamentPricePerKg,46
;   filamentDensity,1.25
;   useMinPrintHeight,0
;   minPrintHeight,0
;   useMaxPrintHeight,0
;   maxPrintHeight,0
;   useDiaphragm,0
;   diaphragmLayerInterval,20
;   robustSlicing,1
;   mergeAllIntoSolid,0
;   onlyRetractWhenCrossingOutline,1
;   retractBetweenLayers,1
;   useRetractionMinTravel,0
;   retractionMinTravel,3
;   retractWhileWiping,0
;   onlyWipeOutlines,1
;   avoidCrossingOutline,0
;   maxMovementDetourFactor,3
;   toolChangeRetractionDistance,12
;   toolChangeExtraRestartDistance,-0.5
;   toolChangeRetractionSpeed,600
;   allowThinWallGapFill,1
;   thinWallAllowedOverlapPercentage,10
;   horizontalSizeCompensation,0
G90
M83
; **** Replicator 1 dual start.gcode ****
M73 P0 ; enable build progress
G162 X Y F3000 ; home XY maximum
G161 Z F1200 ; home Z minimum
G92 Z-5 ; set Z to -5
G1 Z0 ; move Z to 0
G161 Z F100 ; home Z slowly
M132 X Y Z A B ; recall home offsets
M135 T0 ; load right extruder offsets
G1 X150 Y-70 Z30 F9000 ; move to wait position right hand side of the table
G130 X20 Y20 Z20 A20 B20 ; lower stepper Vrefs while heating
M127
M140 S90 T0
M134 T0 ; stabilize bed temperature
M104 S230 T1
M133 T1 ; stabilize left extruder temperature
G130 X127 Y127 Z40 A127 B127 ; default stepper Vrefs
G92 A0 B0 ; zero extruders
G1 Z0.4 ; position nozzle
M135 T1 ; left tool
G1 X110 Y-70 E30 F300 ; move nozzle
G1 X120 Y-70 Z0.15 F1200 ; slow wipe
G1 X110 Y-70 Z0.5 F1200 ; lift
G92 A0 B0 ; zero extruders
M73 P1 ;@body (notify GPX body has started)
; **** end of start.gcode ****
G1 E-1.0000 F1200
G1 Z0.270 F1200
; layer 1, Z = 0.27
M135 T1
; tool H0.300 W0.400
; skirt
G1 X22.690 Y-29.095 F4200
G1 E1.0000 F360
G1 X23.241 Y-29.324 E0.0297 F1800
G1 X23.278 Y-29.336 E0.0020
G1 X23.823 Y-29.482 E0.0281
G1 X23.861 Y-29.490 E0.0020
G1 X24.539 Y-29.579 E0.0341
G1 X24.559 Y-29.581 E0.0010
G1 X24.840 Y-29.599 E0.0140
G1 X24.859 Y-29.600 E0.0010
G1 X28.141 Y-29.600 E0.1637
G1 X28.160 Y-29.599 E0.0010
G1 X28.441 Y-29.581 E0.0140
G1 X28.461 Y-29.579 E0.0010
G1 X29.139 Y-29.490 E0.0341
G1 X29.177 Y-29.482 E0.0020
G1 X29.722 Y-29.336 E0.0281
G1 X29.759 Y-29.324 E0.0020
G1 X30.311 Y-29.095 E0.0298
G1 X66.269 Y-29.093 E1.7940
G1 X66.490 Y-29.001 E0.0119
G1 X69.001 Y-26.490 E0.1772
G1 X69.093 Y-26.270 E0.0119
G1 X69.102 Y26.776 E2.6464
G1 X69.010 Y26.996 E0.0119
G1 X66.498 Y29.509 E0.1773
G1 X66.278 Y29.600 E0.0119
G1 X-66.278 Y29.600 E6.6132
G1 X-66.498 Y29.509 E0.0119
G1 X-69.010 Y26.997 E0.1772
G1 X-69.101 Y26.776 E0.0119
G1 X-69.101 Y-24.233 E2.5448
G1 X-69.100 Y-24.265 E0.0016
G1 X-69.049 Y-24.728 E0.0232
G1 X-69.044 Y-24.760 E0.0016
G1 X-68.882 Y-25.496 E0.0376
G1 X-68.867 Y-25.545 E0.0026
G1 X-68.585 Y-26.233 E0.0371
G1 X-68.562 Y-26.279 E0.0026
G1 X-67.981 Y-27.202 E0.0544
G1 X-67.939 Y-27.255 E0.0034
G1 X-67.255 Y-27.939 E0.0483
G1 X-67.202 Y-27.981 E0.0034
G1 X-66.280 Y-28.561 E0.0544
G1 X-66.234 Y-28.585 E0.0026
G1 X-65.548 Y-28.866 E0.0370
G1 X-65.499 Y-28.881 E0.0026
G1 X-64.765 Y-29.043 E0.0375
G1 X-64.733 Y-29.049 E0.0016
G1 X-64.268 Y-29.099 E0.0233
G1 X-64.236 Y-29.101 E0.0016
G1 X22.690 Y-29.095 E4.3368
G1 X22.770 Y-28.695 F4200
G1 X23.382 Y-28.949 E0.0331 F1800
G1 X23.395 Y-28.953 E0.0007
G1 X23.914 Y-29.092 E0.0268
G1 X23.927 Y-29.095 E0.0007
G1 X24.585 Y-29.182 E0.0331
G1 X24.591 Y-29.182 E0.0003
G1 X24.859 Y-29.200 E0.0134
G1 X24.866 Y-29.200 E0.0003
G1 X28.134 Y-29.200 E0.1631
G1 X28.141 Y-29.200 E0.0003
G1 X28.409 Y-29.182 E0.0134
G1 X28.415 Y-29.182 E0.0003
G1 X29.074 Y-29.095 E0.0331
G1 X29.086 Y-29.092 E0.0007
G1 X29.605 Y-28.953 E0.0268
G1 X29.618 Y-28.949 E0.0007
G1 X30.231 Y-28.695 E0.0331
G1 X66.189 Y-28.693 E1.7940
G1 X66.263 Y-28.662 E0.0040
G1 X68.662 Y-26.263 E0.1693
G1 X68.693 Y-26.190 E0.0040
G1 X68.702 Y26.696 E2.6385
G1 X68.671 Y26.770 E0.0040
G1 X66.272 Y29.170 E0.1693
G1 X66.198 Y29.200 E0.0040
G1 X-66.198 Y29.200 E6.6053
G1 X-66.271 Y29.170 E0.0040
G1 X-68.671 Y26.770 E0.1693
G1 X-68.701 Y26.697 E0.0040
G1 X-68.701 Y-24.222 E2.5403
G1 X-68.701 Y-24.233 E0.0005
G1 X-68.653 Y-24.674 E0.0221
G1 X-68.651 Y-24.685 E0.0005
G1 X-68.495 Y-25.393 E0.0362
G1 X-68.490 Y-25.410 E0.0009
G1 X-68.222 Y-26.065 E0.0354
G1 X-68.214 Y-26.081 E0.0009
G1 X-67.655 Y-26.970 E0.0524
G1 X-67.641 Y-26.988 E0.0011
G1 X-66.988 Y-27.641 E0.0461
G1 X-66.970 Y-27.655 E0.0011
G1 X-66.082 Y-28.213 E0.0524
G1 X-66.066 Y-28.221 E0.0009
G1 X-65.412 Y-28.489 E0.0353
G1 X-65.396 Y-28.494 E0.0009
G1 X-64.690 Y-28.650 E0.0361
G1 X-64.679 Y-28.652 E0.0005
G1 X-64.236 Y-28.700 E0.0222
G1 X-64.225 Y-28.701 E0.0005
G1 X22.770 Y-28.695 E4.3402
G1 E-1.0000 F1200
; inner perimeter
; outer perimeter
G1 X24.611 Y-24.695 F4200
G1 E1.0000 F1200
G1 X24.793 Y-24.771 E0.0099 F900
G1 X25.013 Y-24.800 E0.0111
G1 X27.987 Y-24.800 E0.1484
G1 X28.207 Y-24.771 E0.0111
G1 X28.390 Y-24.695 E0.0099
G1 X24.611 Y-24.695 E0.1886
G1 E-1.0000 F1200
; inner perimeter
G1 X23.400 Y-23.895 F4200
G1 E1.0000 F1200
G1 X23.400 Y24.039 E2.3915 F1350
G1 X23.447 Y24.400 E0.0181
G1 X-63.901 Y24.400 E4.3579
G1 X-63.901 Y-23.901 E2.4097
G1 X23.400 Y-23.895 E4.3555
; outer perimeter
G1 X23.837 Y-24.295 F4200
G1 X23.800 Y-24.013 E0.0142 F900
G1 X23.800 Y24.013 E2.3960
G1 X23.839 Y24.311 E0.0150
G1 X23.959 Y24.601 E0.0157
G1 X24.112 Y24.800 E0.0125
G1 X-64.301 Y24.800 E4.4110
G1 X-64.301 Y-23.978 E2.4336
G1 X-64.281 Y-24.069 E0.0046
G1 X-64.199 Y-24.199 E0.0077
G1 X-64.069 Y-24.282 E0.0077
G1 X-63.980 Y-24.301 E0.0045
G1 X23.837 Y-24.295 E4.3812
; solid layer
G1 X22.811 Y-23.575 F4200
G1 X23.080 Y-23.306 E0.0190 F1440
G1 X23.080 Y-22.741 E0.0282
G1 X22.245 Y-23.576 E0.0589
G1 X21.679 Y-23.576 E0.0282
G1 X23.080 Y-22.175 E0.0988
G1 X23.080 Y-21.609 E0.0282
G1 X21.114 Y-23.576 E0.1387
G1 X20.548 Y-23.576 E0.0282
G1 X23.080 Y-21.043 E0.1787
G1 X23.080 Y-20.478 E0.0282
G1 X19.982 Y-23.576 E0.2186
G1 X19.416 Y-23.576 E0.0282
G1 X23.080 Y-19.912 E0.2585
G1 X23.080 Y-19.346 E0.0282
G1 X18.851 Y-23.576 E0.2984
G1 X18.285 Y-23.576 E0.0282
G1 X23.080 Y-18.781 E0.3383
G1 X23.080 Y-18.215 E0.0282
G1 X17.719 Y-23.576 E0.3782
G1 X17.154 Y-23.576 E0.0282
G1 X23.080 Y-17.649 E0.4181
G1 X23.080 Y-17.084 E0.0282
G1 X16.588 Y-23.576 E0.4581
G1 X16.022 Y-23.576 E0.0282
G1 X23.080 Y-16.518 E0.4980
G1 X23.080 Y-15.952 E0.0282
G1 X15.456 Y-23.576 E0.5379
G1 X14.891 Y-23.576 E0.0282
G1 X23.080 Y-15.387 E0.5778
G1 X23.080 Y-14.821 E0.0282
G1 X14.325 Y-23.576 E0.6177
G1 X13.759 Y-23.576 E0.0282
G1 X23.080 Y-14.255 E0.6576
G1 X23.080 Y-13.690 E0.0282
G1 X13.193 Y-23.576 E0.6975
G1 X12.628 Y-23.576 E0.0282
G1 X23.080 Y-13.124 E0.7375
G1 X23.080 Y-12.558 E0.0282
G1 X12.062 Y-23.576 E0.7774
G1 X11.496 Y-23.576 E0.0282
G1 X23.080 Y-11.993 E0.8173
G1 X23.080 Y-11.427 E0.0282
G1 X10.931 Y-23.576 E0.8572
G1 X10.365 Y-23.576 E0.0282
G1 X23.080 Y-10.861 E0.8971
G1 X23.080 Y-10.295 E0.0282
G1 X9.799 Y-23.576 E0.9370
G1 X9.233 Y-23.576 E0.0282
G1 X23.080 Y-9.730 E0.9769
G1 X23.080 Y-9.164 E0.0282
G1 X8.668 Y-23.576 E1.0169
G1 X8.102 Y-23.576 E0.0282
G1 X23.080 Y-8.598 E1.0568
G1 X23.080 Y-8.033 E0.0282
G1 X7.536 Y-23.576 E1.0967
G1 X6.971 Y-23.576 E0.0282
G1 X23.080 Y-7.467 E1.1366
G1 X23.080 Y-6.901 E0.0282
G1 X6.405 Y-23.577 E1.1765
G1 X5.839 Y-23.577 E0.0282
G1 X23.080 Y-6.336 E1.2164
G1 X23.080 Y-5.770 E0.0282
G1 X5.273 Y-23.577 E1.2564
G1 X4.708 Y-23.577 E0.0282
G1 X23.080 Y-5.204 E1.2963
G1 X23.080 Y-4.639 E0.0282
G1 X4.142 Y-23.577 E1.3362
G1 X3.576 Y-23.577 E0.0282
G1 X23.080 Y-4.073 E1.3761
G1 X23.080 Y-3.507 E0.0282
G1 X3.011 Y-23.577 E1.4160
G1 X2.445 Y-23.577 E0.0282
G1 X23.080 Y-2.942 E1.4559
G1 X23.080 Y-2.376 E0.0282
G1 X1.879 Y-23.577 E1.4958
G1 X1.313 Y-23.577 E0.0282
G1 X23.080 Y-1.810 E1.5358
G1 X23.080 Y-1.244 E0.0282
G1 X0.748 Y-23.577 E1.5757
G1 X0.182 Y-23.577 E0.0282
G1 X23.080 Y-0.679 E1.6156
G1 X23.080 Y-0.113 E0.0282
G1 X-0.384 Y-23.577 E1.6555
G1 X-0.950 Y-23.577 E0.0282
G1 X23.080 Y0.453 E1.6954
G1 X23.080 Y1.018 E0.0282
G1 X-1.515 Y-23.577 E1.7353
G1 X-2.081 Y-23.577 E0.0282
G1 X23.080 Y1.584 E1.7752
G1 X23.080 Y2.150 E0.0282
G1 X-2.647 Y-23.577 E1.8152
G1 X-3.212 Y-23.577 E0.0282
G1 X23.080 Y2.715 E1.8551
G1 X23.080 Y3.281 E0.0282
G1 X-3.778 Y-23.577 E1.8950
G1 X-4.344 Y-23.577 E0.0282
G1 X23.080 Y3.847 E1.9349
G1 X23.080 Y4.412 E0.0282
G1 X-4.910 Y-23.577 E1.9748
G1 X-5.475 Y-23.577 E0.0282
G1 X23.080 Y4.978 E2.0147
G1 X23.080 Y5.544 E0.0282
G1 X-6.041 Y-23.577 E2.0546
G1 X-6.607 Y-23.577 E0.0282
G1 X23.080 Y6.109 E2.0946
G1 X23.080 Y6.675 E0.0282
G1 X-7.172 Y-23.577 E2.1345
G1 X-7.738 Y-23.577 E0.0282
G1 X23.080 Y7.241 E2.1744
G1 X23.080 Y7.806 E0.0282
G1 X-8.304 Y-23.577 E2.2143
G1 X-8.870 Y-23.577 E0.0282
G1 X23.080 Y8.372 E2.2542
G1 X23.080 Y8.938 E0.0282
G1 X-9.435 Y-23.578 E2.2941
G1 X-10.001 Y-23.578 E0.0282
G1 X23.080 Y9.504 E2.3340
G1 X23.080 Y10.069 E0.0282
G1 X-10.567 Y-23.578 E2.3740
G1 X-11.133 Y-23.578 E0.0282
G1 X23.080 Y10.635 E2.4139
G1 X23.080 Y11.201 E0.0282
G1 X-11.698 Y-23.578 E2.4538
G1 X-12.264 Y-23.578 E0.0282
G1 X23.080 Y11.766 E2.4937
G1 X23.080 Y12.332 E0.0282
G1 X-12.830 Y-23.578 E2.5336
G1 X-13.395 Y-23.578 E0.0282
G1 X23.080 Y12.898 E2.5735
G1 X23.080 Y13.463 E0.0282
G1 X-13.961 Y-23.578 E2.6135
G1 X-14.527 Y-23.578 E0.0282
G1 X23.080 Y14.029 E2.6534
G1 X23.080 Y14.595 E0.0282
G1 X-15.093 Y-23.578 E2.6933
G1 X-15.658 Y-23.578 E0.0282
G1 X23.080 Y15.160 E2.7332
G1 X23.080 Y15.726 E0.0282
G1 X-16.224 Y-23.578 E2.7731
G1 X-16.790 Y-23.578 E0.0282
G1 X23.080 Y16.292 E2.8130
G1 X23.080 Y16.857 E0.0282
G1 X-17.355 Y-23.578 E2.8529
G1 X-17.921 Y-23.578 E0.0282
G1 X23.080 Y17.423 E2.8929
G1 X23.080 Y17.989 E0.0282
G1 X-18.487 Y-23.578 E2.9328
G1 X-19.053 Y-23.578 E0.0282
G1 X23.080 Y18.555 E2.9727
G1 X23.080 Y19.120 E0.0282
G1 X-19.618 Y-23.578 E3.0126
G1 X-20.184 Y-23.578 E0.0282
G1 X23.080 Y19.686 E3.0525
G1 X23.080 Y20.252 E0.0282
G1 X-20.750 Y-23.578 E3.0924
G1 X-21.316 Y-23.578 E0.0282
G1 X23.080 Y20.817 E3.1323
G1 X23.080 Y21.383 E0.0282
G1 X-21.881 Y-23.578 E3.1723
G1 X-22.447 Y-23.578 E0.0282
G1 X23.080 Y21.949 E3.2122
G1 X23.080 Y22.514 E0.0282
G1 X-23.013 Y-23.578 E3.2521
G1 X-23.578 Y-23.578 E0.0282
G1 X23.080 Y23.080 E3.2920
G1 X23.080 Y23.646 E0.0282
G1 X-24.144 Y-23.578 E3.3319
G1 X-24.710 Y-23.578 E0.0282
G1 X22.949 Y24.080 E3.3626
G1 X22.383 Y24.080 E0.0282
G1 X-25.276 Y-23.579 E3.3626
G1 X-25.841 Y-23.579 E0.0282
G1 X21.817 Y24.080 E3.3626
G1 X21.252 Y24.080 E0.0282
G1 X-26.407 Y-23.579 E3.3626
G1 X-26.973 Y-23.579 E0.0282
G1 X20.686 Y24.080 E3.3626
