; G-Code generated by Simplify3D(R) Version 3.1.1
; May 25, 2017 at 4:52:25 PM
; Settings Summary
;   processName,PLA / FAST / Support
;   applyToModels,Top pi side (larger opening),pi zero case top - roof,Bottom_hub-side
;   profileName,FlashForge Creator Pro (modified)
;   profileVersion,2015-05-01 08:00:00
;   baseProfile,
;   printMaterial,PLA
;   printQuality,Fast
;   printExtruders,Right Extruder Only
;   extruderName,Right Extruder,Left Extruder
;   extruderToolheadNumber,0,1
;   extruderDiameter,0.4,0.4
;   extruderAutoWidth,0,0
;   extruderWidth,0.4,0.4
;   extrusionMultiplier,0.9,0.9
;   extruderUseRetract,1,1
;   extruderRetractionDistance,1,1
;   extruderExtraRestartDistance,0,0
;   extruderRetractionZLift,0,0
;   extruderRetractionSpeed,1200,1200
;   extruderUseCoasting,0,0
;   extruderCoastingDistance,0.2,0.2
;   extruderUseWipe,0,0
;   extruderWipeDistance,5,5
;   primaryExtruder,0
;   layerHeight,0.3
;   topSolidLayers,3
;   bottomSolidLayers,3
;   perimeterOutlines,2
;   printPerimetersInsideOut,1
;   startPointOption,2
;   startPointOriginX,0
;   startPointOriginY,0
;   startPointOriginZ,300
;   sequentialIslands,0
;   spiralVaseMode,0
;   firstLayerHeightPercentage,90
;   firstLayerWidthPercentage,100
;   firstLayerUnderspeed,0.5
;   useRaft,0
;   raftExtruder,0
;   raftLayers,3
;   raftOffset,3
;   raftSeparationDistance,0.14
;   raftInfill,85
;   disableRaftBaseLayers,0
;   useSkirt,1
;   skirtExtruder,0
;   skirtLayers,1
;   skirtOutlines,2
;   skirtOffset,4
;   usePrimePillar,0
;   primePillarExtruder,999
;   primePillarWidth,12
;   primePillarLocation,7
;   primePillarSpeedMultiplier,1
;   useOozeShield,0
;   oozeShieldExtruder,999
;   oozeShieldOffset,2
;   oozeShieldOutlines,1
;   oozeShieldSidewallShape,1
;   oozeShieldSidewallAngle,30
;   oozeShieldSpeedMultiplier,1
;   infillExtruder,0
;   internalInfillPattern,Rectilinear
;   externalInfillPattern,Rectilinear
;   infillPercentage,20
;   outlineOverlapPercentage,20
;   infillExtrusionWidthPercentage,100
;   minInfillLength,5
;   infillLayerInterval,1
;   infillAngles,45,-45
;   overlapInfillAngles,0
;   generateSupport,1
;   supportExtruder,0
;   supportInfillPercentage,25
;   supportExtraInflation,0
;   denseSupportLayers,0
;   denseSupportInfillPercentage,70
;   supportLayerInterval,1
;   supportHorizontalPartOffset,0.3
;   supportUpperSeparationLayers,1
;   supportLowerSeparationLayers,1
;   supportType,0
;   supportGridSpacing,4
;   maxOverhangAngle,45
;   supportAngles,0
;   temperatureName,Right Extruder,Left Extruder,Heated Build Platform
;   temperatureNumber,0,1,0
;   temperatureSetpointCount,1,1,1
;   temperatureSetpointLayers,1,1,1
;   temperatureSetpointTemperatures,205,0,50
;   temperatureStabilizeAtStartup,0,0,0
;   temperatureHeatedBed,0,0,1
;   temperatureRelayBetweenLayers,0,0,0
;   temperatureRelayBetweenLoops,0,0,0
;   fanLayers,1,2
;   fanSpeeds,0,100
;   blipFanToFullPower,0
;   adjustSpeedForCooling,1
;   minSpeedLayerTime,15
;   minCoolingSpeedSlowdown,20
;   increaseFanForCooling,0
;   minFanLayerTime,45
;   maxCoolingFanSpeed,100
;   increaseFanForBridging,1
;   bridgingFanSpeed,100
;   use5D,1
;   relativeEdistances,1
;   allowEaxisZeroing,0
;   independentExtruderAxes,1
;   includeM10123,0
;   stickySupport,1
;   applyToolheadOffsets,0
;   gcodeXoffset,0
;   gcodeYoffset,0
;   gcodeZoffset,0
;   overrideMachineDefinition,1
;   machineTypeOverride,0
;   strokeXoverride,225
;   strokeYoverride,145
;   strokeZoverride,150
;   originOffsetXoverride,112.5
;   originOffsetYoverride,72.5
;   originOffsetZoverride,0
;   homeXdirOverride,1
;   homeYdirOverride,1
;   homeZdirOverride,-1
;   flipXoverride,1
;   flipYoverride,-1
;   flipZoverride,1
;   toolheadOffsets,0,0|34,0|0,0|0,0|0,0|0,0
;   overrideFirmwareConfiguration,1
;   firmwareTypeOverride,MakerBot/Sailfish Firmware
;   GPXconfigOverride,r1d
;   baudRateOverride,115200
;   overridePrinterModels,1
;   printerModelsOverride,FlashForge_CreatorPro.stl
;   startingGcode,; **** Replicator 1 dual start.gcode ****,M73 P0 ; enable build progress,G162 X Y F3000 ; home XY maximum,G161 Z F1200 ; home Z minimum,G92 Z-5 ; set Z to -5,G1 Z0 ; move Z to 0,G161 Z F100 ; home Z slowly,M132 X Y Z A B ; recall home offsets,M135 T0 ; load right extruder offsets,G1 X150 Y-70 Z30 F9000 ; move to wait position right hand side of the table,G130 X20 Y20 Z20 A20 B20 ; lower stepper Vrefs while heating,M126 S[fan_speed_pwm],M140 S[bed0_temperature] T0,M134 T0 ; stabilize bed temperature,M104 S[extruder0_temperature] T0,M133 T0 ; stabilize right extruder temperature,G130 X127 Y127 Z40 A127 B127 ; default stepper Vrefs,G92 A0 B0 ; zero extruders,G1 Z0.4 ; position nozzle,G1 X110 Y-70 E25 F300 ; purge nozzle,G1 X120 Y-70 Z0.15 F1200 ; slow wipe,G1 X110 Y-70 Z0.5 F1200 ; lift,G92 A0 B0 ; zero extruders,M73 P1 ;@body (notify GPX body has started),; **** end of start.gcode ****
;   layerChangeGcode,
;   retractionGcode,
;   toolChangeGcode,
;   endingGcode,; **** Replicator 1 dual end.gcode ****,M73 P100 ; end build progress,G1 Z150 F1000 ; send Z axis to bottom of machine,M140 S0 T0 ; cool down HBP,M104 S0 T0 ; cool down right extruder,M104 S0 T1 ; cool down left extruder,M127 ; stop blower fan,G162 X Y F3000 ; home XY maximum,M18 ; disable stepper,M72 P1 ; play Ta-Da song,; **** end of end.gcode ****
;   exportFileFormat,x3g
;   celebration,0
;   celebrationSong,Random Song
;   postProcessing,
;   defaultSpeed,3600
;   outlineUnderspeed,0.5
;   solidInfillUnderspeed,0.8
;   supportUnderspeed,0.8
;   rapidXYspeed,4200
;   rapidZspeed,1200
;   minBridgingArea,50
;   bridgingExtraInflation,0
;   bridgingExtrusionMultiplier,1
;   bridgingSpeedMultiplier,0.8
;   filamentDiameter,1.75
;   filamentPricePerKg,46
;   filamentDensity,1.25
;   useMinPrintHeight,0
;   minPrintHeight,0
;   useMaxPrintHeight,0
;   maxPrintHeight,0
;   useDiaphragm,0
;   diaphragmLayerInterval,20
;   robustSlicing,1
;   mergeAllIntoSolid,0
;   onlyRetractWhenCrossingOutline,1
;   retractBetweenLayers,1
;   useRetractionMinTravel,0
;   retractionMinTravel,3
;   retractWhileWiping,0
;   onlyWipeOutlines,1
;   avoidCrossingOutline,0
;   maxMovementDetourFactor,3
;   toolChangeRetractionDistance,12
;   toolChangeExtraRestartDistance,-0.5
;   toolChangeRetractionSpeed,600
;   allowThinWallGapFill,1
;   thinWallAllowedOverlapPercentage,10
;   horizontalSizeCompensation,0
G90
M83
; **** Replicator 1 dual start.gcode ****
M73 P0 ; enable build progress
G162 X Y F3000 ; home XY maximum
G161 Z F1200 ; home Z minimum
G92 Z-5 ; set Z to -5
G1 Z0 ; move Z to 0
G161 Z F100 ; home Z slowly
M132 X Y Z A B ; recall home offsets
M135 T0 ; load right extruder offsets
G1 X150 Y-70 Z30 F9000 ; move to wait position right hand side of the table
G130 X20 Y20 Z20 A20 B20 ; lower stepper Vrefs while heating
M127
M140 S50 T0
M134 T0 ; stabilize bed temperature
M104 S205 T0
M133 T0 ; stabilize right extruder temperature
G130 X127 Y127 Z40 A127 B127 ; default stepper Vrefs
G92 A0 B0 ; zero extruders
G1 Z0.4 ; position nozzle
G1 X110 Y-70 E25 F300 ; purge nozzle
G1 X120 Y-70 Z0.15 F1200 ; slow wipe
G1 X110 Y-70 Z0.5 F1200 ; lift
G92 A0 B0 ; zero extruders
M73 P1 ;@body (notify GPX body has started)
; **** end of start.gcode ****
G1 E-1.0000 F1200
G1 Z0.270 F1200
; layer 1, Z = 0.27
M135 T0
; tool H0.300 W0.400
; skirt
G1 X-2.254 Y-6.696 F4200
G1 E1.0000 F360
G1 X-2.803 Y-6.549 E0.0255 F1800
G1 X-2.842 Y-6.542 E0.0018
G1 X-4.428 Y-6.335 E0.0718
G1 X-4.447 Y-6.333 E0.0009
G1 X-4.725 Y-6.315 E0.0125
G1 X-4.745 Y-6.314 E0.0009
G1 X-79.721 Y-6.314 E3.3665
G1 X-79.741 Y-6.315 E0.0009
G1 X-80.019 Y-6.333 E0.0125
G1 X-80.038 Y-6.335 E0.0009
G1 X-81.624 Y-6.542 E0.0718
G1 X-81.663 Y-6.549 E0.0018
G1 X-82.212 Y-6.696 E0.0255
G1 X-82.249 Y-6.709 E0.0018
G1 X-83.856 Y-7.376 E0.0781
G1 X-83.891 Y-7.393 E0.0018
G1 X-84.378 Y-7.675 E0.0253
G1 X-84.411 Y-7.697 E0.0018
G1 X-85.789 Y-8.756 E0.0780
G1 X-85.818 Y-8.781 E0.0018
G1 X-86.215 Y-9.178 E0.0252
G1 X-86.241 Y-9.208 E0.0018
G1 X-87.299 Y-10.585 E0.0780
G1 X-87.321 Y-10.618 E0.0018
G1 X-87.603 Y-11.105 E0.0253
G1 X-87.620 Y-11.141 E0.0018
G1 X-88.287 Y-12.747 E0.0781
G1 X-88.300 Y-12.784 E0.0018
G1 X-88.447 Y-13.333 E0.0255
G1 X-88.454 Y-13.372 E0.0018
G1 X-88.661 Y-14.956 E0.0717
G1 X-88.663 Y-14.975 E0.0009
G1 X-88.681 Y-15.254 E0.0125
G1 X-88.682 Y-15.273 E0.0009
G1 X-88.681 Y-42.561 E1.2253
G1 X-88.680 Y-42.581 E0.0009
G1 X-88.662 Y-42.860 E0.0126
G1 X-88.660 Y-42.880 E0.0009
G1 X-88.453 Y-44.460 E0.0716
G1 X-88.445 Y-44.499 E0.0018
G1 X-88.298 Y-45.047 E0.0255
G1 X-88.285 Y-45.085 E0.0018
G1 X-87.618 Y-46.691 E0.0781
G1 X-87.600 Y-46.726 E0.0018
G1 X-87.318 Y-47.213 E0.0253
G1 X-87.296 Y-47.246 E0.0018
G1 X-86.237 Y-48.623 E0.0780
G1 X-86.211 Y-48.652 E0.0018
G1 X-85.814 Y-49.049 E0.0252
G1 X-85.785 Y-49.075 E0.0018
G1 X-84.407 Y-50.132 E0.0780
G1 X-84.374 Y-50.154 E0.0018
G1 X-83.888 Y-50.435 E0.0252
G1 X-83.853 Y-50.452 E0.0018
G1 X-82.249 Y-51.118 E0.0779
G1 X-82.212 Y-51.131 E0.0018
G1 X-81.663 Y-51.277 E0.0255
G1 X-81.624 Y-51.285 E0.0018
G1 X-80.038 Y-51.492 E0.0718
G1 X-80.019 Y-51.494 E0.0009
G1 X-79.741 Y-51.512 E0.0125
G1 X-79.721 Y-51.512 E0.0009
G1 X-4.745 Y-51.512 E3.3665
G1 X-4.725 Y-51.512 E0.0009
G1 X-4.447 Y-51.494 E0.0125
G1 X-4.428 Y-51.492 E0.0009
G1 X-2.842 Y-51.285 E0.0718
G1 X-2.803 Y-51.277 E0.0018
G1 X-2.254 Y-51.131 E0.0255
G1 X-2.217 Y-51.118 E0.0018
G1 X-0.610 Y-50.451 E0.0781
G1 X-0.575 Y-50.434 E0.0018
G1 X-0.087 Y-50.152 E0.0253
G1 X-0.055 Y-50.130 E0.0018
G1 X1.323 Y-49.071 E0.0780
G1 X1.352 Y-49.046 E0.0018
G1 X1.749 Y-48.649 E0.0252
G1 X1.775 Y-48.619 E0.0018
G1 X2.833 Y-47.242 E0.0780
G1 X2.855 Y-47.209 E0.0018
G1 X3.137 Y-46.721 E0.0253
G1 X3.155 Y-46.686 E0.0018
G1 X3.821 Y-45.081 E0.0780
G1 X3.833 Y-45.044 E0.0018
G1 X3.980 Y-44.499 E0.0253
G1 X3.988 Y-44.460 E0.0018
G1 X4.197 Y-42.874 E0.0718
G1 X4.199 Y-42.855 E0.0009
G1 X4.217 Y-42.573 E0.0127
G1 X4.218 Y-42.553 E0.0009
G1 X4.218 Y-15.271 E1.2250
G1 X4.217 Y-15.251 E0.0009
G1 X4.199 Y-14.969 E0.0127
G1 X4.197 Y-14.949 E0.0009
G1 X3.987 Y-13.366 E0.0717
G1 X3.980 Y-13.327 E0.0018
G1 X3.833 Y-12.782 E0.0253
G1 X3.821 Y-12.745 E0.0018
G1 X3.155 Y-11.141 E0.0780
G1 X3.137 Y-11.105 E0.0018
G1 X2.855 Y-10.618 E0.0253
G1 X2.833 Y-10.585 E0.0018
G1 X1.775 Y-9.208 E0.0780
G1 X1.749 Y-9.178 E0.0018
G1 X1.352 Y-8.781 E0.0252
G1 X1.323 Y-8.756 E0.0018
G1 X-0.055 Y-7.697 E0.0780
G1 X-0.087 Y-7.675 E0.0018
G1 X-0.575 Y-7.393 E0.0253
G1 X-0.610 Y-7.376 E0.0018
G1 X-2.217 Y-6.709 E0.0781
G1 X-2.254 Y-6.696 E0.0018
G1 X7.896 Y-5.004 F4200
G1 X8.103 Y-6.590 E0.0718 F1800
G1 X8.110 Y-6.629 E0.0018
G1 X8.257 Y-7.177 E0.0255
G1 X8.270 Y-7.215 E0.0018
G1 X8.937 Y-8.821 E0.0781
G1 X8.954 Y-8.857 E0.0018
G1 X9.236 Y-9.344 E0.0253
G1 X9.258 Y-9.377 E0.0018
G1 X10.317 Y-10.754 E0.0780
G1 X10.342 Y-10.784 E0.0018
G1 X10.739 Y-11.181 E0.0252
G1 X10.769 Y-11.206 E0.0018
G1 X12.146 Y-12.265 E0.0780
G1 X12.179 Y-12.287 E0.0018
G1 X12.667 Y-12.569 E0.0253
G1 X12.702 Y-12.586 E0.0018
G1 X14.308 Y-13.253 E0.0781
G1 X14.346 Y-13.266 E0.0018
G1 X14.894 Y-13.413 E0.0255
G1 X14.933 Y-13.420 E0.0018
G1 X16.519 Y-13.627 E0.0718
G1 X16.538 Y-13.629 E0.0009
G1 X16.817 Y-13.647 E0.0125
G1 X16.836 Y-13.648 E0.0009
G1 X91.815 Y-13.648 E3.3666
G1 X91.835 Y-13.647 E0.0009
G1 X92.113 Y-13.629 E0.0125
G1 X92.133 Y-13.627 E0.0009
G1 X93.716 Y-13.420 E0.0717
G1 X93.755 Y-13.413 E0.0018
G1 X94.302 Y-13.266 E0.0254
G1 X94.339 Y-13.254 E0.0018
G1 X95.947 Y-12.587 E0.0782
G1 X95.982 Y-12.570 E0.0018
G1 X96.471 Y-12.287 E0.0254
G1 X96.504 Y-12.265 E0.0018
G1 X97.884 Y-11.206 E0.0781
G1 X97.913 Y-11.180 E0.0018
G1 X98.312 Y-10.781 E0.0253
G1 X98.338 Y-10.751 E0.0018
G1 X99.393 Y-9.373 E0.0780
G1 X99.415 Y-9.340 E0.0018
G1 X99.695 Y-8.855 E0.0252
G1 X99.713 Y-8.820 E0.0018
G1 X100.378 Y-7.217 E0.0779
G1 X100.391 Y-7.179 E0.0018
G1 X100.537 Y-6.634 E0.0253
G1 X100.545 Y-6.596 E0.0018
G1 X100.754 Y-5.010 E0.0718
G1 X100.756 Y-4.990 E0.0009
G1 X100.775 Y-4.708 E0.0127
G1 X100.775 Y-4.689 E0.0009
G1 X100.775 Y22.594 E1.2250
G1 X100.775 Y22.614 E0.0009
G1 X100.756 Y22.896 E0.0127
G1 X100.754 Y22.916 E0.0009
G1 X100.545 Y24.499 E0.0717
G1 X100.537 Y24.537 E0.0018
G1 X100.391 Y25.080 E0.0253
G1 X100.379 Y25.117 E0.0018
G1 X99.714 Y26.723 E0.0780
G1 X99.696 Y26.758 E0.0018
G1 X99.416 Y27.244 E0.0252
G1 X99.394 Y27.277 E0.0018
G1 X98.337 Y28.657 E0.0781
G1 X98.311 Y28.687 E0.0018
G1 X97.910 Y29.088 E0.0255
G1 X97.880 Y29.114 E0.0018
G1 X96.500 Y30.171 E0.0781
G1 X96.467 Y30.193 E0.0018
G1 X95.981 Y30.473 E0.0252
G1 X95.946 Y30.491 E0.0018
G1 X94.341 Y31.156 E0.0780
G1 X94.303 Y31.168 E0.0018
G1 X93.760 Y31.314 E0.0253
G1 X93.722 Y31.322 E0.0018
G1 X92.139 Y31.531 E0.0717
G1 X92.119 Y31.533 E0.0009
G1 X91.837 Y31.552 E0.0127
G1 X91.817 Y31.552 E0.0009
G1 X80.899 Y31.552 E0.4902
G1 X80.679 Y31.461 E0.0107
G1 X79.270 Y30.052 E0.0894
G1 X60.081 Y30.052 E0.8616
G1 X58.672 Y31.461 E0.0894
G1 X58.452 Y31.552 E0.0107
G1 X39.999 Y31.552 E0.8285
G1 X39.779 Y31.461 E0.0107
G1 X38.892 Y30.574 E0.0563
G1 X29.659 Y30.574 E0.4146
G1 X28.772 Y31.461 E0.0563
G1 X28.552 Y31.552 E0.0107
G1 X16.834 Y31.552 E0.5261
G1 X16.815 Y31.552 E0.0009
G1 X16.533 Y31.533 E0.0127
G1 X16.513 Y31.531 E0.0009
G1 X14.927 Y31.322 E0.0718
G1 X14.889 Y31.314 E0.0018
G1 X14.344 Y31.168 E0.0253
G1 X14.306 Y31.155 E0.0018
G1 X12.703 Y30.489 E0.0780
G1 X12.668 Y30.472 E0.0018
G1 X12.183 Y30.192 E0.0252
G1 X12.150 Y30.170 E0.0018
G1 X10.772 Y29.114 E0.0780
G1 X10.743 Y29.089 E0.0018
G1 X10.343 Y28.690 E0.0253
G1 X10.317 Y28.660 E0.0018
G1 X9.258 Y27.281 E0.0781
G1 X9.236 Y27.248 E0.0018
G1 X8.953 Y26.759 E0.0254
G1 X8.936 Y26.724 E0.0018
G1 X8.270 Y25.116 E0.0782
G1 X8.257 Y25.078 E0.0018
G1 X8.111 Y24.531 E0.0254
G1 X8.103 Y24.493 E0.0018
G1 X7.896 Y22.910 E0.0717
G1 X7.894 Y22.890 E0.0009
G1 X7.876 Y22.612 E0.0125
G1 X7.875 Y22.592 E0.0009
G1 X7.875 Y12.176 E0.4677
G1 X7.967 Y11.956 E0.0107
G1 X10.479 Y9.444 E0.1595
G1 X10.699 Y9.352 E0.0107
G1 X16.875 Y9.352 E0.2773
G1 X16.875 Y4.552 E0.2155
G1 X10.699 Y4.552 E0.2773
G1 X10.479 Y4.461 E0.0107
G1 X7.967 Y1.949 E0.1595
G1 X7.875 Y1.729 E0.0107
G1 X7.875 Y-4.687 E0.2881
G1 X7.876 Y-4.706 E0.0009
G1 X7.894 Y-4.985 E0.0125
G1 X7.896 Y-5.004 E0.0009
G1 X-7.603 Y13.522 F4200
G1 X-7.573 Y13.548 E0.0018 F1800
G1 X-7.173 Y13.949 E0.0254
G1 X-7.147 Y13.978 E0.0018
G1 X-6.092 Y15.357 E0.0780
G1 X-6.070 Y15.390 E0.0017
G1 X-5.791 Y15.874 E0.0251
G1 X-5.774 Y15.909 E0.0017
G1 X-5.108 Y17.511 E0.0779
G1 X-5.096 Y17.549 E0.0018
G1 X-4.949 Y18.094 E0.0253
G1 X-4.941 Y18.132 E0.0018
G1 X-4.732 Y19.718 E0.0718
G1 X-4.730 Y19.738 E0.0009
G1 X-4.712 Y20.020 E0.0127
G1 X-4.711 Y20.039 E0.0009
G1 X-4.711 Y47.322 E1.2250
G1 X-4.712 Y47.342 E0.0009
G1 X-4.730 Y47.624 E0.0127
G1 X-4.732 Y47.644 E0.0009
G1 X-4.942 Y49.227 E0.0717
G1 X-4.949 Y49.265 E0.0018
G1 X-5.095 Y49.808 E0.0253
G1 X-5.108 Y49.845 E0.0018
G1 X-5.773 Y51.450 E0.0780
G1 X-5.790 Y51.485 E0.0018
G1 X-6.070 Y51.970 E0.0252
G1 X-6.091 Y52.003 E0.0018
G1 X-7.148 Y53.384 E0.0781
G1 X-7.174 Y53.413 E0.0018
G1 X-7.576 Y53.816 E0.0256
G1 X-7.606 Y53.842 E0.0018
G1 X-8.988 Y54.900 E0.0781
G1 X-9.020 Y54.921 E0.0018
G1 X-9.505 Y55.201 E0.0251
G1 X-9.540 Y55.218 E0.0018
G1 X-11.144 Y55.883 E0.0780
G1 X-11.181 Y55.896 E0.0018
G1 X-11.725 Y56.042 E0.0253
G1 X-11.764 Y56.050 E0.0018
G1 X-13.348 Y56.259 E0.0718
G1 X-13.368 Y56.261 E0.0009
G1 X-13.650 Y56.280 E0.0127
G1 X-13.670 Y56.280 E0.0009
G1 X-24.587 Y56.280 E0.4902
G1 X-24.650 Y56.254 E0.0031
G1 X-46.971 Y56.254 E1.0022
G1 X-47.038 Y56.282 E0.0032
G1 X-76.877 Y56.256 E1.3398
G1 X-76.935 Y56.280 E0.0028
G1 X-88.652 Y56.280 E0.5261
G1 X-88.672 Y56.280 E0.0009
G1 X-88.954 Y56.261 E0.0127
G1 X-88.973 Y56.259 E0.0009
G1 X-90.559 Y56.050 E0.0718
G1 X-90.598 Y56.042 E0.0018
G1 X-91.143 Y55.896 E0.0253
G1 X-91.180 Y55.883 E0.0018
G1 X-92.783 Y55.217 E0.0780
G1 X-92.818 Y55.200 E0.0018
G1 X-93.304 Y54.920 E0.0252
G1 X-93.336 Y54.898 E0.0018
G1 X-94.714 Y53.843 E0.0780
G1 X-94.744 Y53.817 E0.0018
G1 X-95.143 Y53.418 E0.0253
G1 X-95.169 Y53.388 E0.0018
