; G-Code generated by Simplify3D(R) Version 4.0.0
; Aug 2, 2017 at 10:10:10 PM
; Settings Summary
;   processName,petg
;   applyToModels,pi2_cover_40mm,rpi2-bottom_netfabb
;   profileName,FlashForge Creator Pro (modified)
;   profileVersion,2015-05-01 08:00:00
;   baseProfile,
;   printMaterial,ABS
;   printQuality,Fast
;   printExtruders,Right Extruder Only
;   extruderName,Right Extruder,Left Extruder
;   extruderToolheadNumber,0,1
;   extruderDiameter,0.4,0.4
;   extruderAutoWidth,0,0
;   extruderWidth,0.4,0.4
;   extrusionMultiplier,1,1
;   extruderUseRetract,1,1
;   extruderRetractionDistance,1,1
;   extruderExtraRestartDistance,0,0
;   extruderRetractionZLift,0,0
;   extruderRetractionSpeed,1200,1200
;   extruderUseCoasting,0,0
;   extruderCoastingDistance,0.2,0.2
;   extruderUseWipe,0,0
;   extruderWipeDistance,5,5
;   primaryExtruder,0
;   layerHeight,0.3
;   topSolidLayers,3
;   bottomSolidLayers,3
;   perimeterOutlines,2
;   printPerimetersInsideOut,1
;   startPointOption,2
;   startPointOriginX,0
;   startPointOriginY,0
;   sequentialIslands,0
;   spiralVaseMode,0
;   firstLayerHeightPercentage,90
;   firstLayerWidthPercentage,100
;   firstLayerUnderspeed,0.5
;   useRaft,0
;   raftExtruder,0
;   raftTopLayers,3
;   raftBaseLayers,2
;   raftOffset,3
;   raftSeparationDistance,0.14
;   raftTopInfill,100
;   aboveRaftSpeedMultiplier,0.3
;   useSkirt,1
;   skirtExtruder,0
;   skirtLayers,1
;   skirtOutlines,2
;   skirtOffset,4
;   usePrimePillar,0
;   primePillarExtruder,999
;   primePillarWidth,12
;   primePillarLocation,7
;   primePillarSpeedMultiplier,1
;   useOozeShield,0
;   oozeShieldExtruder,999
;   oozeShieldOffset,2
;   oozeShieldOutlines,1
;   oozeShieldSidewallShape,1
;   oozeShieldSidewallAngle,30
;   oozeShieldSpeedMultiplier,1
;   infillExtruder,0
;   internalInfillPattern,Rectilinear
;   externalInfillPattern,Rectilinear
;   infillPercentage,20
;   outlineOverlapPercentage,20
;   infillExtrusionWidthPercentage,100
;   minInfillLength,5
;   infillLayerInterval,1
;   internalInfillAngles,45,-45
;   overlapInternalInfillAngles,0
;   externalInfillAngles,45,-45
;   generateSupport,0
;   supportExtruder,0
;   supportInfillPercentage,25
;   supportExtraInflation,0
;   supportBaseLayers,0
;   denseSupportExtruder,0
;   denseSupportLayers,0
;   denseSupportInfillPercentage,70
;   supportLayerInterval,1
;   supportHorizontalPartOffset,0.3
;   supportUpperSeparationLayers,1
;   supportLowerSeparationLayers,1
;   supportType,0
;   supportGridSpacing,4
;   maxOverhangAngle,45
;   supportAngles,0
;   temperatureName,Right Extruder,Left Extruder,Heated Build Platform
;   temperatureNumber,0,1,0
;   temperatureSetpointCount,1,1,1
;   temperatureSetpointLayers,1,1,1
;   temperatureSetpointTemperatures,230,0,90
;   temperatureStabilizeAtStartup,0,0,0
;   temperatureHeatedBed,0,0,1
;   temperatureRelayBetweenLayers,0,0,0
;   temperatureRelayBetweenLoops,0,0,0
;   fanLayers,1
;   fanSpeeds,0
;   blipFanToFullPower,0
;   adjustSpeedForCooling,1
;   minSpeedLayerTime,15
;   minCoolingSpeedSlowdown,20
;   increaseFanForCooling,0
;   minFanLayerTime,45
;   maxCoolingFanSpeed,100
;   increaseFanForBridging,1
;   bridgingFanSpeed,100
;   use5D,1
;   relativeEdistances,1
;   allowEaxisZeroing,0
;   independentExtruderAxes,1
;   includeM10123,0
;   stickySupport,1
;   applyToolheadOffsets,0
;   gcodeXoffset,0
;   gcodeYoffset,0
;   gcodeZoffset,0
;   overrideMachineDefinition,1
;   machineTypeOverride,0
;   strokeXoverride,225
;   strokeYoverride,145
;   strokeZoverride,150
;   originOffsetXoverride,112.5
;   originOffsetYoverride,72.5
;   originOffsetZoverride,0
;   homeXdirOverride,1
;   homeYdirOverride,1
;   homeZdirOverride,-1
;   flipXoverride,1
;   flipYoverride,-1
;   flipZoverride,1
;   toolheadOffsets,0,0|34,0|0,0|0,0|0,0|0,0
;   overrideFirmwareConfiguration,1
;   firmwareTypeOverride,MakerBot/Sailfish Firmware
;   GPXconfigOverride,r1d
;   baudRateOverride,115200
;   overridePrinterModels,1
;   printerModelsOverride,FlashForge_CreatorPro.stl
;   startingGcode,; **** Replicator 1 dual start.gcode ****,M73 P0 ; enable build progress,G162 X Y F3000 ; home XY maximum,G161 Z F1200 ; home Z minimum,G92 Z-5 ; set Z to -5,G1 Z0 ; move Z to 0,G161 Z F100 ; home Z slowly,M132 X Y Z A B ; recall home offsets,M135 T0 ; load right extruder offsets,G1 X150 Y-70 Z30 F9000 ; move to wait position right hand side of the table,G130 X20 Y20 Z20 A20 B20 ; lower stepper Vrefs while heating,M126 S[fan_speed_pwm],M140 S[bed0_temperature] T0,M134 T0 ; stabilize bed temperature,M104 S[extruder0_temperature] T0,M133 T0 ; stabilize right extruder temperature,G130 X127 Y127 Z40 A127 B127 ; default stepper Vrefs,G92 A0 B0 ; zero extruders,G1 Z0.4 ; position nozzle,G1 X110 Y-70 E25 F300 ; purge nozzle,G1 X120 Y-70 Z0.15 F1200 ; slow wipe,G1 X110 Y-70 Z0.5 F1200 ; lift,G92 A0 B0 ; zero extruders,M73 P1 ;@body (notify GPX body has started),; **** end of start.gcode ****
;   layerChangeGcode,
;   retractionGcode,
;   toolChangeGcode,
;   endingGcode,; **** Replicator 1 dual end.gcode ****,M73 P100 ; end build progress,G1 Z150 F1000 ; send Z axis to bottom of machine,M140 S0 T0 ; cool down HBP,M104 S0 T0 ; cool down right extruder,M104 S0 T1 ; cool down left extruder,M127 ; stop blower fan,G162 X Y F3000 ; home XY maximum,M18 ; disable stepper,M72 P1 ; play Ta-Da song,; **** end of end.gcode ****
;   exportFileFormat,x3g
;   celebration,0
;   celebrationSong,Random Song
;   postProcessing,
;   defaultSpeed,3600
;   outlineUnderspeed,0.5
;   solidInfillUnderspeed,0.8
;   supportUnderspeed,0.8
;   rapidXYspeed,4200
;   rapidZspeed,1200
;   minBridgingArea,50
;   bridgingExtraInflation,0
;   bridgingExtrusionMultiplier,1
;   bridgingSpeedMultiplier,0.8
;   useFixedBridgingAngle,0
;   fixedBridgingAngle,0
;   applyBridgingToPerimeters,0
;   filamentDiameters,1.75|1.75|1.75|1.75|1.75|1.75
;   filamentPricesPerKg,46|46|46|46|46|46
;   filamentDensities,1.25|1.25|1.25|1.25|1.25|1.25
;   useMinPrintHeight,0
;   minPrintHeight,0
;   useMaxPrintHeight,0
;   maxPrintHeight,0
;   useDiaphragm,0
;   diaphragmLayerInterval,20
;   robustSlicing,1
;   mergeAllIntoSolid,0
;   onlyRetractWhenCrossingOutline,1
;   retractBetweenLayers,1
;   useRetractionMinTravel,0
;   retractionMinTravel,3
;   retractWhileWiping,0
;   onlyWipeOutlines,1
;   avoidCrossingOutline,0
;   maxMovementDetourFactor,3
;   toolChangeRetractionDistance,12
;   toolChangeExtraRestartDistance,-0.5
;   toolChangeRetractionSpeed,600
;   externalThinWallType,0
;   internalThinWallType,2
;   thinWallAllowedOverlapPercentage,10
;   singleExtrusionMinLength,1
;   singleExtrusionMinPrintingWidthPercentage,50
;   singleExtrusionMaxPrintingWidthPercentage,200
;   singleExtrusionEndpointExtension,0.2
;   horizontalSizeCompensation,0
G90
M83
; **** Replicator 1 dual start.gcode ****
M73 P0 ; enable build progress
G162 X Y F3000 ; home XY maximum
G161 Z F1200 ; home Z minimum
G92 Z-5 ; set Z to -5
G1 Z0 ; move Z to 0
G161 Z F100 ; home Z slowly
M132 X Y Z A B ; recall home offsets
M135 T0 ; load right extruder offsets
G1 X150 Y-70 Z30 F9000 ; move to wait position right hand side of the table
G130 X20 Y20 Z20 A20 B20 ; lower stepper Vrefs while heating
M127
M140 S90 T0
M134 T0 ; stabilize bed temperature
M104 S230 T0
M133 T0 ; stabilize right extruder temperature
G130 X127 Y127 Z40 A127 B127 ; default stepper Vrefs
G92 A0 B0 ; zero extruders
G1 Z0.4 ; position nozzle
G1 X110 Y-70 E25 F300 ; purge nozzle
G1 X120 Y-70 Z0.15 F1200 ; slow wipe
G1 X110 Y-70 Z0.5 F1200 ; lift
G92 A0 B0 ; zero extruders
M73 P1 ;@body (notify GPX body has started)
; **** end of start.gcode ****
G1 E-1.0000 F1200
G1 Z0.270 F1200
; process petg
; layer 1, Z = 0.270
M135 T0
; tool H0.300 W0.400
; skirt
G1 X-8.272 Y10.852 F4200
G1 E1.0000 F360
G1 X-8.251 Y10.843 E0.0011 F1800
G1 X-7.680 Y10.624 E0.0305
G1 X-7.680 Y-23.374 E1.6961
G1 X-8.226 Y-23.583 E0.0292
G1 X-8.243 Y-23.591 E0.0010
G1 X-8.494 Y-23.706 E0.0137
G1 X-8.511 Y-23.714 E0.0010
G1 X-9.177 Y-24.073 E0.0377
G1 X-9.191 Y-24.081 E0.0008
G1 X-9.385 Y-24.199 E0.0114
G1 X-9.399 Y-24.208 E0.0008
G1 X-9.840 Y-24.510 E0.0267
G1 X-9.853 Y-24.519 E0.0008
G1 X-10.027 Y-24.652 E0.0109
G1 X-10.039 Y-24.662 E0.0008
G1 X-10.602 Y-25.138 E0.0368
G1 X-10.615 Y-25.149 E0.0008
G1 X-10.791 Y-25.316 E0.0121
G1 X-10.803 Y-25.328 E0.0008
G1 X-11.256 Y-25.809 E0.0330
G1 X-11.269 Y-25.824 E0.0010
G1 X-11.453 Y-26.047 E0.0144
G1 X-11.465 Y-26.063 E0.0010
G1 X-12.001 Y-26.812 E0.0459
G1 X-12.014 Y-26.831 E0.0011
G1 X-12.184 Y-27.110 E0.0163
G1 X-12.195 Y-27.130 E0.0011
G1 X-12.601 Y-27.932 E0.0449
G1 X-12.611 Y-27.952 E0.0011
G1 X-12.733 Y-28.245 E0.0158
G1 X-12.741 Y-28.266 E0.0011
G1 X-13.010 Y-29.072 E0.0424
G1 X-13.015 Y-29.089 E0.0009
G1 X-13.080 Y-29.330 E0.0124
G1 X-13.084 Y-29.346 E0.0009
G1 X-13.219 Y-29.995 E0.0331
G1 X-13.223 Y-30.018 E0.0011
G1 X-13.266 Y-30.341 E0.0163
G1 X-13.268 Y-30.364 E0.0011
G1 X-13.328 Y-31.477 E0.0556
G1 X-13.328 Y-31.505 E0.0014
G1 X-13.313 Y-31.907 E0.0201
G1 X-13.310 Y-31.935 E0.0014
G1 X-13.157 Y-33.085 E0.0579
G1 X-13.151 Y-33.115 E0.0015
G1 X-13.050 Y-33.538 E0.0217
G1 X-13.042 Y-33.567 E0.0015
G1 X-12.649 Y-34.696 E0.0596
G1 X-12.641 Y-34.716 E0.0011
G1 X-12.519 Y-34.999 E0.0154
G1 X-12.510 Y-35.019 E0.0011
G1 X-12.240 Y-35.540 E0.0293
G1 X-12.231 Y-35.556 E0.0009
G1 X-12.100 Y-35.776 E0.0128
G1 X-12.090 Y-35.791 E0.0009
G1 X-11.581 Y-36.539 E0.0451
G1 X-11.568 Y-36.557 E0.0011
G1 X-11.377 Y-36.799 E0.0154
G1 X-11.363 Y-36.815 E0.0011
G1 X-10.839 Y-37.388 E0.0387
G1 X-10.824 Y-37.403 E0.0010
G1 X-10.611 Y-37.606 E0.0147
G1 X-10.596 Y-37.620 E0.0010
G1 X-9.946 Y-38.159 E0.0421
G1 X-9.936 Y-38.166 E0.0006
G1 X-9.800 Y-38.270 E0.0085
G1 X-9.791 Y-38.277 E0.0006
G1 X-7.995 Y-39.541 E0.1095
G1 X-8.316 Y-40.168 E0.0351
G1 X-8.324 Y-40.185 E0.0009
G1 X-8.432 Y-40.432 E0.0135
G1 X-8.439 Y-40.449 E0.0009
G1 X-8.740 Y-41.278 E0.0440
G1 X-8.746 Y-41.296 E0.0010
G1 X-8.824 Y-41.565 E0.0139
G1 X-8.829 Y-41.583 E0.0010
G1 X-8.994 Y-42.327 E0.0380
G1 X-8.997 Y-42.345 E0.0009
G1 X-9.038 Y-42.603 E0.0130
G1 X-9.041 Y-42.621 E0.0009
G1 X-9.119 Y-43.427 E0.0404
G1 X-9.120 Y-43.446 E0.0010
G1 X-9.129 Y-43.720 E0.0137
G1 X-9.129 Y-43.739 E0.0010
G1 X-9.104 Y-44.561 E0.0410
G1 X-9.103 Y-44.581 E0.0010
G1 X-9.075 Y-44.868 E0.0144
G1 X-9.072 Y-44.888 E0.0010
G1 X-8.929 Y-45.745 E0.0434
G1 X-8.925 Y-45.764 E0.0009
G1 X-8.864 Y-46.029 E0.0135
G1 X-8.859 Y-46.047 E0.0009
G1 X-8.641 Y-46.776 E0.0380
G1 X-8.635 Y-46.792 E0.0009
G1 X-8.551 Y-47.025 E0.0124
G1 X-8.544 Y-47.041 E0.0009
G1 X-8.262 Y-47.697 E0.0356
G1 X-8.255 Y-47.713 E0.0009
G1 X-8.138 Y-47.944 E0.0129
G1 X-8.130 Y-47.960 E0.0009
G1 X-7.705 Y-48.690 E0.0422
G1 X-7.695 Y-48.707 E0.0010
G1 X-7.543 Y-48.933 E0.0136
G1 X-7.532 Y-48.949 E0.0010
G1 X-7.092 Y-49.524 E0.0361
G1 X-7.081 Y-49.537 E0.0009
G1 X-6.914 Y-49.730 E0.0127
G1 X-6.902 Y-49.743 E0.0009
G1 X-6.283 Y-50.379 E0.0443
G1 X-6.267 Y-50.395 E0.0011
G1 X-6.021 Y-50.612 E0.0164
G1 X-6.003 Y-50.626 E0.0011
G1 X-5.259 Y-51.188 E0.0465
G1 X-5.245 Y-51.197 E0.0008
G1 X-5.043 Y-51.332 E0.0121
G1 X-5.029 Y-51.341 E0.0008
G1 X-4.494 Y-51.657 E0.0310
G1 X-4.480 Y-51.665 E0.0008
G1 X-4.266 Y-51.776 E0.0120
G1 X-4.251 Y-51.783 E0.0008
G1 X-3.539 Y-52.102 E0.0389
G1 X-3.522 Y-52.109 E0.0009
G1 X-3.272 Y-52.204 E0.0133
G1 X-3.254 Y-52.210 E0.0009
G1 X-2.478 Y-52.448 E0.0405
G1 X-2.459 Y-52.453 E0.0010
G1 X-2.192 Y-52.516 E0.0137
G1 X-2.173 Y-52.520 E0.0010
G1 X-1.370 Y-52.658 E0.0406
G1 X-1.351 Y-52.660 E0.0009
G1 X-1.080 Y-52.689 E0.0136
G1 X-1.061 Y-52.690 E0.0009
G1 X-0.247 Y-52.725 E0.0406
G1 X-0.228 Y-52.725 E0.0010
G1 X0.047 Y-52.720 E0.0137
G1 X0.066 Y-52.719 E0.0010
G1 X0.878 Y-52.649 E0.0406
G1 X0.897 Y-52.647 E0.0009
G1 X1.166 Y-52.607 E0.0136
G1 X1.185 Y-52.603 E0.0009
G1 X1.981 Y-52.432 E0.0406
G1 X2.000 Y-52.427 E0.0010
G1 X2.265 Y-52.352 E0.0137
G1 X2.283 Y-52.346 E0.0010
G1 X3.051 Y-52.075 E0.0406
G1 X3.069 Y-52.068 E0.0009
G1 X3.320 Y-51.961 E0.0136
G1 X3.337 Y-51.953 E0.0009
G1 X4.064 Y-51.586 E0.0406
G1 X4.081 Y-51.577 E0.0010
G1 X4.318 Y-51.438 E0.0137
G1 X4.334 Y-51.428 E0.0010
G1 X5.008 Y-50.973 E0.0406
G1 X5.023 Y-50.962 E0.0009
G1 X5.239 Y-50.795 E0.0136
G1 X5.254 Y-50.783 E0.0009
G1 X5.815 Y-50.289 E0.0373
G1 X5.822 Y-50.283 E0.0005
G1 X5.923 Y-50.188 E0.0069
G1 X5.930 Y-50.182 E0.0005
G1 X13.081 Y-43.030 E0.5046
G1 X13.282 Y-42.843 E0.0137
G1 X13.627 Y-42.579 E0.0217
G1 X14.037 Y-42.339 E0.0237
G1 X14.458 Y-42.164 E0.0227
G1 X14.883 Y-42.050 E0.0220
G1 X15.321 Y-41.992 E0.0220
G1 X58.822 Y-41.975 E2.1703
G1 X59.044 Y-41.982 E0.0111
G1 X59.558 Y-42.050 E0.0259
G1 X60.059 Y-42.184 E0.0259
G1 X60.130 Y-42.211 E0.0038
G1 X60.578 Y-42.431 E0.0249
G1 X60.926 Y-42.660 E0.0208
G1 X61.415 Y-43.085 E0.0323
G1 X68.506 Y-50.177 E0.5004
G1 X68.512 Y-50.183 E0.0004
G1 X68.602 Y-50.268 E0.0062
G1 X68.609 Y-50.273 E0.0004
G1 X69.074 Y-50.688 E0.0311
G1 X69.087 Y-50.699 E0.0009
G1 X69.283 Y-50.854 E0.0124
G1 X69.296 Y-50.864 E0.0009
G1 X70.044 Y-51.389 E0.0456
G1 X70.062 Y-51.400 E0.0011
G1 X70.324 Y-51.558 E0.0153
G1 X70.343 Y-51.568 E0.0011
G1 X71.078 Y-51.942 E0.0411
G1 X71.095 Y-51.950 E0.0009
G1 X71.344 Y-52.057 E0.0135
G1 X71.361 Y-52.063 E0.0009
G1 X72.122 Y-52.336 E0.0403
G1 X72.140 Y-52.341 E0.0009
G1 X72.402 Y-52.417 E0.0136
G1 X72.420 Y-52.422 E0.0009
G1 X73.209 Y-52.596 E0.0403
G1 X73.227 Y-52.599 E0.0009
G1 X73.494 Y-52.641 E0.0135
G1 X73.513 Y-52.643 E0.0009
G1 X74.317 Y-52.717 E0.0403
G1 X74.336 Y-52.718 E0.0009
G1 X74.609 Y-52.725 E0.0136
G1 X74.628 Y-52.725 E0.0009
G1 X75.435 Y-52.697 E0.0403
G1 X75.454 Y-52.695 E0.0009
G1 X75.723 Y-52.669 E0.0135
G1 X75.742 Y-52.666 E0.0009
G1 X76.539 Y-52.537 E0.0403
G1 X76.557 Y-52.533 E0.0009
G1 X76.823 Y-52.473 E0.0136
G1 X76.841 Y-52.468 E0.0009
G1 X77.622 Y-52.237 E0.0406
G1 X77.641 Y-52.230 E0.0010
G1 X77.908 Y-52.132 E0.0142
G1 X77.926 Y-52.125 E0.0010
G1 X78.709 Y-51.775 E0.0428
G1 X78.726 Y-51.767 E0.0009
G1 X78.963 Y-51.642 E0.0134
G1 X78.980 Y-51.633 E0.0009
G1 X79.626 Y-51.242 E0.0377
G1 X79.641 Y-51.232 E0.0009
G1 X79.856 Y-51.084 E0.0130
G1 X79.870 Y-51.073 E0.0009
G1 X80.498 Y-50.580 E0.0398
G1 X80.512 Y-50.568 E0.0009
G1 X80.708 Y-50.394 E0.0131
G1 X80.721 Y-50.381 E0.0009
G1 X81.249 Y-49.851 E0.0373
G1 X81.262 Y-49.837 E0.0009
G1 X81.438 Y-49.636 E0.0133
G1 X81.450 Y-49.622 E0.0009
G1 X81.989 Y-48.925 E0.0440
G1 X82.001 Y-48.908 E0.0010
G1 X82.168 Y-48.658 E0.0150
G1 X82.179 Y-48.641 E0.0010
G1 X82.592 Y-47.917 E0.0415
G1 X82.600 Y-47.903 E0.0008
G1 X82.632 Y-47.838 E0.0036
G1 X82.814 Y-47.819 E0.0091
G1 X82.831 Y-47.817 E0.0008
G1 X83.603 Y-47.691 E0.0390
G1 X83.623 Y-47.687 E0.0010
G1 X83.904 Y-47.622 E0.0144
G1 X83.923 Y-47.617 E0.0010
G1 X84.701 Y-47.380 E0.0405
G1 X84.720 Y-47.374 E0.0010
G1 X84.990 Y-47.271 E0.0144
G1 X85.008 Y-47.263 E0.0010
G1 X85.732 Y-46.932 E0.0397
G1 X85.749 Y-46.924 E0.0009
G1 X85.978 Y-46.802 E0.0130
G1 X85.993 Y-46.793 E0.0009
G1 X86.577 Y-46.435 E0.0341
G1 X86.595 Y-46.423 E0.0011
G1 X86.847 Y-46.242 E0.0155
G1 X86.864 Y-46.229 E0.0011
G1 X87.670 Y-45.557 E0.0524
G1 X87.686 Y-45.543 E0.0010
G1 X87.898 Y-45.340 E0.0146
G1 X87.912 Y-45.326 E0.0010
G1 X88.305 Y-44.895 E0.0291
G1 X88.317 Y-44.881 E0.0009
G1 X88.479 Y-44.681 E0.0128
G1 X88.490 Y-44.667 E0.0009
G1 X89.023 Y-43.920 E0.0458
G1 X89.035 Y-43.902 E0.0011
G1 X89.194 Y-43.641 E0.0152
G1 X89.205 Y-43.623 E0.0011
G1 X89.549 Y-42.959 E0.0373
G1 X89.557 Y-42.942 E0.0010
G1 X89.669 Y-42.687 E0.0139
G1 X89.676 Y-42.669 E0.0010
G1 X89.968 Y-41.867 E0.0426
G1 X89.975 Y-41.846 E0.0011
G1 X90.059 Y-41.549 E0.0154
G1 X90.064 Y-41.528 E0.0011
G1 X90.239 Y-40.687 E0.0429
G1 X90.242 Y-40.670 E0.0009
G1 X90.681 Y-40.253 E0.0302
G1 X90.715 Y-40.214 E0.0026
G1 X91.418 Y-39.270 E0.0588
G1 X91.451 Y-39.214 E0.0032
G1 X91.834 Y-38.370 E0.0462
G1 X91.854 Y-38.309 E0.0032
G1 X92.066 Y-37.315 E0.0507
G1 X92.071 Y-37.284 E0.0016
G1 X92.119 Y-36.833 E0.0226
G1 X92.120 Y-36.802 E0.0016
G1 X92.120 Y24.035 E3.0352
G1 X92.119 Y24.065 E0.0015
G1 X92.078 Y24.484 E0.0210
G1 X92.074 Y24.513 E0.0015
