; G-Code generated by Simplify3D(R) Version 4.0.0
; Aug 18, 2017 at 1:49:45 PM
; Settings Summary
;   processName,petg
;   applyToModels,Roomba_Clip
;   profileName,FlashForge Creator Pro (modified)
;   profileVersion,2015-05-01 08:00:00
;   baseProfile,
;   printMaterial,ABS
;   printQuality,Fast
;   printExtruders,Right Extruder Only
;   extruderName,Right Extruder,Left Extruder
;   extruderToolheadNumber,0,1
;   extruderDiameter,0.4,0.4
;   extruderAutoWidth,0,0
;   extruderWidth,0.4,0.4
;   extrusionMultiplier,1,1
;   extruderUseRetract,1,1
;   extruderRetractionDistance,1,1
;   extruderExtraRestartDistance,0,0
;   extruderRetractionZLift,0,0
;   extruderRetractionSpeed,1200,1200
;   extruderUseCoasting,0,0
;   extruderCoastingDistance,0.2,0.2
;   extruderUseWipe,0,0
;   extruderWipeDistance,5,5
;   primaryExtruder,0
;   layerHeight,0.3
;   topSolidLayers,3
;   bottomSolidLayers,3
;   perimeterOutlines,2
;   printPerimetersInsideOut,1
;   startPointOption,2
;   startPointOriginX,0
;   startPointOriginY,0
;   sequentialIslands,0
;   spiralVaseMode,0
;   firstLayerHeightPercentage,90
;   firstLayerWidthPercentage,100
;   firstLayerUnderspeed,0.5
;   useRaft,0
;   raftExtruder,0
;   raftTopLayers,3
;   raftBaseLayers,2
;   raftOffset,3
;   raftSeparationDistance,0.14
;   raftTopInfill,100
;   aboveRaftSpeedMultiplier,0.3
;   useSkirt,1
;   skirtExtruder,0
;   skirtLayers,1
;   skirtOutlines,2
;   skirtOffset,4
;   usePrimePillar,0
;   primePillarExtruder,999
;   primePillarWidth,12
;   primePillarLocation,7
;   primePillarSpeedMultiplier,1
;   useOozeShield,0
;   oozeShieldExtruder,999
;   oozeShieldOffset,2
;   oozeShieldOutlines,1
;   oozeShieldSidewallShape,1
;   oozeShieldSidewallAngle,30
;   oozeShieldSpeedMultiplier,1
;   infillExtruder,0
;   internalInfillPattern,Rectilinear
;   externalInfillPattern,Rectilinear
;   infillPercentage,20
;   outlineOverlapPercentage,20
;   infillExtrusionWidthPercentage,100
;   minInfillLength,5
;   infillLayerInterval,1
;   internalInfillAngles,45,-45
;   overlapInternalInfillAngles,0
;   externalInfillAngles,45,-45
;   generateSupport,0
;   supportExtruder,0
;   supportInfillPercentage,25
;   supportExtraInflation,0
;   supportBaseLayers,0
;   denseSupportExtruder,0
;   denseSupportLayers,0
;   denseSupportInfillPercentage,70
;   supportLayerInterval,1
;   supportHorizontalPartOffset,0.3
;   supportUpperSeparationLayers,1
;   supportLowerSeparationLayers,1
;   supportType,0
;   supportGridSpacing,4
;   maxOverhangAngle,45
;   supportAngles,0
;   temperatureName,Right Extruder,Left Extruder,Heated Build Platform
;   temperatureNumber,0,1,0
;   temperatureSetpointCount,1,1,1
;   temperatureSetpointLayers,1,1,1
;   temperatureSetpointTemperatures,230,0,90
;   temperatureStabilizeAtStartup,0,0,0
;   temperatureHeatedBed,0,0,1
;   temperatureRelayBetweenLayers,0,0,0
;   temperatureRelayBetweenLoops,0,0,0
;   fanLayers,1
;   fanSpeeds,0
;   blipFanToFullPower,0
;   adjustSpeedForCooling,1
;   minSpeedLayerTime,15
;   minCoolingSpeedSlowdown,20
;   increaseFanForCooling,0
;   minFanLayerTime,45
;   maxCoolingFanSpeed,100
;   increaseFanForBridging,1
;   bridgingFanSpeed,100
;   use5D,1
;   relativeEdistances,1
;   allowEaxisZeroing,0
;   independentExtruderAxes,1
;   includeM10123,0
;   stickySupport,1
;   applyToolheadOffsets,0
;   gcodeXoffset,0
;   gcodeYoffset,0
;   gcodeZoffset,0
;   overrideMachineDefinition,1
;   machineTypeOverride,0
;   strokeXoverride,225
;   strokeYoverride,145
;   strokeZoverride,150
;   originOffsetXoverride,112.5
;   originOffsetYoverride,72.5
;   originOffsetZoverride,0
;   homeXdirOverride,1
;   homeYdirOverride,1
;   homeZdirOverride,-1
;   flipXoverride,1
;   flipYoverride,-1
;   flipZoverride,1
;   toolheadOffsets,0,0|34,0|0,0|0,0|0,0|0,0
;   overrideFirmwareConfiguration,1
;   firmwareTypeOverride,MakerBot/Sailfish Firmware
;   GPXconfigOverride,r1d
;   baudRateOverride,115200
;   overridePrinterModels,1
;   printerModelsOverride,FlashForge_CreatorPro.stl
;   startingGcode,; **** Replicator 1 dual start.gcode ****,M73 P0 ; enable build progress,G162 X Y F3000 ; home XY maximum,G161 Z F1200 ; home Z minimum,G92 Z-5 ; set Z to -5,G1 Z0 ; move Z to 0,G161 Z F100 ; home Z slowly,M132 X Y Z A B ; recall home offsets,M135 T0 ; load right extruder offsets,G1 X150 Y-70 Z30 F9000 ; move to wait position right hand side of the table,G130 X20 Y20 Z20 A20 B20 ; lower stepper Vrefs while heating,M126 S[fan_speed_pwm],M140 S[bed0_temperature] T0,M134 T0 ; stabilize bed temperature,M104 S[extruder0_temperature] T0,M133 T0 ; stabilize right extruder temperature,G130 X127 Y127 Z40 A127 B127 ; default stepper Vrefs,G92 A0 B0 ; zero extruders,G1 Z0.4 ; position nozzle,G1 X110 Y-70 E25 F300 ; purge nozzle,G1 X120 Y-70 Z0.15 F1200 ; slow wipe,G1 X110 Y-70 Z0.5 F1200 ; lift,G92 A0 B0 ; zero extruders,M73 P1 ;@body (notify GPX body has started),; **** end of start.gcode ****
;   layerChangeGcode,
;   retractionGcode,
;   toolChangeGcode,
;   endingGcode,; **** Replicator 1 dual end.gcode ****,M73 P100 ; end build progress,G1 Z150 F1000 ; send Z axis to bottom of machine,M140 S0 T0 ; cool down HBP,M104 S0 T0 ; cool down right extruder,M104 S0 T1 ; cool down left extruder,M127 ; stop blower fan,G162 X Y F3000 ; home XY maximum,M18 ; disable stepper,M72 P1 ; play Ta-Da song,; **** end of end.gcode ****
;   exportFileFormat,x3g
;   celebration,0
;   celebrationSong,Random Song
;   postProcessing,
;   defaultSpeed,3600
;   outlineUnderspeed,0.5
;   solidInfillUnderspeed,0.8
;   supportUnderspeed,0.8
;   rapidXYspeed,4200
;   rapidZspeed,1200
;   minBridgingArea,50
;   bridgingExtraInflation,0
;   bridgingExtrusionMultiplier,1
;   bridgingSpeedMultiplier,0.8
;   useFixedBridgingAngle,0
;   fixedBridgingAngle,0
;   applyBridgingToPerimeters,0
;   filamentDiameters,1.75|1.75|1.75|1.75|1.75|1.75
;   filamentPricesPerKg,46|46|46|46|46|46
;   filamentDensities,1.25|1.25|1.25|1.25|1.25|1.25
;   useMinPrintHeight,0
;   minPrintHeight,0
;   useMaxPrintHeight,0
;   maxPrintHeight,0
;   useDiaphragm,0
;   diaphragmLayerInterval,20
;   robustSlicing,1
;   mergeAllIntoSolid,0
;   onlyRetractWhenCrossingOutline,1
;   retractBetweenLayers,1
;   useRetractionMinTravel,0
;   retractionMinTravel,3
;   retractWhileWiping,0
;   onlyWipeOutlines,1
;   avoidCrossingOutline,0
;   maxMovementDetourFactor,3
;   toolChangeRetractionDistance,12
;   toolChangeExtraRestartDistance,-0.5
;   toolChangeRetractionSpeed,600
;   externalThinWallType,0
;   internalThinWallType,2
;   thinWallAllowedOverlapPercentage,10
;   singleExtrusionMinLength,1
;   singleExtrusionMinPrintingWidthPercentage,50
;   singleExtrusionMaxPrintingWidthPercentage,200
;   singleExtrusionEndpointExtension,0.2
;   horizontalSizeCompensation,0
G90
M83
; **** Replicator 1 dual start.gcode ****
M73 P0 ; enable build progress
G162 X Y F3000 ; home XY maximum
G161 Z F1200 ; home Z minimum
G92 Z-5 ; set Z to -5
G1 Z0 ; move Z to 0
G161 Z F100 ; home Z slowly
M132 X Y Z A B ; recall home offsets
M135 T0 ; load right extruder offsets
G1 X150 Y-70 Z30 F9000 ; move to wait position right hand side of the table
G130 X20 Y20 Z20 A20 B20 ; lower stepper Vrefs while heating
M127
M140 S90 T0
M134 T0 ; stabilize bed temperature
M104 S230 T0
M133 T0 ; stabilize right extruder temperature
G130 X127 Y127 Z40 A127 B127 ; default stepper Vrefs
G92 A0 B0 ; zero extruders
G1 Z0.4 ; position nozzle
G1 X110 Y-70 E25 F300 ; purge nozzle
G1 X120 Y-70 Z0.15 F1200 ; slow wipe
G1 X110 Y-70 Z0.5 F1200 ; lift
G92 A0 B0 ; zero extruders
M73 P1 ;@body (notify GPX body has started)
; **** end of start.gcode ****
G1 E-1.0000 F1200
G1 Z0.270 F1200
; process petg
; layer 1, Z = 0.270
M135 T0
; tool H0.300 W0.400
; skirt
G1 X36.922 Y1.727 F4200
G1 E1.0000 F360
G1 X-36.922 Y1.727 E3.6841 F1800
G1 X-38.178 Y1.770 E0.0627
G1 X-39.345 Y1.889 E0.0585
G1 X-40.515 Y2.089 E0.0592
G1 X-41.639 Y2.360 E0.0577
G1 X-42.775 Y2.717 E0.0595
G1 X-43.853 Y3.137 E0.0577
G1 X-44.927 Y3.641 E0.0592
G1 X-45.938 Y4.202 E0.0577
G1 X-46.939 Y4.849 E0.0595
G1 X-47.879 Y5.552 E0.0586
G1 X-48.771 Y6.317 E0.0586
G1 X-49.610 Y7.141 E0.0587
G1 X-50.390 Y8.021 E0.0587
G1 X-51.110 Y8.951 E0.0587
G1 X-51.755 Y9.911 E0.0577
G1 X-52.345 Y10.930 E0.0587
G1 X-52.863 Y11.985 E0.0586
G1 X-53.310 Y13.073 E0.0586
G1 X-53.681 Y14.188 E0.0587
G1 X-53.977 Y15.326 E0.0586
G1 X-54.195 Y16.481 E0.0587
G1 X-54.334 Y17.648 E0.0586
G1 X-54.395 Y18.822 E0.0587
G1 X-54.376 Y19.998 E0.0586
G1 X-54.277 Y21.169 E0.0587
G1 X-54.100 Y22.331 E0.0586
G1 X-53.844 Y23.479 E0.0587
G1 X-53.512 Y24.607 E0.0587
G1 X-53.104 Y25.709 E0.0587
G1 X-52.623 Y26.782 E0.0587
G1 X-52.070 Y27.819 E0.0586
G1 X-50.196 Y30.830 E0.1769
G1 X-50.173 Y31.121 E0.0146
G1 X-51.889 Y35.205 E0.2210
G1 X-52.113 Y35.392 E0.0146
G1 X-63.011 Y37.808 E0.5569
G1 X-63.277 Y37.746 E0.0136
G1 X-66.482 Y35.174 E0.2051
G1 X-66.600 Y34.928 E0.0136
G1 X-66.600 Y-34.649 E3.4712
G1 X-66.509 Y-34.869 E0.0119
G1 X-63.997 Y-37.381 E0.1772
G1 X-63.776 Y-37.473 E0.0119
G1 X63.776 Y-37.473 E6.3636
G1 X63.997 Y-37.381 E0.0119
G1 X66.509 Y-34.869 E0.1772
G1 X66.600 Y-34.649 E0.0119
G1 X66.600 Y34.928 E3.4712
G1 X66.482 Y35.174 E0.0136
G1 X63.277 Y37.746 E0.2051
G1 X63.011 Y37.808 E0.0136
G1 X52.113 Y35.392 E0.5569
G1 X51.889 Y35.205 E0.0146
G1 X50.173 Y31.121 E0.2210
G1 X50.196 Y30.830 E0.0146
G1 X52.070 Y27.819 E0.1769
G1 X52.623 Y26.782 E0.0586
G1 X53.104 Y25.709 E0.0587
G1 X53.512 Y24.607 E0.0587
G1 X53.844 Y23.479 E0.0587
G1 X54.100 Y22.331 E0.0586
G1 X54.277 Y21.169 E0.0587
G1 X54.374 Y20.016 E0.0577
G1 X54.395 Y18.839 E0.0587
G1 X54.336 Y17.665 E0.0586
G1 X54.197 Y16.497 E0.0587
G1 X53.980 Y15.342 E0.0586
G1 X53.686 Y14.204 E0.0586
G1 X53.315 Y13.088 E0.0587
G1 X52.870 Y12.000 E0.0586
G1 X52.353 Y10.944 E0.0587
G1 X51.765 Y9.926 E0.0586
G1 X51.110 Y8.950 E0.0587
G1 X50.390 Y8.020 E0.0586
G1 X49.610 Y7.142 E0.0586
G1 X48.771 Y6.317 E0.0587
G1 X47.879 Y5.552 E0.0586
G1 X46.939 Y4.849 E0.0586
G1 X45.938 Y4.202 E0.0594
G1 X44.927 Y3.641 E0.0577
G1 X43.853 Y3.137 E0.0592
G1 X42.776 Y2.717 E0.0577
G1 X41.638 Y2.360 E0.0595
G1 X40.515 Y2.089 E0.0577
G1 X39.345 Y1.889 E0.0592
G1 X38.178 Y1.770 E0.0585
G1 X36.922 Y1.727 E0.0627
G1 X36.929 Y1.327 F4200
G1 X-36.929 Y1.327 E3.6848 F1800
G1 X-38.205 Y1.371 E0.0637
G1 X-39.399 Y1.492 E0.0599
G1 X-40.595 Y1.697 E0.0605
G1 X-41.746 Y1.974 E0.0590
G1 X-42.908 Y2.339 E0.0608
G1 X-44.011 Y2.769 E0.0590
G1 X-45.109 Y3.285 E0.0606
G1 X-46.144 Y3.859 E0.0590
G1 X-47.167 Y4.520 E0.0608
G1 X-48.130 Y5.239 E0.0600
G1 X-49.042 Y6.023 E0.0600
G1 X-49.900 Y6.866 E0.0600
G1 X-50.698 Y7.765 E0.0600
G1 X-51.435 Y8.717 E0.0600
G1 X-52.095 Y9.699 E0.0591
G1 X-52.698 Y10.741 E0.0601
G1 X-53.228 Y11.821 E0.0600
G1 X-53.685 Y12.933 E0.0600
G1 X-54.065 Y14.074 E0.0600
G1 X-54.367 Y15.238 E0.0600
G1 X-54.590 Y16.420 E0.0600
G1 X-54.733 Y17.614 E0.0600
G1 X-54.795 Y18.816 E0.0600
G1 X-54.775 Y20.018 E0.0600
G1 X-54.675 Y21.216 E0.0600
G1 X-54.493 Y22.405 E0.0600
G1 X-54.232 Y23.579 E0.0600
G1 X-53.892 Y24.733 E0.0600
G1 X-53.475 Y25.861 E0.0600
G1 X-52.982 Y26.958 E0.0600
G1 X-52.417 Y28.019 E0.0600
G1 X-50.587 Y30.959 E0.1727
G1 X-50.579 Y31.056 E0.0049
G1 X-52.220 Y34.961 E0.2113
G1 X-52.295 Y35.023 E0.0049
G1 X-63.009 Y37.398 E0.5475
G1 X-63.097 Y37.377 E0.0045
G1 X-66.161 Y34.919 E0.1960
G1 X-66.200 Y34.837 E0.0045
G1 X-66.200 Y-34.569 E3.4627
G1 X-66.170 Y-34.643 E0.0040
G1 X-63.770 Y-37.042 E0.1693
G1 X-63.697 Y-37.073 E0.0040
G1 X63.697 Y-37.073 E6.3557
G1 X63.770 Y-37.042 E0.0040
G1 X66.170 Y-34.643 E0.1693
G1 X66.200 Y-34.569 E0.0040
G1 X66.200 Y34.837 E3.4627
G1 X66.161 Y34.919 E0.0045
G1 X63.097 Y37.377 E0.1960
G1 X63.009 Y37.398 E0.0045
G1 X52.295 Y35.023 E0.5475
G1 X52.220 Y34.961 E0.0049
G1 X50.579 Y31.056 E0.2113
G1 X50.587 Y30.959 E0.0049
G1 X52.417 Y28.019 E0.1727
G1 X52.982 Y26.958 E0.0600
G1 X53.475 Y25.861 E0.0600
G1 X53.892 Y24.733 E0.0600
G1 X54.232 Y23.579 E0.0600
G1 X54.493 Y22.405 E0.0600
G1 X54.675 Y21.216 E0.0600
G1 X54.774 Y20.036 E0.0591
G1 X54.795 Y18.832 E0.0601
G1 X54.734 Y17.631 E0.0600
G1 X54.593 Y16.437 E0.0600
G1 X54.371 Y15.255 E0.0600
G1 X54.070 Y14.090 E0.0600
G1 X53.691 Y12.949 E0.0600
G1 X53.235 Y11.836 E0.0600
G1 X52.706 Y10.756 E0.0600
G1 X52.105 Y9.715 E0.0600
G1 X51.434 Y8.716 E0.0600
G1 X50.698 Y7.765 E0.0600
G1 X49.900 Y6.866 E0.0600
G1 X49.042 Y6.023 E0.0600
G1 X48.130 Y5.239 E0.0600
G1 X47.167 Y4.520 E0.0599
G1 X46.144 Y3.859 E0.0608
G1 X45.109 Y3.285 E0.0590
G1 X44.011 Y2.769 E0.0606
G1 X42.908 Y2.339 E0.0590
G1 X41.745 Y1.974 E0.0608
G1 X40.595 Y1.697 E0.0590
G1 X39.399 Y1.492 E0.0605
G1 X38.205 Y1.371 E0.0599
G1 X36.929 Y1.327 E0.0637
G1 E-1.0000 F1200
; inner perimeter
G1 X37.010 Y-3.473 F4200
G1 E1.0000 F1200
G1 X-37.010 Y-3.473 E3.6929 F1350
G1 X-38.529 Y-3.421 E0.0758
G1 X-40.048 Y-3.266 E0.0762
G1 X-41.564 Y-3.007 E0.0767
G1 X-43.028 Y-2.654 E0.0752
G1 X-44.500 Y-2.192 E0.0770
G1 X-45.904 Y-1.645 E0.0751
G1 X-47.296 Y-0.991 E0.0767
G1 X-48.613 Y-0.260 E0.0751
G1 X-49.910 Y0.577 E0.0770
G1 X-51.133 Y1.491 E0.0762
G1 X-52.292 Y2.486 E0.0762
G1 X-53.381 Y3.557 E0.0762
G1 X-54.395 Y4.699 E0.0762
G1 X-55.330 Y5.906 E0.0762
G1 X-56.169 Y7.157 E0.0751
G1 X-56.934 Y8.478 E0.0762
G1 X-57.608 Y9.849 E0.0762
G1 X-58.187 Y11.262 E0.0762
G1 X-58.670 Y12.711 E0.0762
G1 X-59.054 Y14.189 E0.0762
G1 X-59.337 Y15.689 E0.0762
G1 X-59.518 Y17.206 E0.0762
G1 X-59.597 Y18.731 E0.0762
G1 X-59.572 Y20.258 E0.0762
G1 X-59.444 Y21.780 E0.0762
G1 X-59.214 Y23.290 E0.0762
G1 X-58.882 Y24.780 E0.0762
G1 X-58.450 Y26.245 E0.0762
G1 X-57.921 Y27.678 E0.0762
G1 X-57.295 Y29.071 E0.0762
G1 X-56.578 Y30.419 E0.0762
G1 X-56.229 Y30.979 E0.0329
G1 X-61.400 Y32.125 E0.2642
G1 X-61.400 Y-32.273 E3.2128
G1 X61.400 Y-32.273 E6.1265
G1 X61.400 Y32.125 E3.2128
G1 X56.229 Y30.979 E0.2642
G1 X56.578 Y30.419 E0.0329
G1 X57.295 Y29.071 E0.0762
G1 X57.921 Y27.678 E0.0762
G1 X58.450 Y26.245 E0.0762
G1 X58.882 Y24.780 E0.0762
G1 X59.214 Y23.290 E0.0762
G1 X59.444 Y21.780 E0.0762
G1 X59.571 Y20.279 E0.0751
G1 X59.597 Y18.753 E0.0762
G1 X59.520 Y17.227 E0.0762
G1 X59.340 Y15.711 E0.0762
G1 X59.059 Y14.210 E0.0762
G1 X58.676 Y12.731 E0.0762
G1 X58.195 Y11.282 E0.0762
G1 X57.617 Y9.869 E0.0762
G1 X56.944 Y8.497 E0.0762
G1 X56.181 Y7.174 E0.0762
G1 X55.330 Y5.907 E0.0762
G1 X54.395 Y4.699 E0.0762
G1 X53.381 Y3.557 E0.0762
G1 X52.292 Y2.486 E0.0762
G1 X51.133 Y1.491 E0.0762
G1 X49.910 Y0.577 E0.0762
G1 X48.613 Y-0.260 E0.0770
G1 X47.296 Y-0.991 E0.0751
G1 X45.904 Y-1.645 E0.0767
G1 X44.500 Y-2.192 E0.0751
G1 X43.028 Y-2.654 E0.0770
G1 X41.564 Y-3.007 E0.0752
G1 X40.048 Y-3.266 E0.0767
G1 X38.529 Y-3.421 E0.0762
G1 X37.010 Y-3.473 E0.0758
; outer perimeter
G1 X37.003 Y-3.073 F4200
G1 X-37.003 Y-3.073 E3.6922 F900
G1 X-38.502 Y-3.022 E0.0748
G1 X-39.994 Y-2.870 E0.0748
G1 X-41.483 Y-2.615 E0.0754
G1 X-42.921 Y-2.268 E0.0738
G1 X-44.368 Y-1.814 E0.0756
G1 X-45.746 Y-1.277 E0.0738
G1 X-47.114 Y-0.635 E0.0754
G1 X-48.407 Y0.083 E0.0738
G1 X-49.681 Y0.906 E0.0757
G1 X-50.883 Y1.804 E0.0748
G1 X-52.021 Y2.781 E0.0748
G1 X-53.091 Y3.833 E0.0748
G1 X-54.087 Y4.954 E0.0748
G1 X-55.005 Y6.141 E0.0748
G1 X-55.830 Y7.369 E0.0738
G1 X-56.581 Y8.667 E0.0748
G1 X-57.243 Y10.013 E0.0748
G1 X-57.812 Y11.401 E0.0748
G1 X-58.286 Y12.824 E0.0748
G1 X-58.663 Y14.276 E0.0748
G1 X-58.942 Y15.750 E0.0748
G1 X-59.120 Y17.240 E0.0748
G1 X-59.197 Y18.738 E0.0748
G1 X-59.172 Y20.238 E0.0748
G1 X-59.047 Y21.733 E0.0748
G1 X-58.820 Y23.216 E0.0748
G1 X-58.494 Y24.680 E0.0748
G1 X-58.070 Y26.119 E0.0748
G1 X-57.550 Y27.526 E0.0748
G1 X-56.936 Y28.895 E0.0748
G1 X-56.231 Y30.219 E0.0748
G1 X-55.591 Y31.247 E0.0604
G1 X-61.800 Y32.623 E0.3173
G1 X-61.800 Y-32.673 E3.2576
G1 X61.800 Y-32.673 E6.1664
G1 X61.800 Y32.623 E3.2576
G1 X55.591 Y31.247 E0.3173
G1 X56.231 Y30.219 E0.0604
G1 X56.936 Y28.895 E0.0748
G1 X57.550 Y27.526 E0.0748
G1 X58.070 Y26.119 E0.0748
G1 X58.494 Y24.680 E0.0748
G1 X58.820 Y23.216 E0.0748
G1 X59.047 Y21.733 E0.0748
G1 X59.171 Y20.259 E0.0738
G1 X59.197 Y18.759 E0.0748
G1 X59.121 Y17.261 E0.0748
G1 X58.945 Y15.771 E0.0748
G1 X58.668 Y14.297 E0.0748
