; G-Code generated by Simplify3D(R) Version 4.0.0
; Aug 17, 2017 at 9:15:50 PM
; Settings Summary
;   processName,Process5
;   applyToModels,WacomMonitorSidePenHolder
;   profileName,FlashForge Creator Pro (modified)
;   profileVersion,2015-05-01 08:00:00
;   baseProfile,
;   printMaterial,PLA
;   printQuality,Fast
;   printExtruders,Left Extruder Only
;   extruderName,Right Extruder,Left Extruder
;   extruderToolheadNumber,0,1
;   extruderDiameter,0.4,0.4
;   extruderAutoWidth,0,0
;   extruderWidth,0.4,0.4
;   extrusionMultiplier,0.9,0.9
;   extruderUseRetract,1,1
;   extruderRetractionDistance,1,1
;   extruderExtraRestartDistance,0,0
;   extruderRetractionZLift,0,0
;   extruderRetractionSpeed,1200,1200
;   extruderUseCoasting,0,0
;   extruderCoastingDistance,0.2,0.2
;   extruderUseWipe,0,0
;   extruderWipeDistance,5,5
;   primaryExtruder,1
;   layerHeight,0.3
;   topSolidLayers,3
;   bottomSolidLayers,3
;   perimeterOutlines,2
;   printPerimetersInsideOut,1
;   startPointOption,2
;   startPointOriginX,0
;   startPointOriginY,0
;   sequentialIslands,0
;   spiralVaseMode,0
;   firstLayerHeightPercentage,90
;   firstLayerWidthPercentage,100
;   firstLayerUnderspeed,0.5
;   useRaft,0
;   raftExtruder,1
;   raftTopLayers,3
;   raftBaseLayers,2
;   raftOffset,3
;   raftSeparationDistance,0.14
;   raftTopInfill,100
;   aboveRaftSpeedMultiplier,0.3
;   useSkirt,1
;   skirtExtruder,1
;   skirtLayers,1
;   skirtOutlines,2
;   skirtOffset,4
;   usePrimePillar,0
;   primePillarExtruder,999
;   primePillarWidth,12
;   primePillarLocation,7
;   primePillarSpeedMultiplier,1
;   useOozeShield,0
;   oozeShieldExtruder,999
;   oozeShieldOffset,2
;   oozeShieldOutlines,1
;   oozeShieldSidewallShape,1
;   oozeShieldSidewallAngle,30
;   oozeShieldSpeedMultiplier,1
;   infillExtruder,1
;   internalInfillPattern,Rectilinear
;   externalInfillPattern,Rectilinear
;   infillPercentage,100
;   outlineOverlapPercentage,20
;   infillExtrusionWidthPercentage,100
;   minInfillLength,5
;   infillLayerInterval,1
;   internalInfillAngles,45,-45
;   overlapInternalInfillAngles,0
;   externalInfillAngles,45,-45
;   generateSupport,0
;   supportExtruder,1
;   supportInfillPercentage,25
;   supportExtraInflation,0
;   supportBaseLayers,0
;   denseSupportExtruder,1
;   denseSupportLayers,0
;   denseSupportInfillPercentage,70
;   supportLayerInterval,1
;   supportHorizontalPartOffset,0.3
;   supportUpperSeparationLayers,1
;   supportLowerSeparationLayers,1
;   supportType,0
;   supportGridSpacing,4
;   maxOverhangAngle,45
;   supportAngles,0
;   temperatureName,Right Extruder,Left Extruder,Heated Build Platform
;   temperatureNumber,0,1,0
;   temperatureSetpointCount,1,1,1
;   temperatureSetpointLayers,1,1,1
;   temperatureSetpointTemperatures,0,200,60
;   temperatureStabilizeAtStartup,0,0,0
;   temperatureHeatedBed,0,0,1
;   temperatureRelayBetweenLayers,0,0,0
;   temperatureRelayBetweenLoops,0,0,0
;   fanLayers,1,2
;   fanSpeeds,0,100
;   blipFanToFullPower,0
;   adjustSpeedForCooling,1
;   minSpeedLayerTime,15
;   minCoolingSpeedSlowdown,20
;   increaseFanForCooling,0
;   minFanLayerTime,45
;   maxCoolingFanSpeed,100
;   increaseFanForBridging,1
;   bridgingFanSpeed,100
;   use5D,1
;   relativeEdistances,1
;   allowEaxisZeroing,0
;   independentExtruderAxes,1
;   includeM10123,0
;   stickySupport,1
;   applyToolheadOffsets,0
;   gcodeXoffset,0
;   gcodeYoffset,0
;   gcodeZoffset,0
;   overrideMachineDefinition,1
;   machineTypeOverride,0
;   strokeXoverride,225
;   strokeYoverride,145
;   strokeZoverride,150
;   originOffsetXoverride,112.5
;   originOffsetYoverride,72.5
;   originOffsetZoverride,0
;   homeXdirOverride,1
;   homeYdirOverride,1
;   homeZdirOverride,-1
;   flipXoverride,1
;   flipYoverride,-1
;   flipZoverride,1
;   toolheadOffsets,0,0|34,0|0,0|0,0|0,0|0,0
;   overrideFirmwareConfiguration,1
;   firmwareTypeOverride,MakerBot/Sailfish Firmware
;   GPXconfigOverride,r1d
;   baudRateOverride,115200
;   overridePrinterModels,1
;   printerModelsOverride,FlashForge_CreatorPro.stl
;   startingGcode,; **** Replicator 1 dual start.gcode ****,M73 P0 ; enable build progress,G162 X Y F3000 ; home XY maximum,G161 Z F1200 ; home Z minimum,G92 Z-5 ; set Z to -5,G1 Z0 ; move Z to 0,G161 Z F100 ; home Z slowly,M132 X Y Z A B ; recall home offsets,M135 T0 ; load right extruder offsets,G1 X150 Y-70 Z30 F9000 ; move to wait position right hand side of the table,G130 X20 Y20 Z20 A20 B20 ; lower stepper Vrefs while heating,M126 S[fan_speed_pwm],M140 S[bed0_temperature] T0,M134 T0 ; stabilize bed temperature,M104 S[extruder1_temperature] T1,M133 T1 ; stabilize left extruder temperature,G130 X127 Y127 Z40 A127 B127 ; default stepper Vrefs,G92 A0 B0 ; zero extruders,G1 Z0.4 ; position nozzle,M135 T1 ; left tool,G1 X110 Y-70 E30 F300 ; move nozzle,G1 X120 Y-70 Z0.15 F1200 ; slow wipe,G1 X110 Y-70 Z0.5 F1200 ; lift,G92 A0 B0 ; zero extruders,M73 P1 ;@body (notify GPX body has started),; **** end of start.gcode ****
;   layerChangeGcode,
;   retractionGcode,
;   toolChangeGcode,
;   endingGcode,; **** Replicator 1 dual end.gcode ****,M73 P100 ; end build progress,G1 Z150 F1000 ; send Z axis to bottom of machine,M140 S0 T0 ; cool down HBP,M104 S0 T0 ; cool down right extruder,M104 S0 T1 ; cool down left extruder,M127 ; stop blower fan,G162 X Y F3000 ; home XY maximum,M18 ; disable stepper,M72 P1 ; play Ta-Da song,; **** end of end.gcode ****
;   exportFileFormat,x3g
;   celebration,0
;   celebrationSong,Random Song
;   postProcessing,
;   defaultSpeed,3600
;   outlineUnderspeed,0.5
;   solidInfillUnderspeed,0.8
;   supportUnderspeed,0.8
;   rapidXYspeed,4200
;   rapidZspeed,1200
;   minBridgingArea,50
;   bridgingExtraInflation,0
;   bridgingExtrusionMultiplier,1
;   bridgingSpeedMultiplier,0.8
;   useFixedBridgingAngle,0
;   fixedBridgingAngle,0
;   applyBridgingToPerimeters,0
;   filamentDiameters,1.75|1.75|1.75|1.75|1.75|1.75
;   filamentPricesPerKg,46|46|46|46|46|46
;   filamentDensities,1.25|1.25|1.25|1.25|1.25|1.25
;   useMinPrintHeight,0
;   minPrintHeight,0
;   useMaxPrintHeight,0
;   maxPrintHeight,0
;   useDiaphragm,0
;   diaphragmLayerInterval,20
;   robustSlicing,1
;   mergeAllIntoSolid,0
;   onlyRetractWhenCrossingOutline,1
;   retractBetweenLayers,1
;   useRetractionMinTravel,0
;   retractionMinTravel,3
;   retractWhileWiping,0
;   onlyWipeOutlines,1
;   avoidCrossingOutline,0
;   maxMovementDetourFactor,3
;   toolChangeRetractionDistance,12
;   toolChangeExtraRestartDistance,-0.5
;   toolChangeRetractionSpeed,600
;   externalThinWallType,0
;   internalThinWallType,2
;   thinWallAllowedOverlapPercentage,10
;   singleExtrusionMinLength,1
;   singleExtrusionMinPrintingWidthPercentage,50
;   singleExtrusionMaxPrintingWidthPercentage,200
;   singleExtrusionEndpointExtension,0.2
;   horizontalSizeCompensation,0
G90
M83
; **** Replicator 1 dual start.gcode ****
M73 P0 ; enable build progress
G162 X Y F3000 ; home XY maximum
G161 Z F1200 ; home Z minimum
G92 Z-5 ; set Z to -5
G1 Z0 ; move Z to 0
G161 Z F100 ; home Z slowly
M132 X Y Z A B ; recall home offsets
M135 T0 ; load right extruder offsets
G1 X150 Y-70 Z30 F9000 ; move to wait position right hand side of the table
G130 X20 Y20 Z20 A20 B20 ; lower stepper Vrefs while heating
M127
M140 S60 T0
M134 T0 ; stabilize bed temperature
M104 S200 T1
M133 T1 ; stabilize left extruder temperature
G130 X127 Y127 Z40 A127 B127 ; default stepper Vrefs
G92 A0 B0 ; zero extruders
G1 Z0.4 ; position nozzle
M135 T1 ; left tool
G1 X110 Y-70 E30 F300 ; move nozzle
G1 X120 Y-70 Z0.15 F1200 ; slow wipe
G1 X110 Y-70 Z0.5 F1200 ; lift
G92 A0 B0 ; zero extruders
M73 P1 ;@body (notify GPX body has started)
; **** end of start.gcode ****
G1 E-1.0000 F1200
G1 Z0.270 F1200
; process Process5
; layer 1, Z = 0.270
M135 T1
; tool H0.300 W0.400
; skirt
G1 X19.276 Y13.100 F4200
G1 E1.0000 F360
G1 X-19.276 Y13.100 E1.7310 F1800
G1 X-19.497 Y13.009 E0.0107
G1 X-22.009 Y10.497 E0.1595
G1 X-22.100 Y10.276 E0.0107
G1 X-22.100 Y-10.276 E0.9228
G1 X-22.009 Y-10.497 E0.0107
G1 X-19.497 Y-13.009 E0.1595
G1 X-19.276 Y-13.100 E0.0107
G1 X19.276 Y-13.100 E1.7310
G1 X19.497 Y-13.009 E0.0107
G1 X22.009 Y-10.497 E0.1595
G1 X22.100 Y-10.276 E0.0107
G1 X22.100 Y10.276 E0.9228
G1 X22.009 Y10.497 E0.0107
G1 X19.497 Y13.009 E0.1595
G1 X19.276 Y13.100 E0.0107
G1 X19.197 Y12.700 F4200
G1 X-19.197 Y12.700 E1.7239 F1800
G1 X-19.270 Y12.670 E0.0036
G1 X-21.670 Y10.270 E0.1524
G1 X-21.700 Y10.197 E0.0036
G1 X-21.700 Y-10.197 E0.9157
G1 X-21.670 Y-10.270 E0.0036
G1 X-19.270 Y-12.670 E0.1524
G1 X-19.197 Y-12.700 E0.0036
G1 X19.197 Y-12.700 E1.7239
G1 X19.270 Y-12.670 E0.0036
G1 X21.670 Y-10.270 E0.1524
G1 X21.700 Y-10.197 E0.0036
G1 X21.700 Y10.197 E0.9157
G1 X21.670 Y10.270 E0.0036
G1 X19.270 Y12.670 E0.1524
G1 X19.197 Y12.700 E0.0036
G1 E-1.0000 F1200
; inner perimeter
G1 X16.900 Y7.900 F4200
G1 E1.0000 F1200
G1 X-16.900 Y7.900 E1.5177 F1350
G1 X-16.900 Y-7.900 E0.7094
G1 X16.900 Y-7.900 E1.5177
G1 X16.900 Y7.900 E0.7094
; outer perimeter
G1 X17.300 Y8.300 F4200
G1 X-17.300 Y8.300 E1.5536 F900
G1 X-17.300 Y-8.300 E0.7454
G1 X17.300 Y-8.300 E1.5536
G1 X17.300 Y8.300 E0.7454
; solid layer
G1 X16.179 Y-7.580 F4200
G1 X16.580 Y-7.179 E0.0255 F1440
G1 X16.580 Y-6.613 E0.0254
G1 X15.613 Y-7.580 E0.0614
G1 X15.047 Y-7.580 E0.0254
G1 X16.580 Y-6.047 E0.0973
G1 X16.580 Y-5.482 E0.0254
G1 X14.482 Y-7.580 E0.1332
G1 X13.916 Y-7.580 E0.0254
G1 X16.580 Y-4.916 E0.1692
G1 X16.580 Y-4.350 E0.0254
G1 X13.350 Y-7.580 E0.2051
G1 X12.785 Y-7.580 E0.0254
G1 X16.580 Y-3.785 E0.2410
G1 X16.580 Y-3.219 E0.0254
G1 X12.219 Y-7.580 E0.2769
G1 X11.653 Y-7.580 E0.0254
G1 X16.580 Y-2.653 E0.3128
G1 X16.580 Y-2.088 E0.0254
G1 X11.088 Y-7.580 E0.3488
G1 X10.522 Y-7.580 E0.0254
G1 X16.580 Y-1.522 E0.3847
G1 X16.580 Y-0.956 E0.0254
G1 X9.956 Y-7.580 E0.4206
G1 X9.391 Y-7.580 E0.0254
G1 X16.580 Y-0.391 E0.4565
G1 X16.580 Y0.175 E0.0254
G1 X8.825 Y-7.580 E0.4924
G1 X8.259 Y-7.580 E0.0254
G1 X16.580 Y0.741 E0.5284
G1 X16.580 Y1.306 E0.0254
G1 X7.694 Y-7.580 E0.5643
G1 X7.128 Y-7.580 E0.0254
G1 X16.580 Y1.872 E0.6002
G1 X16.580 Y2.438 E0.0254
G1 X6.562 Y-7.580 E0.6361
G1 X5.996 Y-7.580 E0.0254
G1 X16.580 Y3.004 E0.6721
G1 X16.580 Y3.569 E0.0254
G1 X5.431 Y-7.580 E0.7080
G1 X4.865 Y-7.580 E0.0254
G1 X16.580 Y4.135 E0.7439
G1 X16.580 Y4.701 E0.0254
G1 X4.299 Y-7.580 E0.7798
G1 X3.734 Y-7.580 E0.0254
G1 X16.580 Y5.266 E0.8157
G1 X16.580 Y5.832 E0.0254
G1 X3.168 Y-7.580 E0.8517
G1 X2.602 Y-7.580 E0.0254
G1 X16.580 Y6.398 E0.8876
G1 X16.580 Y6.963 E0.0254
G1 X2.037 Y-7.580 E0.9235
G1 X1.471 Y-7.580 E0.0254
G1 X16.580 Y7.529 E0.9594
G1 X16.580 Y7.580 E0.0023
G1 X16.065 Y7.580 E0.0231
G1 X0.905 Y-7.580 E0.9627
G1 X0.340 Y-7.580 E0.0254
G1 X15.500 Y7.580 E0.9627
G1 X14.934 Y7.580 E0.0254
G1 X-0.226 Y-7.580 E0.9627
G1 X-0.792 Y-7.580 E0.0254
G1 X14.368 Y7.580 E0.9627
G1 X13.803 Y7.580 E0.0254
G1 X-1.357 Y-7.580 E0.9627
G1 X-1.923 Y-7.580 E0.0254
G1 X13.237 Y7.580 E0.9627
G1 X12.671 Y7.580 E0.0254
G1 X-2.489 Y-7.580 E0.9627
G1 X-3.055 Y-7.580 E0.0254
G1 X12.105 Y7.580 E0.9627
G1 X11.540 Y7.580 E0.0254
G1 X-3.620 Y-7.580 E0.9627
G1 X-4.186 Y-7.580 E0.0254
G1 X10.974 Y7.580 E0.9627
G1 X10.408 Y7.580 E0.0254
G1 X-4.752 Y-7.580 E0.9627
G1 X-5.317 Y-7.580 E0.0254
G1 X9.843 Y7.580 E0.9627
G1 X9.277 Y7.580 E0.0254
G1 X-5.883 Y-7.580 E0.9627
G1 X-6.449 Y-7.580 E0.0254
G1 X8.711 Y7.580 E0.9627
G1 X8.146 Y7.580 E0.0254
G1 X-7.014 Y-7.580 E0.9627
G1 X-7.580 Y-7.580 E0.0254
G1 X7.580 Y7.580 E0.9627
G1 X7.014 Y7.580 E0.0254
G1 X-8.146 Y-7.580 E0.9627
G1 X-8.711 Y-7.580 E0.0254
G1 X6.449 Y7.580 E0.9627
G1 X5.883 Y7.580 E0.0254
G1 X-9.277 Y-7.580 E0.9627
G1 X-9.843 Y-7.580 E0.0254
G1 X5.317 Y7.580 E0.9627
G1 X4.752 Y7.580 E0.0254
G1 X-10.408 Y-7.580 E0.9627
G1 X-10.974 Y-7.580 E0.0254
G1 X4.186 Y7.580 E0.9627
G1 X3.620 Y7.580 E0.0254
G1 X-11.540 Y-7.580 E0.9627
G1 X-12.105 Y-7.580 E0.0254
G1 X3.055 Y7.580 E0.9627
G1 X2.489 Y7.580 E0.0254
G1 X-12.671 Y-7.580 E0.9627
G1 X-13.237 Y-7.580 E0.0254
G1 X1.923 Y7.580 E0.9627
G1 X1.357 Y7.580 E0.0254
G1 X-13.803 Y-7.580 E0.9627
G1 X-14.368 Y-7.580 E0.0254
G1 X0.792 Y7.580 E0.9627
G1 X0.226 Y7.580 E0.0254
G1 X-14.934 Y-7.580 E0.9627
G1 X-15.500 Y-7.580 E0.0254
G1 X-0.340 Y7.580 E0.9627
G1 X-0.905 Y7.580 E0.0254
G1 X-16.065 Y-7.580 E0.9627
G1 X-16.580 Y-7.580 E0.0231
G1 X-16.580 Y-7.529 E0.0023
G1 X-1.471 Y7.580 E0.9594
G1 X-2.037 Y7.580 E0.0254
G1 X-16.580 Y-6.963 E0.9235
G1 X-16.580 Y-6.398 E0.0254
G1 X-2.602 Y7.580 E0.8876
G1 X-3.168 Y7.580 E0.0254
G1 X-16.580 Y-5.832 E0.8517
G1 X-16.580 Y-5.266 E0.0254
G1 X-3.734 Y7.580 E0.8157
G1 X-4.299 Y7.580 E0.0254
G1 X-16.580 Y-4.701 E0.7798
G1 X-16.580 Y-4.135 E0.0254
G1 X-4.865 Y7.580 E0.7439
G1 X-5.431 Y7.580 E0.0254
G1 X-16.580 Y-3.569 E0.7080
G1 X-16.580 Y-3.004 E0.0254
G1 X-5.996 Y7.580 E0.6721
G1 X-6.562 Y7.580 E0.0254
G1 X-16.580 Y-2.438 E0.6361
G1 X-16.580 Y-1.872 E0.0254
G1 X-7.128 Y7.580 E0.6002
G1 X-7.693 Y7.580 E0.0254
G1 X-16.580 Y-1.307 E0.5643
G1 X-16.580 Y-0.741 E0.0254
G1 X-8.259 Y7.580 E0.5284
G1 X-8.825 Y7.580 E0.0254
G1 X-16.580 Y-0.175 E0.4924
G1 X-16.580 Y0.391 E0.0254
G1 X-9.391 Y7.580 E0.4565
G1 X-9.956 Y7.580 E0.0254
G1 X-16.580 Y0.956 E0.4206
G1 X-16.580 Y1.522 E0.0254
G1 X-10.522 Y7.580 E0.3847
G1 X-11.088 Y7.580 E0.0254
G1 X-16.580 Y2.088 E0.3488
G1 X-16.580 Y2.653 E0.0254
G1 X-11.653 Y7.580 E0.3128
G1 X-12.219 Y7.580 E0.0254
G1 X-16.580 Y3.219 E0.2769
G1 X-16.580 Y3.785 E0.0254
G1 X-12.785 Y7.580 E0.2410
G1 X-13.350 Y7.580 E0.0254
G1 X-16.580 Y4.350 E0.2051
G1 X-16.580 Y4.916 E0.0254
G1 X-13.916 Y7.580 E0.1692
G1 X-14.482 Y7.580 E0.0254
G1 X-16.580 Y5.482 E0.1332
G1 X-16.580 Y6.047 E0.0254
G1 X-15.047 Y7.580 E0.0973
G1 X-15.613 Y7.580 E0.0254
G1 X-16.580 Y6.613 E0.0614
G1 X-16.580 Y7.179 E0.0254
G1 X-16.179 Y7.580 E0.0255
G1 E-1.0000 F1200
; layer 2, Z = 0.570
M126 S255
; inner perimeter
G1 X-16.900 Y7.900 F4200
G1 Z0.570 F1200
G1 E1.0000 F1200
G1 X-16.900 Y-7.900 E0.7094 F2700
G1 X16.900 Y-7.900 E1.5177
G1 X16.900 Y7.900 E0.7094
G1 X-16.900 Y7.900 E1.5177
; outer perimeter
G1 X-17.300 Y8.300 F4200
G1 X-17.300 Y-8.300 E0.7454 F1800
G1 X17.300 Y-8.300 E1.5536
G1 X17.300 Y8.300 E0.7454
G1 X-17.300 Y8.300 E1.5536
; solid layer
G1 X-16.580 Y-7.179 F4200
G1 X-16.179 Y-7.580 E0.0255 F2880
G1 X-15.613 Y-7.580 E0.0254
G1 X-16.580 Y-6.613 E0.0614
G1 X-16.580 Y-6.047 E0.0254
G1 X-15.047 Y-7.580 E0.0973
G1 X-14.482 Y-7.580 E0.0254
G1 X-16.580 Y-5.482 E0.1332
G1 X-16.580 Y-4.916 E0.0254
G1 X-13.916 Y-7.580 E0.1692
G1 X-13.350 Y-7.580 E0.0254
G1 X-16.580 Y-4.350 E0.2051
G1 X-16.580 Y-3.785 E0.0254
G1 X-12.785 Y-7.580 E0.2410
G1 X-12.219 Y-7.580 E0.0254
G1 X-16.580 Y-3.219 E0.2769
G1 X-16.580 Y-2.653 E0.0254
G1 X-11.653 Y-7.580 E0.3128
G1 X-11.088 Y-7.580 E0.0254
G1 X-16.580 Y-2.088 E0.3488
G1 X-16.580 Y-1.522 E0.0254
G1 X-10.522 Y-7.580 E0.3847
G1 X-9.956 Y-7.580 E0.0254
G1 X-16.580 Y-0.956 E0.4206
G1 X-16.580 Y-0.391 E0.0254
G1 X-9.391 Y-7.580 E0.4565
G1 X-8.825 Y-7.580 E0.0254
G1 X-16.580 Y0.175 E0.4925
G1 X-16.580 Y0.741 E0.0254
G1 X-8.259 Y-7.580 E0.5284
G1 X-7.693 Y-7.580 E0.0254
G1 X-16.580 Y1.307 E0.5643
G1 X-16.580 Y1.872 E0.0254
G1 X-7.128 Y-7.580 E0.6002
G1 X-6.562 Y-7.580 E0.0254
G1 X-16.580 Y2.438 E0.6361
G1 X-16.580 Y3.004 E0.0254
G1 X-5.996 Y-7.580 E0.6721
G1 X-5.431 Y-7.580 E0.0254
G1 X-16.580 Y3.569 E0.7080
G1 X-16.580 Y4.135 E0.0254
G1 X-4.865 Y-7.580 E0.7439
G1 X-4.299 Y-7.580 E0.0254
G1 X-16.580 Y4.701 E0.7798
G1 X-16.580 Y5.266 E0.0254
G1 X-3.734 Y-7.580 E0.8157
G1 X-3.168 Y-7.580 E0.0254
G1 X-16.580 Y5.832 E0.8517
G1 X-16.580 Y6.398 E0.0254
G1 X-2.602 Y-7.580 E0.8876
G1 X-2.037 Y-7.580 E0.0254
G1 X-16.580 Y6.963 E0.9235
G1 X-16.580 Y7.529 E0.0254
G1 X-1.471 Y-7.580 E0.9594
G1 X-0.905 Y-7.580 E0.0254
G1 X-16.065 Y7.580 E0.9627
G1 X-15.500 Y7.580 E0.0254
G1 X-0.340 Y-7.580 E0.9627
G1 X0.226 Y-7.580 E0.0254
G1 X-14.934 Y7.580 E0.9627
G1 X-14.368 Y7.580 E0.0254
G1 X0.792 Y-7.580 E0.9627
G1 X1.357 Y-7.580 E0.0254
G1 X-13.803 Y7.580 E0.9627
G1 X-13.237 Y7.580 E0.0254
G1 X1.923 Y-7.580 E0.9627
G1 X2.489 Y-7.580 E0.0254
G1 X-12.671 Y7.580 E0.9627
G1 X-12.105 Y7.580 E0.0254
